;FLAVOR:Marlin
;TIME:21177
;Filament used: 7.46121m
;Layer height: 0.2
;MINX:27.174
;MINY:28.886
;MINZ:0.2
;MAXX:88.008
;MAXY:75.017
;MAXZ:101.6
;POSTPROCESSED
;Generated with Cura_SteamEngine 4.11.0
M140 S85
M105
M190 S85
M104 S225
M105
M109 S225
M82 ;absolute extrusion mode
M201 X500.00 Y500.00 Z100.00 E5000.00 ;Setup machine max acceleration
M203 X500.00 Y500.00 Z10.00 E50.00 ;Setup machine max feedrate
M204 P500.00 R1000.00 T500.00 ;Setup Print/Retract/Travel acceleration
M205 X8.00 Y8.00 Z0.40 E5.00 ;Setup Jerk
M220 S100 ;Reset Feedrate
M221 S100 ;Reset Flowrate
G28 ;Home
G29 ;Auto Bed Level
G92 E0 ;Reset Extruder
G1 Z2.0 F3000 ;Move Z Axis up
G1 X10.1 Y20 Z0.28 F5000.0 ;Move to start position
G1 X10.1 Y200.0 Z0.28 F1500.0 E15 ;Draw the first line
G1 X10.4 Y200.0 Z0.28 F5000.0 ;Move to side a little
G1 X10.4 Y20 Z0.28 F1500.0 E30 ;Draw the second line
G92 E0 ;Reset Extruder
G1 Z2.0 F3000 ;Move Z Axis up
G92 E0
G92 E0
G1 F1500 E-1
;LAYER_COUNT:507
;LAYER:0
M107
G1 F300 Z0.4
G0 F9000 X29.772 Y31.89 Z0.4
;TYPE:SKIRT
G1 F300 Z0.2
G1 F1500 E0
G1 F1800 X30.39 Y31.309 E0.02821
G1 X30.768 Y31.003 E0.04439
G1 X30.947 Y30.866 E0.05188
G1 X31.644 Y30.383 E0.08009
G1 X32.384 Y29.967 E0.10832
G1 X33.173 Y29.618 E0.13702
G1 X34.229 Y29.28 E0.1739
G1 X34.498 Y29.212 E0.18313
G1 X35.572 Y29.009 E0.21948
G1 X35.643 Y29 E0.22186
G1 X36.616 Y28.93 E0.25431
G1 X36.956 Y28.924 E0.26562
G1 X37.636 Y28.938 E0.28824
G1 X37.86 Y28.951 E0.2957
G1 X38.801 Y29.056 E0.32719
G1 X39.457 Y29.164 E0.3493
G1 X42.41 Y29.705 E0.44916
G1 X44.956 Y30.096 E0.53483
G1 X47.477 Y30.412 E0.61933
G1 X50.094 Y30.664 E0.70678
G1 X52.616 Y30.834 E0.79085
G1 X55.225 Y30.938 E0.8777
G1 X57.752 Y30.966 E0.96175
G1 X60.358 Y30.921 E1.04844
G1 X62.919 Y30.805 E1.1337
G1 X65.509 Y30.614 E1.22008
G1 X68.026 Y30.356 E1.30424
G1 X70.63 Y30.015 E1.39159
G1 X73.131 Y29.615 E1.47583
G1 X75.253 Y29.221 E1.54761
G1 X75.438 Y29.185 E1.55388
G1 X75.704 Y29.137 E1.56287
G1 X76.321 Y29.035 E1.58367
G1 X77.014 Y28.947 E1.6069
G1 X77.338 Y28.919 E1.61772
G1 X78.186 Y28.886 E1.64595
G1 X78.666 Y28.903 E1.66192
G1 X78.926 Y28.919 E1.67059
G1 X79.742 Y29.007 E1.69788
G1 X79.989 Y29.045 E1.70619
G1 X80.82 Y29.213 E1.73439
G1 X81.632 Y29.459 E1.76261
G1 X82.275 Y29.716 E1.78564
G1 X82.491 Y29.812 E1.79351
G1 X83.249 Y30.192 E1.82171
G1 X83.968 Y30.643 E1.84994
G1 X84.641 Y31.159 E1.87814
G1 X85.263 Y31.736 E1.90636
G1 X85.9 Y32.459 E1.93841
G1 X86.035 Y32.63 E1.94566
G1 X86.529 Y33.32 E1.97388
G1 X86.955 Y34.053 E2.00208
G1 X87.311 Y34.823 E2.03029
G1 X87.592 Y35.624 E2.05853
G1 X87.747 Y36.212 E2.07875
G1 X87.772 Y36.322 E2.0825
G1 X87.921 Y37.158 E2.11075
G1 X87.991 Y38.003 E2.13895
G1 X87.971 Y38.987 E2.17168
G1 X87.953 Y39.228 E2.17972
G1 X87.912 Y39.647 E2.19372
G1 X87.604 Y42.175 E2.27843
G1 X87.367 Y44.72 E2.36344
G1 X87.2 Y47.29 E2.4491
G1 X87.108 Y49.849 E2.53427
G1 X87.087 Y52.455 E2.62095
G1 X87.139 Y55.02 E2.70628
G1 X87.263 Y57.582 E2.79159
G1 X87.46 Y60.141 E2.87695
G1 X87.728 Y62.686 E2.96207
G1 X87.897 Y63.954 E3.00461
G1 X87.93 Y64.242 E3.01426
G1 X87.963 Y64.571 E3.02525
G1 X88.008 Y65.418 E3.05346
G1 X87.973 Y66.265 E3.08166
G1 X87.827 Y67.264 E3.11524
G1 X87.769 Y67.549 E3.12491
G1 X87.561 Y68.371 E3.15311
G1 X87.276 Y69.17 E3.18133
G1 X86.918 Y69.939 E3.20954
G1 X86.488 Y70.671 E3.23778
G1 X85.992 Y71.358 E3.26596
G1 X85.433 Y71.997 E3.2942
G1 X84.644 Y72.724 E3.32988
G1 X84.442 Y72.889 E3.33856
G1 X83.76 Y73.394 E3.36678
G1 X83.034 Y73.833 E3.395
G1 X81.972 Y74.322 E3.43389
G1 X81.886 Y74.355 E3.43695
G1 X81.081 Y74.621 E3.46515
G1 X80.08 Y74.84 E3.49923
G1 X79.798 Y74.885 E3.50873
G1 X79.07 Y74.97 E3.53311
G1 X78.888 Y74.984 E3.53918
G1 X77.725 Y74.999 E3.57786
G1 X77.364 Y74.98 E3.58989
G1 X76.663 Y74.915 E3.6133
G1 X76.312 Y74.865 E3.62509
G1 X75.981 Y74.811 E3.63625
G1 X75.716 Y74.763 E3.64521
G1 X75.041 Y74.632 E3.66808
G1 X72.399 Y74.159 E3.75735
G1 X69.867 Y73.778 E3.84251
G1 X67.343 Y73.472 E3.92707
G1 X64.754 Y73.232 E4.01355
G1 X62.161 Y73.066 E4.09997
G1 X59.632 Y72.975 E4.18414
G1 X57.028 Y72.955 E4.27075
G1 X54.457 Y73.009 E4.35628
G1 X51.906 Y73.133 E4.44123
G1 X49.331 Y73.333 E4.52713
G1 X46.775 Y73.604 E4.61262
G1 X44.218 Y73.948 E4.69844
G1 X41.686 Y74.362 E4.78377
G1 X40.289 Y74.632 E4.83109
G1 X39.519 Y74.776 E4.85715
G1 X39.036 Y74.853 E4.87341
G1 X38.594 Y74.911 E4.88824
G1 X38.241 Y74.95 E4.90005
G1 X37.967 Y74.975 E4.9092
G1 X37.335 Y75.01 E4.93026
G1 X36.997 Y75.017 E4.9415
G1 X36.149 Y74.995 E4.96972
G1 X35.32 Y74.895 E4.99749
G1 X35.076 Y74.854 E5.00572
G1 X34.247 Y74.674 E5.03393
G1 X33.149 Y74.304 E5.07247
G1 X32.959 Y74.226 E5.0793
G1 X32.19 Y73.867 E5.10753
G1 X31.459 Y73.437 E5.13574
G1 X30.771 Y72.941 E5.16395
G1 X29.859 Y72.106 E5.20507
G1 X29.7 Y71.939 E5.21274
G1 X29.144 Y71.298 E5.24096
G1 X28.652 Y70.607 E5.26918
G1 X28.227 Y69.873 E5.29739
G1 X27.872 Y69.102 E5.32562
G1 X27.592 Y68.302 E5.35381
G1 X27.338 Y67.199 E5.39146
G1 X27.302 Y66.981 E5.3988
G1 X27.204 Y66.139 E5.427
G1 X27.185 Y65.291 E5.45521
G1 X27.242 Y64.476 E5.48238
G1 X27.387 Y63.241 E5.52374
G1 X27.466 Y62.643 E5.5438
G1 X27.734 Y60.043 E5.63074
G1 X27.924 Y57.492 E5.71582
G1 X28.042 Y54.953 E5.80036
G1 X28.088 Y52.355 E5.88678
G1 X28.061 Y49.738 E5.97383
G1 X27.964 Y47.23 E6.05731
G1 X27.788 Y44.621 E6.14428
G1 X27.546 Y42.087 E6.22894
G1 X27.299 Y40.111 E6.29518
G1 X27.226 Y39.444 E6.3175
G1 X27.174 Y38.597 E6.34572
G1 X27.201 Y37.75 E6.37391
G1 X27.359 Y36.646 E6.411
G1 X27.424 Y36.331 E6.4217
G1 X27.634 Y35.509 E6.44991
G1 X27.921 Y34.711 E6.47812
G1 X28.282 Y33.943 E6.50635
G1 X28.713 Y33.213 E6.53454
G1 X29.211 Y32.526 E6.56276
G1 X29.772 Y31.89 E6.59097
G0 F9000 X30.138 Y32.088
G1 F1800 X31.011 Y31.321 E6.62962
G1 X31.19 Y31.184 E6.63712
G1 X31.872 Y30.712 E6.6647
G1 X32.596 Y30.308 E6.69228
G1 X33.318 Y29.991 E6.71851
G1 X34.327 Y29.668 E6.75374
G1 X34.596 Y29.6 E6.76297
G1 X35.623 Y29.406 E6.79773
G1 X35.694 Y29.397 E6.80011
G1 X36.623 Y29.33 E6.83109
G1 X36.963 Y29.324 E6.8424
G1 X37.613 Y29.337 E6.86403
G1 X37.837 Y29.35 E6.87149
G1 X38.736 Y29.45 E6.90157
G1 X39.392 Y29.558 E6.92369
G1 X42.349 Y30.1 E7.02368
G1 X44.882 Y30.489 E7.10891
G1 X47.491 Y30.816 E7.19637
G1 X50.03 Y31.06 E7.2812
G1 X52.61 Y31.235 E7.36721
G1 X55.205 Y31.337 E7.45359
G1 X57.754 Y31.366 E7.53837
G1 X60.382 Y31.321 E7.62579
G1 X62.931 Y31.205 E7.71066
G1 X65.546 Y31.012 E7.79787
G1 X68.082 Y30.753 E7.88266
G1 X70.673 Y30.413 E7.96958
G1 X73.227 Y30.005 E8.0556
G1 X75.242 Y29.631 E8.12376
G1 X75.515 Y29.577 E8.13302
G1 X75.769 Y29.531 E8.1416
G1 X76.386 Y29.429 E8.1624
G1 X77.049 Y29.346 E8.18463
G1 X77.373 Y29.318 E8.19544
G1 X78.201 Y29.286 E8.223
G1 X78.641 Y29.302 E8.23765
G1 X78.901 Y29.318 E8.24631
G1 X79.681 Y29.402 E8.2724
G1 X79.928 Y29.44 E8.28072
G1 X80.74 Y29.605 E8.30828
G1 X81.533 Y29.848 E8.33586
G1 X82.113 Y30.081 E8.35665
G1 X82.329 Y30.177 E8.36451
G1 X83.069 Y30.55 E8.39208
G1 X83.771 Y30.993 E8.41968
G1 X84.426 Y31.501 E8.44725
G1 X85.03 Y32.069 E8.47483
G1 X85.586 Y32.707 E8.50298
G1 X85.721 Y32.878 E8.51022
G1 X86.203 Y33.553 E8.53781
G1 X86.617 Y34.271 E8.56538
G1 X86.961 Y35.026 E8.59297
G1 X87.23 Y35.81 E8.62054
G1 X87.357 Y36.301 E8.63741
G1 X87.382 Y36.411 E8.64116
G1 X87.527 Y37.228 E8.66876
G1 X87.592 Y38.054 E8.69632
G1 X87.572 Y38.958 E8.72639
G1 X87.554 Y39.199 E8.73443
G1 X87.515 Y39.598 E8.74776
G1 X87.207 Y42.122 E8.83233
G1 X86.968 Y44.691 E8.91815
G1 X86.8 Y47.288 E9.00471
G1 X86.708 Y49.83 E9.08931
G1 X86.687 Y52.46 E9.17679
G1 X86.738 Y55.012 E9.26168
G1 X86.864 Y57.598 E9.34779
G1 X87.065 Y60.212 E9.43499
G1 X87.332 Y62.744 E9.51967
G1 X87.5 Y64.007 E9.56205
G1 X87.532 Y64.282 E9.57126
G1 X87.565 Y64.611 E9.58226
G1 X87.608 Y65.439 E9.60983
G1 X87.571 Y66.267 E9.6374
G1 X87.435 Y67.184 E9.66823
G1 X87.377 Y67.469 E9.67791
G1 X87.173 Y68.273 E9.7055
G1 X86.892 Y69.053 E9.73307
G1 X86.537 Y69.802 E9.76064
G1 X86.112 Y70.514 E9.78822
G1 X85.621 Y71.182 E9.81579
G1 X85.067 Y71.799 E9.84337
G1 X84.39 Y72.414 E9.87379
G1 X84.188 Y72.579 E9.88247
G1 X83.522 Y73.072 E9.91003
G1 X82.811 Y73.499 E9.93761
G1 X81.829 Y73.948 E9.97353
G1 X81.743 Y73.981 E9.97659
G1 X80.955 Y74.241 E10.00419
G1 X80.017 Y74.445 E10.03612
G1 X79.735 Y74.49 E10.04562
G1 X79.04 Y74.572 E10.06889
G1 X78.858 Y74.586 E10.07496
G1 X77.746 Y74.599 E10.11195
G1 X77.385 Y74.58 E10.12397
G1 X76.715 Y74.519 E10.14635
G1 X76.376 Y74.47 E10.15774
G1 X76.045 Y74.416 E10.1689
G1 X75.792 Y74.371 E10.17744
G1 X75.045 Y74.226 E10.20275
G1 X72.497 Y73.769 E10.28885
G1 X69.902 Y73.38 E10.37613
G1 X67.357 Y73.071 E10.4614
G1 X64.78 Y72.832 E10.54747
G1 X62.237 Y72.669 E10.63223
G1 X59.613 Y72.575 E10.71956
G1 X57.022 Y72.555 E10.80574
G1 X54.465 Y72.608 E10.8908
G1 X51.856 Y72.736 E10.97768
G1 X49.294 Y72.935 E11.06315
G1 X46.716 Y73.208 E11.14938
G1 X44.172 Y73.55 E11.23475
G1 X41.611 Y73.969 E11.32106
G1 X40.216 Y74.238 E11.36832
G1 X39.446 Y74.382 E11.39437
G1 X38.984 Y74.456 E11.40993
G1 X38.542 Y74.514 E11.42476
G1 X38.204 Y74.551 E11.43607
G1 X37.93 Y74.576 E11.44522
G1 X37.327 Y74.61 E11.46531
G1 X36.989 Y74.617 E11.47655
G1 X36.16 Y74.594 E11.50413
G1 X35.386 Y74.5 E11.53007
G1 X35.142 Y74.459 E11.5383
G1 X34.332 Y74.282 E11.56587
G1 X33.301 Y73.934 E11.60207
G1 X33.111 Y73.856 E11.6089
G1 X32.36 Y73.504 E11.63648
G1 X31.646 Y73.082 E11.66407
G1 X30.977 Y72.593 E11.69163
G1 X30.149 Y71.83 E11.72908
G1 X29.99 Y71.663 E11.73675
G1 X29.447 Y71.036 E11.76434
G1 X28.968 Y70.359 E11.79192
G1 X28.556 Y69.639 E11.81951
G1 X28.216 Y68.883 E11.84708
G1 X27.95 Y68.098 E11.87465
G1 X27.733 Y67.134 E11.90751
G1 X27.697 Y66.916 E11.91486
G1 X27.601 Y66.093 E11.94242
G1 X27.586 Y65.263 E11.97003
G1 X27.639 Y64.522 E11.99474
G1 X27.783 Y63.294 E12.03586
G1 X27.866 Y62.67 E12.0568
G1 X28.134 Y60.062 E12.144
G1 X28.322 Y57.54 E12.22811
G1 X28.442 Y54.944 E12.31455
G1 X28.488 Y52.358 E12.40057
G1 X28.461 Y49.766 E12.48679
G1 X28.362 Y47.188 E12.5726
G1 X28.187 Y44.592 E12.65914
G1 X27.943 Y42.032 E12.74467
G1 X27.697 Y40.068 E12.8105
G1 X27.624 Y39.401 E12.83282
G1 X27.574 Y38.573 E12.86041
G1 X27.603 Y37.744 E12.888
G1 X27.75 Y36.727 E12.92217
G1 X27.815 Y36.412 E12.93287
G1 X28.022 Y35.609 E12.96045
G1 X28.305 Y34.829 E12.98805
G1 X28.662 Y34.081 E13.01562
G1 X29.089 Y33.37 E13.0432
G1 X29.582 Y32.704 E13.07076
G1 X30.138 Y32.088 E13.09836
G0 F9000 X30.503 Y32.289
G1 F1800 X31.254 Y31.638 E13.13142
G1 X31.433 Y31.501 E13.13891
G1 X32.1 Y31.042 E13.16584
G1 X32.808 Y30.65 E13.19276
G1 X33.463 Y30.364 E13.21653
G1 X34.425 Y30.056 E13.25013
G1 X34.694 Y29.988 E13.25936
G1 X35.673 Y29.803 E13.2925
G1 X35.744 Y29.794 E13.29488
G1 X36.63 Y29.73 E13.32442
G1 X36.97 Y29.724 E13.33573
G1 X37.59 Y29.737 E13.35636
G1 X37.814 Y29.75 E13.36382
G1 X38.671 Y29.845 E13.3925
G1 X39.327 Y29.953 E13.41461
G1 X42.253 Y30.489 E13.51355
G1 X44.843 Y30.888 E13.60071
G1 X47.436 Y31.212 E13.68762
G1 X50.001 Y31.459 E13.77333
G1 X52.567 Y31.633 E13.85887
G1 X55.219 Y31.738 E13.94715
G1 X57.757 Y31.766 E14.03157
G1 X60.371 Y31.721 E14.11852
G1 X62.98 Y31.603 E14.20539
G1 X65.581 Y31.411 E14.29213
G1 X68.139 Y31.149 E14.37766
G1 X70.722 Y30.81 E14.4643
G1 X73.279 Y30.402 E14.55042
G1 X75.389 Y30.01 E14.6218
G1 X75.835 Y29.926 E14.6369
G1 X76.452 Y29.824 E14.6577
G1 X77.083 Y29.744 E14.67885
G1 X77.407 Y29.716 E14.68967
G1 X78.617 Y29.701 E14.72992
G1 X78.877 Y29.717 E14.73858
G1 X79.62 Y29.797 E14.76344
G1 X79.867 Y29.835 E14.77175
G1 X80.66 Y29.998 E14.79868
G1 X81.433 Y30.238 E14.8256
G1 X81.95 Y30.447 E14.84414
G1 X82.166 Y30.543 E14.85201
G1 X82.889 Y30.908 E14.87894
G1 X83.572 Y31.342 E14.90586
G1 X84.209 Y31.842 E14.93279
G1 X84.794 Y32.402 E14.95973
G1 X85.272 Y32.955 E14.98404
G1 X85.407 Y33.126 E14.99129
G1 X85.877 Y33.785 E15.01821
G1 X86.279 Y34.488 E15.04514
G1 X86.61 Y35.227 E15.07207
G1 X86.867 Y35.995 E15.09901
G1 X86.967 Y36.39 E15.11256
G1 X86.992 Y36.5 E15.11631
G1 X87.132 Y37.297 E15.14323
G1 X87.193 Y38.105 E15.17018
G1 X87.173 Y38.928 E15.19756
G1 X87.155 Y39.169 E15.2056
G1 X87.118 Y39.55 E15.21833
G1 X86.81 Y42.074 E15.3029
G1 X86.569 Y44.664 E15.38942
G1 X86.402 Y47.247 E15.47551
G1 X86.308 Y49.849 E15.56211
G1 X86.287 Y52.464 E15.64909
G1 X86.339 Y55.04 E15.73478
G1 X86.463 Y57.613 E15.82046
G1 X86.664 Y60.214 E15.90723
G1 X86.937 Y62.803 E15.99381
G1 X87.104 Y64.06 E16.03599
G1 X87.134 Y64.322 E16.04476
G1 X87.167 Y64.651 E16.05576
G1 X87.208 Y65.459 E16.08267
G1 X87.169 Y66.268 E16.10961
G1 X87.043 Y67.104 E16.13773
G1 X86.985 Y67.389 E16.1474
G1 X86.785 Y68.174 E16.17434
G1 X86.508 Y68.935 E16.20128
G1 X86.157 Y69.665 E16.22822
G1 X85.737 Y70.356 E16.25511
G1 X85.25 Y71.003 E16.28205
G1 X84.701 Y71.599 E16.309
G1 X84.137 Y72.105 E16.3342
G1 X83.935 Y72.27 E16.34288
G1 X83.284 Y72.75 E16.36978
G1 X82.588 Y73.164 E16.39671
G1 X81.686 Y73.575 E16.42968
G1 X81.6 Y73.608 E16.43274
G1 X80.83 Y73.86 E16.45969
G1 X79.954 Y74.05 E16.4895
G1 X79.672 Y74.095 E16.499
G1 X79.009 Y74.173 E16.52121
G1 X78.827 Y74.187 E16.52728
G1 X77.767 Y74.2 E16.56254
G1 X77.406 Y74.181 E16.57456
G1 X76.767 Y74.122 E16.5959
G1 X76.441 Y74.075 E16.60686
G1 X76.11 Y74.021 E16.61801
G1 X75.868 Y73.978 E16.62619
G1 X75.126 Y73.834 E16.65133
G1 X72.55 Y73.372 E16.73837
G1 X69.978 Y72.986 E16.82487
G1 X67.405 Y72.674 E16.91108
G1 X64.809 Y72.433 E16.99779
G1 X62.241 Y72.268 E17.08338
G1 X59.63 Y72.175 E17.17028
G1 X57.017 Y72.155 E17.25719
G1 X54.438 Y72.209 E17.34299
G1 X51.84 Y72.335 E17.4295
G1 X49.257 Y72.536 E17.51567
G1 X46.692 Y72.808 E17.60146
G1 X44.086 Y73.158 E17.68891
G1 X41.542 Y73.575 E17.77466
G1 X40.142 Y73.845 E17.82208
G1 X39.372 Y73.989 E17.84813
G1 X38.932 Y74.059 E17.86295
G1 X38.49 Y74.117 E17.87778
G1 X38.168 Y74.153 E17.88856
G1 X37.894 Y74.178 E17.89771
G1 X37.319 Y74.21 E17.91686
G1 X36.981 Y74.217 E17.92811
G1 X36.171 Y74.194 E17.95506
G1 X35.452 Y74.106 E17.97915
G1 X35.208 Y74.065 E17.98738
G1 X34.417 Y73.891 E18.01432
G1 X33.453 Y73.564 E18.04817
G1 X33.263 Y73.486 E18.05501
G1 X32.53 Y73.142 E18.08194
G1 X31.835 Y72.727 E18.10886
G1 X31.183 Y72.246 E18.13581
G1 X30.438 Y71.554 E18.16963
G1 X30.279 Y71.387 E18.1773
G1 X29.751 Y70.774 E18.20421
G1 X29.285 Y70.112 E18.23113
G1 X28.887 Y69.407 E18.25806
G1 X28.56 Y68.666 E18.285
G1 X28.308 Y67.896 E18.31194
G1 X28.128 Y67.069 E18.34009
G1 X28.092 Y66.851 E18.34744
G1 X27.999 Y66.047 E18.37436
G1 X27.987 Y65.237 E18.40131
G1 X28.037 Y64.569 E18.42359
G1 X28.18 Y63.346 E18.46454
G1 X28.262 Y62.727 E18.48531
G1 X28.532 Y60.104 E18.57301
G1 X28.722 Y57.551 E18.65816
G1 X28.842 Y54.969 E18.74413
G1 X28.888 Y52.327 E18.83202
G1 X28.861 Y49.747 E18.91783
G1 X28.76 Y47.134 E19.00481
G1 X28.589 Y44.599 E19.08931
G1 X28.337 Y41.96 E19.17748
G1 X28.095 Y40.024 E19.24238
G1 X28.022 Y39.357 E19.26469
G1 X27.973 Y38.549 E19.29162
G1 X28.005 Y37.74 E19.31855
G1 X28.142 Y36.808 E19.34988
G1 X28.207 Y36.493 E19.36057
G1 X28.41 Y35.709 E19.38751
G1 X28.689 Y34.949 E19.41444
G1 X29.041 Y34.22 E19.44136
G1 X29.464 Y33.529 E19.46831
G1 X29.953 Y32.884 E19.49523
G1 X30.503 Y32.289 E19.52218
G1 F1500 E18.52218
G1 F300 Z0.4
;MESH:SmartTemperatureTower_PLA_180-225.stl
G0 F9000 X46.313 Y52.402 Z0.4
;TYPE:WALL-OUTER
G1 F300 Z0.2
G1 F1500 E19.52218
G1 F1800 X46.23 Y52.631 E19.53028
G1 X46.089 Y52.624 E19.53498
G1 X46.024 Y52.402 E19.54267
G1 X46.313 Y52.402 E19.55228
G1 F1500 E18.55228
G1 F300 Z0.4
G0 F9000 X49.745 Y52.402 Z0.4
G1 F300 Z0.2
G1 F1500 E19.55228
G1 F1800 X49.662 Y52.631 E19.56039
G1 X49.521 Y52.624 E19.56508
G1 X49.456 Y52.402 E19.57277
G1 X49.745 Y52.402 E19.58239
G1 F1500 E18.58239
G1 F300 Z0.4
G0 F9000 X55.165 Y51.21 Z0.4
G1 F300 Z0.2
G1 F1500 E19.58239
G1 F1800 X55.342 Y51.25 E19.58842
G1 X55.4 Y51.51 E19.59728
G1 X55.404 Y51.582 E19.59968
G1 X55.403 Y52.164 E19.61904
G1 X55.343 Y52.475 E19.62957
G1 X55.232 Y52.523 E19.63359
G1 X55.121 Y52.476 E19.6376
G1 X55.065 Y52.23 E19.646
G1 X55.061 Y52.161 E19.64829
G1 X55.06 Y51.615 E19.66645
G1 X55.09 Y51.348 E19.67539
G1 X55.165 Y51.21 E19.68061
G1 F1500 E18.68061
G1 F300 Z0.4
G0 F9000 X62.587 Y51.154 Z0.4
G1 F300 Z0.2
G1 F1500 E19.68061
G1 F1800 X62.583 Y51.407 E19.68903
