;FLAVOR:Marlin
;TIME:12211
;Filament used: 7.07141m
;Layer height: 0.2
;MINX:83.697
;MINY:89.131
;MINZ:0.2
;MAXX:140.134
;MAXY:130.867
;MAXZ:101.6
;POSTPROCESSED
;Generated with Cura_SteamEngine 4.8.0
M140 S70
M105
M190 S70
M104 S225
M105
M109 S225
M82 ;absolute extrusion mode
M201 X500.00 Y500.00 Z100.00 E5000.00 ;Setup machine max acceleration
M203 X500.00 Y500.00 Z10.00 E50.00 ;Setup machine max feedrate
M204 P500.00 R1000.00 T500.00 ;Setup Print/Retract/Travel acceleration
M205 X8.00 Y8.00 Z0.40 E5.00 ;Setup Jerk
M220 S100 ;Reset Feedrate
M221 S100 ;Reset Flowrate
G28 ;Home
G92 E0 ;Reset Extruder
G1 Z2.0 F3000 ;Move Z Axis up
G1 X10.1 Y20 Z0.28 F5000.0 ;Move to start position
G1 X10.1 Y200.0 Z0.28 F1500.0 E15 ;Draw the first line
G1 X10.4 Y200.0 Z0.28 F5000.0 ;Move to side a little
G1 X10.4 Y20 Z0.28 F1500.0 E30 ;Draw the second line
G92 E0 ;Reset Extruder
G1 Z2.0 F3000 ;Move Z Axis up
G92 E0
G92 E0
G1 F1800 E-6.5
;LAYER_COUNT:507
;LAYER:0
M107
G1 F300 Z0.4
G0 F6000 X85.653 Y91.5 Z0.4
;TYPE:SKIRT
G1 F300 Z0.2
G1 F1800 E0
G1 F1200 X86.191 Y90.995 E0.02454
G1 X86.548 Y90.714 E0.03965
G1 X86.762 Y90.557 E0.04848
G1 X87.379 Y90.154 E0.07299
G1 X88.036 Y89.82 E0.09751
G1 X89.068 Y89.46 E0.13386
G1 X89.298 Y89.4 E0.14176
G1 X90.299 Y89.218 E0.1756
G1 X90.403 Y89.207 E0.17908
G1 X90.824 Y89.175 E0.19312
G1 X91.032 Y89.166 E0.20005
G1 X91.42 Y89.161 E0.21296
G1 X91.492 Y89.162 E0.21535
G1 X91.843 Y89.176 E0.22703
G1 X92.102 Y89.193 E0.23567
G1 X92.5 Y89.231 E0.24896
G1 X92.91 Y89.29 E0.26274
G1 X94.169 Y89.512 E0.30526
G1 X95.283 Y89.729 E0.34301
G1 X97.926 Y90.166 E0.43211
G1 X100.488 Y90.516 E0.51811
G1 X103.135 Y90.803 E0.60667
G1 X105.782 Y91.013 E0.69499
G1 X108.396 Y91.146 E0.78204
G1 X111.018 Y91.206 E0.86927
G1 X113.672 Y91.191 E0.95755
G1 X116.29 Y91.103 E1.04467
G1 X118.948 Y90.937 E1.13325
G1 X121.552 Y90.701 E1.22021
G1 X124.156 Y90.391 E1.30743
G1 X126.792 Y90.001 E1.39606
G1 X129.395 Y89.54 E1.48398
G1 X129.79 Y89.461 E1.49738
G1 X130.668 Y89.299 E1.52708
G1 X130.919 Y89.257 E1.53554
G1 X131.145 Y89.224 E1.54314
G1 X131.658 Y89.169 E1.5603
G1 X131.961 Y89.148 E1.5704
G1 X132.387 Y89.132 E1.58458
G1 X132.542 Y89.131 E1.58973
G1 X133.298 Y89.168 E1.61491
G1 X133.507 Y89.19 E1.6219
G1 X134.235 Y89.307 E1.64642
G1 X134.853 Y89.472 E1.6677
G1 X135.19 Y89.579 E1.67946
G1 X135.879 Y89.84 E1.70396
G1 X136.537 Y90.174 E1.72851
G1 X137.154 Y90.577 E1.75302
G1 X137.724 Y91.045 E1.77755
G1 X138.118 Y91.436 E1.79601
G1 X138.271 Y91.601 E1.80349
G1 X138.742 Y92.168 E1.82801
G1 X139.15 Y92.783 E1.85256
G1 X139.488 Y93.438 E1.87707
G1 X139.753 Y94.126 E1.90159
G1 X139.942 Y94.839 E1.92613
G1 X140.028 Y95.344 E1.94317
G1 X140.06 Y95.589 E1.95138
G1 X140.115 Y96.325 E1.97593
G1 X140.077 Y97.202 E2.00513
G1 X140.013 Y97.791 E2.02483
G1 X139.782 Y99.628 E2.08641
G1 X139.528 Y102.234 E2.1735
G1 X139.344 Y104.891 E2.26208
G1 X139.238 Y107.508 E2.3492
G1 X139.205 Y110.13 E2.43641
G1 X139.248 Y112.785 E2.52473
G1 X139.363 Y115.401 E2.61182
G1 X139.554 Y118.03 E2.69949
G1 X139.821 Y120.671 E2.78778
G1 X139.992 Y122.058 E2.83426
G1 X140.078 Y122.722 E2.85653
G1 X140.134 Y123.457 E2.88105
G1 X140.109 Y124.194 E2.90557
G1 X140.004 Y124.924 E2.9301
G1 X139.774 Y125.784 E2.95971
G1 X139.703 Y125.993 E2.96706
G1 X139.428 Y126.678 E2.99161
G1 X139.081 Y127.328 E3.01611
G1 X138.665 Y127.937 E3.04064
G1 X138.186 Y128.498 E3.06518
G1 X137.649 Y129.003 E3.0897
G1 X137.303 Y129.277 E3.10437
G1 X137.07 Y129.449 E3.11401
G1 X136.454 Y129.854 E3.13853
G1 X135.797 Y130.19 E3.16307
G1 X135.108 Y130.453 E3.1876
G1 X134.701 Y130.57 E3.20168
G1 X134.48 Y130.626 E3.20927
G1 X133.449 Y130.804 E3.24407
G1 X133.343 Y130.814 E3.24761
G1 X133.029 Y130.836 E3.25808
G1 X132.82 Y130.846 E3.26504
G1 X132.445 Y130.854 E3.27751
G1 X131.996 Y130.839 E3.29245
G1 X131.724 Y130.821 E3.30152
G1 X131.267 Y130.775 E3.3168
G1 X131.148 Y130.759 E3.32079
G1 X130.885 Y130.719 E3.32964
G1 X129.813 Y130.531 E3.36584
G1 X128.226 Y130.226 E3.41959
G1 X125.633 Y129.804 E3.50697
G1 X123.02 Y129.455 E3.59465
G1 X120.392 Y129.179 E3.68253
G1 X117.772 Y128.978 E3.76993
G1 X115.154 Y128.852 E3.85711
G1 X112.498 Y128.8 E3.94546
G1 X109.839 Y128.822 E4.03391
G1 X107.261 Y128.916 E4.11971
G1 X104.579 Y129.091 E4.2091
G1 X101.992 Y129.334 E4.29552
G1 X99.362 Y129.655 E4.38365
G1 X96.735 Y130.052 E4.47201
G1 X94.124 Y130.522 E4.56025
G1 X94.02 Y130.543 E4.56378
G1 X93.114 Y130.709 E4.59441
G1 X92.647 Y130.778 E4.61012
G1 X92.273 Y130.82 E4.62263
G1 X91.683 Y130.86 E4.6423
G1 X91.401 Y130.867 E4.65168
G1 X90.463 Y130.825 E4.68291
G1 X90.182 Y130.793 E4.69232
G1 X89.455 Y130.67 E4.71684
G1 X88.533 Y130.393 E4.74886
G1 X88.278 Y130.296 E4.75794
G1 X87.604 Y129.997 E4.78246
G1 X86.967 Y129.626 E4.80698
G1 X86.373 Y129.189 E4.83151
G1 X85.734 Y128.59 E4.86064
G1 X85.585 Y128.431 E4.86789
G1 X85.111 Y127.866 E4.89242
G1 X84.701 Y127.254 E4.91692
G1 X84.359 Y126.6 E4.94146
G1 X84.09 Y125.914 E4.96597
G1 X83.897 Y125.202 E4.99051
G1 X83.817 Y124.757 E5.00554
G1 X83.779 Y124.495 E5.01435
G1 X83.713 Y123.761 E5.03886
G1 X83.749 Y122.787 E5.07128
G1 X83.773 Y122.566 E5.07867
G1 X84.077 Y120.1 E5.16131
G1 X84.324 Y117.481 E5.24881
G1 X84.496 Y114.861 E5.33614
G1 X84.596 Y112.236 E5.42351
G1 X84.62 Y109.552 E5.51278
G1 X84.569 Y106.929 E5.60004
G1 X84.447 Y104.34 E5.68625
G1 X84.245 Y101.677 E5.77507
G1 X83.873 Y98.25 E5.88972
G1 X83.749 Y97.263 E5.92281
G1 X83.697 Y96.528 E5.94732
G1 X83.725 Y95.791 E5.97185
G1 X83.832 Y95.061 E5.99639
G1 X84.06 Y94.219 E6.0254
G1 X84.134 Y94.002 E6.03303
G1 X84.409 Y93.318 E6.05755
G1 X84.757 Y92.668 E6.08207
G1 X85.173 Y92.06 E6.10657
G1 X85.653 Y91.5 E6.1311
G0 F6000 X86.002 Y91.715
G1 F1200 X86.784 Y91.037 E6.16553
G1 X86.998 Y90.88 E6.17435
G1 X87.598 Y90.49 E6.19816
G1 X88.237 Y90.169 E6.22194
G1 X89.168 Y89.847 E6.2547
G1 X89.398 Y89.787 E6.26261
G1 X90.341 Y89.616 E6.29449
G1 X90.445 Y89.605 E6.29796
G1 X90.841 Y89.575 E6.31117
G1 X91.049 Y89.566 E6.3181
G1 X91.415 Y89.561 E6.33027
G1 X91.487 Y89.562 E6.33267
G1 X91.817 Y89.575 E6.34365
G1 X92.076 Y89.592 E6.35228
G1 X92.451 Y89.627 E6.36481
G1 X92.523 Y89.636 E6.36722
G1 X92.84 Y89.684 E6.37789
G1 X94.214 Y89.927 E6.4243
G1 X95.247 Y90.129 E6.45931
G1 X97.848 Y90.559 E6.54699
G1 X100.457 Y90.916 E6.63457
G1 X103.097 Y91.201 E6.72289
G1 X105.729 Y91.41 E6.81071
G1 X108.403 Y91.547 E6.89976
G1 X111.011 Y91.606 E6.98653
G1 X113.689 Y91.591 E7.0756
G1 X116.293 Y91.503 E7.16226
G1 X118.973 Y91.336 E7.25157
G1 X121.599 Y91.098 E7.33927
G1 X124.23 Y90.784 E7.42739
G1 X126.849 Y90.397 E7.51545
G1 X129.466 Y89.934 E7.60384
G1 X129.863 Y89.854 E7.61731
G1 X130.741 Y89.692 E7.64701
G1 X131.203 Y89.62 E7.66256
G1 X131.685 Y89.568 E7.67868
G1 X131.988 Y89.547 E7.68878
G1 X132.39 Y89.532 E7.70216
G1 X132.545 Y89.531 E7.70732
G1 X133.256 Y89.566 E7.731
G1 X133.465 Y89.588 E7.73799
G1 X134.171 Y89.703 E7.76178
G1 X134.732 Y89.853 E7.78109
G1 X135.069 Y89.96 E7.79285
G1 X135.737 Y90.214 E7.81662
G1 X136.373 Y90.542 E7.84042
G1 X136.969 Y90.938 E7.86422
G1 X137.517 Y91.398 E7.88802
G1 X137.825 Y91.708 E7.90255
G1 X137.978 Y91.873 E7.91004
G1 X138.434 Y92.424 E7.93383
G1 X138.826 Y93.023 E7.95764
G1 X139.149 Y93.661 E7.98142
G1 X139.398 Y94.331 E8.00519
G1 X139.572 Y95.025 E8.02899
G1 X139.631 Y95.396 E8.04149
G1 X139.663 Y95.641 E8.0497
G1 X139.716 Y96.354 E8.07348
G1 X139.68 Y97.159 E8.10028
G1 X139.616 Y97.741 E8.11976
G1 X139.385 Y99.575 E8.18124
G1 X139.129 Y102.204 E8.26909
G1 X138.946 Y104.846 E8.35718
G1 X138.839 Y107.487 E8.44509
G1 X138.806 Y110.154 E8.5338
G1 X138.847 Y112.773 E8.62092
G1 X138.966 Y115.448 E8.70998
G1 X139.157 Y118.081 E8.79778
G1 X139.424 Y120.716 E8.88587
G1 X139.59 Y122.064 E8.93105
G1 X139.682 Y122.773 E8.95482
G1 X139.734 Y123.487 E8.97864
G1 X139.706 Y124.202 E9.00243
G1 X139.599 Y124.909 E9.02622
G1 X139.395 Y125.656 E9.05197
G1 X139.324 Y125.865 E9.05931
G1 X139.056 Y126.528 E9.0831
G1 X138.716 Y127.157 E9.10688
G1 X138.308 Y127.745 E9.13068
G1 X137.837 Y128.283 E9.15447
G1 X137.065 Y128.955 E9.18851
G1 X136.832 Y129.127 E9.19814
G1 X136.234 Y129.519 E9.22192
G1 X135.595 Y129.842 E9.24574
G1 X134.603 Y130.182 E9.28062
G1 X134.382 Y130.238 E9.2882
G1 X133.411 Y130.406 E9.32097
G1 X133.305 Y130.416 E9.32451
G1 X133.01 Y130.437 E9.33435
G1 X132.801 Y130.447 E9.34131
G1 X132.445 Y130.454 E9.35315
G1 X132.022 Y130.44 E9.36723
G1 X131.75 Y130.422 E9.3763
G1 X131.32 Y130.379 E9.39067
G1 X130.954 Y130.325 E9.40297
G1 X129.889 Y130.138 E9.43894
G1 X128.301 Y129.833 E9.49272
G1 X125.679 Y129.406 E9.58108
G1 X123.082 Y129.059 E9.66822
G1 X120.427 Y128.78 E9.75701
G1 X117.821 Y128.581 E9.84394
G1 X115.145 Y128.452 E9.93305
G1 X112.503 Y128.4 E10.02094
G1 X109.856 Y128.422 E10.10898
G1 X107.186 Y128.52 E10.19785
G1 X104.584 Y128.689 E10.28457
G1 X101.946 Y128.937 E10.3727
G1 X99.286 Y129.261 E10.46183
G1 X96.71 Y129.65 E10.54848
G1 X93.947 Y130.149 E10.64186
G1 X93.041 Y130.315 E10.67249
G1 X92.602 Y130.38 E10.68726
G1 X92.228 Y130.422 E10.69977
G1 X91.673 Y130.46 E10.71828
G1 X91.391 Y130.467 E10.72766
G1 X90.508 Y130.428 E10.75705
G1 X90.227 Y130.396 E10.76646
G1 X89.522 Y130.275 E10.79025
G1 X88.676 Y130.019 E10.81965
G1 X88.421 Y129.922 E10.82872
G1 X87.767 Y129.631 E10.85253
G1 X87.151 Y129.268 E10.87631
G1 X86.578 Y128.839 E10.90012
G1 X86.026 Y128.316 E10.92541
G1 X85.877 Y128.157 E10.93266
G1 X85.418 Y127.609 E10.95644
G1 X85.023 Y127.013 E10.98022
G1 X84.697 Y126.376 E11.00402
G1 X84.444 Y125.707 E11.02781
G1 X84.213 Y124.7 E11.06217
G1 X84.175 Y124.438 E11.07097
G1 X84.112 Y123.725 E11.09478
G1 X84.146 Y122.83 E11.12457
G1 X84.17 Y122.615 E11.13177
G1 X84.474 Y120.154 E11.21424
G1 X84.723 Y117.508 E11.30264
G1 X84.897 Y114.866 E11.3907
G1 X84.996 Y112.255 E11.47761
G1 X85.02 Y109.552 E11.56751
G1 X84.97 Y106.938 E11.65447
G1 X84.844 Y104.292 E11.74257
G1 X84.646 Y101.67 E11.83003
G1 X84.265 Y98.162 E11.94739
G1 X84.146 Y97.213 E11.9792
G1 X84.097 Y96.5 E12.00298
G1 X84.127 Y95.785 E12.02678
G1 X84.237 Y95.078 E12.05058
G1 X84.439 Y94.348 E12.07577
G1 X84.513 Y94.131 E12.08339
G1 X84.781 Y93.468 E12.10718
G1 X85.121 Y92.839 E12.13096
G1 X85.53 Y92.252 E12.15475
G1 X86.002 Y91.715 E12.17853
G0 F6000 X86.349 Y91.932
G1 F1200 X87.021 Y91.359 E12.20791
G1 X87.235 Y91.202 E12.21673
G1 X87.816 Y90.826 E12.23975
G1 X88.437 Y90.518 E12.26281
G1 X89.269 Y90.234 E12.29205
G1 X89.499 Y90.174 E12.29995
G1 X90.383 Y90.013 E12.32984
G1 X90.487 Y90.002 E12.33332
G1 X90.859 Y89.975 E12.34572
G1 X91.067 Y89.966 E12.35265
G1 X91.409 Y89.961 E12.36402
G1 X91.481 Y89.962 E12.36642
G1 X91.791 Y89.974 E12.37674
G1 X92.05 Y89.991 E12.38537
G1 X92.401 Y90.024 E12.3971
G1 X92.473 Y90.033 E12.39951
G1 X92.771 Y90.078 E12.40953
G1 X94.137 Y90.32 E12.45567
G1 X95.176 Y90.523 E12.49088
G1 X97.76 Y90.951 E12.578
G1 X100.432 Y91.316 E12.6677
G1 X103.058 Y91.6 E12.75555
G1 X105.712 Y91.81 E12.8441
G1 X108.372 Y91.946 E12.93268
G1 X111.005 Y92.006 E13.02028
G1 X113.669 Y91.992 E13.10889
G1 X116.368 Y91.9 E13.19871
G1 X118.962 Y91.738 E13.28515
G1 X121.646 Y91.495 E13.37479
G1 X124.299 Y91.179 E13.46365
G1 X126.911 Y90.792 E13.55147
G1 X129.529 Y90.329 E13.6399
G1 X129.935 Y90.248 E13.65367
G1 X130.813 Y90.086 E13.68336
G1 X131.261 Y90.016 E13.69845
G1 X131.713 Y89.967 E13.71357
G1 X132.016 Y89.946 E13.72367
G1 X132.392 Y89.932 E13.73618
G1 X132.547 Y89.931 E13.74134
G1 X133.214 Y89.964 E13.76355
G1 X133.423 Y89.986 E13.77054
G1 X134.107 Y90.098 E13.79359
G1 X134.611 Y90.234 E13.81096
G1 X134.948 Y90.341 E13.82272
G1 X135.595 Y90.589 E13.84576
G1 X136.209 Y90.909 E13.86879
G1 X136.782 Y91.298 E13.89183
G1 X137.532 Y91.98 E13.92554
G1 X137.685 Y92.145 E13.93303
G1 X138.125 Y92.68 E13.95607
G1 X138.502 Y93.261 E13.9791
G1 X138.809 Y93.882 E14.00214
G1 X139.042 Y94.534 E14.02517
G1 X139.234 Y95.448 E14.05623
G1 X139.266 Y95.693 E14.06445
G1 X139.316 Y96.384 E14.0875
G1 X139.282 Y97.116 E14.11187
G1 X139.219 Y97.691 E14.13111
G1 X138.988 Y99.523 E14.19252
G1 X138.73 Y102.171 E14.28101
G1 X138.546 Y104.839 E14.36996
G1 X138.439 Y107.467 E14.45744
G1 X138.406 Y110.154 E14.54682
G1 X138.448 Y112.797 E14.63474
G1 X138.565 Y115.459 E14.72336
G1 X138.758 Y118.114 E14.8119
G1 X139.026 Y120.756 E14.90022
G1 X139.193 Y122.116 E14.9458
G1 X139.285 Y122.825 E14.96957
G1 X139.334 Y123.516 E14.99262
G1 X139.304 Y124.208 E15.01565
G1 X139.194 Y124.891 E15.03866
G1 X139.016 Y125.527 E15.06063
G1 X138.945 Y125.736 E15.06797
G1 X138.685 Y126.378 E15.09101
G1 X138.352 Y126.985 E15.11404
G1 X137.952 Y127.55 E15.13706
G1 X137.49 Y128.066 E15.1601
G1 X136.827 Y128.633 E15.18911
G1 X136.594 Y128.805 E15.19874
G1 X136.014 Y129.184 E15.22179
G1 X135.395 Y129.493 E15.2448
G1 X134.505 Y129.794 E15.27605
G1 X134.284 Y129.85 E15.28363
G1 X133.374 Y130.007 E15.31434
G1 X133.268 Y130.017 E15.31789
G1 X132.991 Y130.037 E15.32712
G1 X132.782 Y130.047 E15.33408
G1 X132.445 Y130.054 E15.34529
G1 X132.049 Y130.041 E15.35847
G1 X131.777 Y130.023 E15.36754
G1 X131.373 Y129.982 E15.38104
G1 X131.023 Y129.931 E15.39281
G1 X129.964 Y129.745 E15.42857
G1 X128.369 Y129.438 E15.48259
G1 X125.759 Y129.014 E15.57054
G1 X123.106 Y128.659 E15.65957
G1 X120.463 Y128.382 E15.74795
G1 X117.835 Y128.181 E15.83562
G1 X115.174 Y128.053 E15.92422
G1 X112.507 Y128 E16.01295
G1 X109.839 Y128.022 E16.10169
G1 X107.18 Y128.119 E16.19019
G1 X104.557 Y128.29 E16.27761
G1 X101.892 Y128.54 E16.36664
G1 X99.249 Y128.863 E16.4552
G1 X96.616 Y129.26 E16.54376
G1 X93.986 Y129.734 E16.63265
G1 X93.875 Y129.756 E16.63641
G1 X92.969 Y129.922 E16.66705
G1 X92.558 Y129.983 E16.68087
G1 X92.184 Y130.025 E16.69338
G1 X91.663 Y130.06 E16.71075
G1 X91.381 Y130.067 E16.72013
G1 X90.553 Y130.03 E16.7477
G1 X90.272 Y129.998 E16.75711
G1 X89.59 Y129.881 E16.78012
G1 X88.818 Y129.645 E16.80697
G1 X88.563 Y129.548 E16.81605
G1 X87.931 Y129.265 E16.83908
G1 X87.336 Y128.911 E16.8621
G1 X86.785 Y128.49 E16.88517
G1 X86.318 Y128.043 E16.90667
G1 X86.169 Y127.884 E16.91392
G1 X85.725 Y127.352 E16.93696
G1 X85.346 Y126.773 E16.95998
G1 X85.036 Y126.153 E16.98303
G1 X84.799 Y125.502 E17.00608
G1 X84.609 Y124.642 E17.03537
G1 X84.571 Y124.38 E17.04418
G1 X84.511 Y123.69 E17.06721
G1 X84.544 Y122.873 E17.09441
G1 X84.567 Y122.664 E17.1014
G1 X84.871 Y120.204 E17.18384
G1 X85.121 Y117.539 E17.27287
G1 X85.295 Y114.907 E17.3606
G1 X85.396 Y112.238 E17.44944
G1 X85.42 Y109.552 E17.53878
G1 X85.369 Y106.911 E17.62663
G1 X85.245 Y104.279 E17.71427
G1 X85.044 Y101.628 E17.8027
G1 X84.664 Y98.126 E17.91986
G1 X84.543 Y97.163 E17.95214
G1 X84.496 Y96.472 E17.97518
G1 X84.53 Y95.781 E17.99819
G1 X84.642 Y95.097 E18.02124
G1 X84.817 Y94.477 E18.04267
G1 X84.891 Y94.26 E18.05029
G1 X85.152 Y93.619 E18.07331
G1 X85.485 Y93.012 E18.09634
G1 X85.886 Y92.447 E18.11938
G1 X86.349 Y91.932 E18.14242
G0 F6000 X86.696 Y92.153
G1 F1200 X87.257 Y91.682 E18.16678
G1 X87.471 Y91.525 E18.17561
G1 X88.034 Y91.162 E18.19789
G1 X88.635 Y90.869 E18.22013
G1 X89.37 Y90.621 E18.24593
G1 X89.6 Y90.561 E18.25383
G1 X90.425 Y90.411 E18.28172
G1 X90.529 Y90.4 E18.2852
G1 X90.876 Y90.374 E18.29677
G1 X91.084 Y90.365 E18.3037
G1 X91.404 Y90.361 E18.31434
G1 X91.765 Y90.373 E18.32636
G1 X92.024 Y90.39 E18.33499
G1 X92.352 Y90.421 E18.34595
G1 X92.424 Y90.43 E18.34836
G1 X92.701 Y90.472 E18.35768
G1 X94.06 Y90.713 E18.40358
G1 X95.065 Y90.909 E18.43764
G1 X97.747 Y91.353 E18.52806
G1 X100.336 Y91.707 E18.61497
G1 X103.052 Y92.001 E18.70583
G1 X105.661 Y92.208 E18.79288
G1 X108.343 Y92.345 E18.8822
G1 X111.033 Y92.406 E18.97169
G1 X113.685 Y92.391 E19.0599
G1 X116.371 Y92.3 E19.14929
G1 X119.022 Y92.135 E19.23763
G1 X121.662 Y91.896 E19.3258
G1 X124.334 Y91.577 E19.4153
G1 X126.997 Y91.183 E19.50484
G1 X129.599 Y90.723 E19.59272
G1 X130.008 Y90.641 E19.60659
G1 X130.886 Y90.479 E19.63629
G1 X131.319 Y90.412 E19.65086
G1 X131.741 Y90.366 E19.66498
G1 X132.044 Y90.345 E19.67508
G1 X132.395 Y90.332 E19.68677
G1 X132.55 Y90.331 E19.69192
G1 X133.172 Y90.362 E19.71263
G1 X133.381 Y90.384 E19.71962
G1 X134.041 Y90.493 E19.74187
G1 X134.49 Y90.616 E19.75736
G1 X134.827 Y90.723 E19.76912
G1 X135.451 Y90.963 E19.79135
