;FLAVOR:Marlin
;TIME:1168
;Filament used: 0.644208m
;Layer height: 0.2
;MINX:93.2
;MINY:103.2
;MINZ:0.2
;MAXX:126.8
;MAXY:136.8
;MAXZ:20
;POSTPROCESSED
;Generated with Cura_SteamEngine 4.11.0
M140 S70
M105
M190 S70
M104 S190
M105
M109 S190
M82 ;absolute extrusion mode
M201 X500.00 Y500.00 Z100.00 E5000.00 ;Setup machine max acceleration
M203 X500.00 Y500.00 Z10.00 E50.00 ;Setup machine max feedrate
M204 P500.00 R1000.00 T500.00 ;Setup Print/Retract/Travel acceleration
M205 X8.00 Y8.00 Z0.40 E5.00 ;Setup Jerk
M220 S100 ;Reset Feedrate
M221 S100 ;Reset Flowrate

G28 ;Home

G92 E0 ;Reset Extruder
G1 Z2.0 F3000 ;Move Z Axis up
G1 X10.1 Y20 Z0.28 F5000.0 ;Move to start position
G1 X10.1 Y200.0 Z0.28 F1500.0 E15 ;Draw the first line
G1 X10.4 Y200.0 Z0.28 F5000.0 ;Move to side a little
G1 X10.4 Y20 Z0.28 F1500.0 E30 ;Draw the second line
G92 E0 ;Reset Extruder
G1 Z2.0 F3000 ;Move Z Axis up

G92 E0
G92 E0
;LAYER_COUNT:100
;LAYER:0
M107
G0 F6000 X95.684 Y104.762 Z0.2
;TYPE:SKIRT
G1 F1200 X96.277 Y104.325 E0.0245
G1 X96.914 Y103.954 E0.04902
G1 X97.588 Y103.655 E0.07354
G1 X98.29 Y103.43 E0.09806
G1 X99.013 Y103.282 E0.12261
G1 X99.818 Y103.212 E0.14948
G1 X100.139 Y103.203 E0.16016
G1 X100.33 Y103.2 E0.16652
G1 X119.293 Y103.2 E0.79723
G1 X120.088 Y103.211 E0.82367
G1 X120.824 Y103.261 E0.84821
G1 X121.55 Y103.391 E0.87274
G1 X122.257 Y103.599 E0.89725
G1 X122.938 Y103.882 E0.92178
G1 X123.584 Y104.237 E0.9463
G1 X124.188 Y104.66 E0.97082
G1 X124.743 Y105.146 E0.99536
G1 X125.241 Y105.689 E1.01986
G1 X125.678 Y106.283 E1.04439
G1 X126.048 Y106.92 E1.06889
G1 X126.347 Y107.594 E1.09342
G1 X126.572 Y108.297 E1.11797
G1 X126.718 Y109.019 E1.14247
G1 X126.788 Y109.819 E1.16918
G1 X126.797 Y110.139 E1.17982
G1 X126.8 Y110.33 E1.18618
G1 X126.799 Y129.348 E1.81872
G1 X126.79 Y130.075 E1.8429
G1 X126.741 Y130.811 E1.86743
G1 X126.613 Y131.537 E1.89195
G1 X126.407 Y132.245 E1.91648
G1 X126.125 Y132.926 E1.94099
G1 X125.771 Y133.573 E1.96552
G1 X125.349 Y134.178 E1.99006
G1 X124.865 Y134.733 E2.01455
G1 X124.323 Y135.233 E2.03908
G1 X123.73 Y135.671 E2.0636
G1 X123.093 Y136.042 E2.08811
G1 X122.419 Y136.343 E2.11267
G1 X121.717 Y136.568 E2.13718
G1 X120.995 Y136.716 E2.1617
G1 X120.182 Y136.788 E2.18884
G1 X119.861 Y136.797 E2.19952
G1 X119.67 Y136.8 E2.20588
G1 X100.619 Y136.799 E2.83952
G1 X99.921 Y136.79 E2.86273
G1 X99.186 Y136.741 E2.88723
G1 X98.46 Y136.612 E2.91176
G1 X97.752 Y136.406 E2.93628
G1 X97.071 Y136.123 E2.96081
G1 X96.424 Y135.769 E2.98534
G1 X95.82 Y135.347 E3.00985
G1 X95.264 Y134.862 E3.03439
G1 X94.765 Y134.32 E3.05889
G1 X94.327 Y133.727 E3.08341
G1 X93.956 Y133.09 E3.10793
G1 X93.656 Y132.416 E3.13247
G1 X93.431 Y131.714 E3.15699
G1 X93.283 Y130.992 E3.1815
G1 X93.211 Y130.175 E3.20878
G1 X93.202 Y129.842 E3.21986
G1 X93.2 Y129.658 E3.22598
G1 X93.201 Y110.582 E3.86045
G1 X93.21 Y109.917 E3.88257
G1 X93.26 Y109.181 E3.9071
G1 X93.389 Y108.456 E3.9316
G1 X93.596 Y107.748 E3.95613
G1 X93.878 Y107.067 E3.98065
G1 X94.233 Y106.42 E4.00519
G1 X94.655 Y105.816 E4.0297
G1 X95.141 Y105.261 E4.05423
G1 X95.684 Y104.762 E4.07876
G0 F6000 X96.071 Y104.964
G1 F1200 X96.659 Y104.556 E4.10257
G1 X97.288 Y104.216 E4.12635
G1 X97.952 Y103.949 E4.15015
G1 X98.641 Y103.757 E4.17394
G1 X99.347 Y103.643 E4.19773
G1 X99.83 Y103.612 E4.21382
G1 X100.33 Y103.6 E4.23046
G1 X119.293 Y103.6 E4.86117
G1 X120.083 Y103.611 E4.88745
G1 X120.796 Y103.661 E4.91122
G1 X121.5 Y103.79 E4.93503
G1 X122.184 Y103.998 E4.95881
G1 X122.841 Y104.28 E4.98259
G1 X123.463 Y104.634 E5.00639
G1 X124.041 Y105.055 E5.03017
G1 X124.569 Y105.538 E5.05397
G1 X125.039 Y106.076 E5.07773
G1 X125.447 Y106.664 E5.10154
G1 X125.786 Y107.294 E5.12533
G1 X126.053 Y107.957 E5.1491
G1 X126.244 Y108.647 E5.17292
G1 X126.357 Y109.353 E5.1967
G1 X126.388 Y109.83 E5.2126
G1 X126.4 Y110.33 E5.22923
G1 X126.4 Y129.343 E5.86161
G1 X126.391 Y130.07 E5.88579
G1 X126.342 Y130.784 E5.90959
G1 X126.214 Y131.488 E5.93339
G1 X126.008 Y132.173 E5.95718
G1 X125.727 Y132.83 E5.98095
G1 X125.374 Y133.453 E6.00476
G1 X124.954 Y134.032 E6.02856
G1 X124.472 Y134.56 E6.05233
G1 X123.935 Y135.032 E6.07611
G1 X123.347 Y135.44 E6.09992
G1 X122.718 Y135.781 E6.12371
G1 X122.055 Y136.049 E6.1475
G1 X121.366 Y136.241 E6.17129
G1 X120.66 Y136.356 E6.19508
G1 X120.17 Y136.388 E6.21141
G1 X119.67 Y136.4 E6.22805
G1 X100.624 Y136.399 E6.86152
G1 X99.926 Y136.39 E6.88474
G1 X99.213 Y136.341 E6.90851
G1 X98.509 Y136.213 E6.93231
G1 X97.824 Y136.007 E6.9561
G1 X97.167 Y135.725 E6.97988
G1 X96.545 Y135.372 E7.00366
G1 X95.966 Y134.952 E7.02745
G1 X95.437 Y134.47 E7.05126
G1 X94.966 Y133.932 E7.07504
G1 X94.558 Y133.345 E7.09882
G1 X94.218 Y132.715 E7.12263
G1 X93.95 Y132.052 E7.14641
G1 X93.758 Y131.363 E7.1702
G1 X93.644 Y130.657 E7.19399
G1 X93.611 Y130.164 E7.21042
G1 X93.602 Y129.831 E7.2215
G1 X93.6 Y129.658 E7.22726
G1 X93.601 Y110.587 E7.86156
G1 X93.61 Y109.922 E7.88368
G1 X93.659 Y109.209 E7.90745
G1 X93.788 Y108.505 E7.93125
G1 X93.995 Y107.821 E7.95502
G1 X94.277 Y107.163 E7.97883
G1 X94.63 Y106.541 E8.00262
G1 X95.05 Y105.963 E8.02638
G1 X95.533 Y105.435 E8.05019
G1 X96.071 Y104.964 E8.07397
G0 F6000 X96.458 Y105.173
G1 F1200 X97.039 Y104.796 E8.097
G1 X97.659 Y104.488 E8.12003
G1 X98.311 Y104.254 E8.14307
G1 X98.985 Y104.097 E8.16609
G1 X99.841 Y104.011 E8.1947
G1 X100.162 Y104.002 E8.20538
G1 X100.33 Y104 E8.21097
G1 X119.293 Y104 E8.84168
G1 X120.077 Y104.011 E8.86776
G1 X120.768 Y104.06 E8.8908
G1 X121.448 Y104.19 E8.91383
G1 X122.109 Y104.396 E8.93685
G1 X122.742 Y104.678 E8.9599
G1 X123.338 Y105.03 E8.98293
G1 X123.889 Y105.449 E9.00595
G1 X124.389 Y105.929 E9.029
G1 X124.83 Y106.463 E9.05204
G1 X125.207 Y107.044 E9.07507
G1 X125.514 Y107.665 E9.09811
G1 X125.747 Y108.317 E9.12114
G1 X125.904 Y108.991 E9.14416
G1 X125.989 Y109.841 E9.17257
G1 X125.998 Y110.161 E9.18322
G1 X126 Y110.33 E9.18884
G1 X126 Y129.338 E9.82105
G1 X125.991 Y130.065 E9.84523
G1 X125.942 Y130.756 E9.86827
G1 X125.814 Y131.437 E9.89132
G1 X125.609 Y132.098 E9.91434
G1 X125.329 Y132.731 E9.93736
G1 X124.977 Y133.328 E9.96041
G1 X124.56 Y133.881 E9.98344
G1 X124.081 Y134.381 E10.00647
G1 X123.548 Y134.823 E10.0295
G1 X122.967 Y135.201 E10.05256
G1 X122.347 Y135.509 E10.07558
G1 X121.696 Y135.744 E10.0986
G1 X121.021 Y135.902 E10.12166
G1 X120.159 Y135.989 E10.15048
G1 X119.838 Y135.998 E10.16116
G1 X119.67 Y136 E10.16675
G1 X100.63 Y136 E10.80002
G1 X99.932 Y135.991 E10.82324
G1 X99.241 Y135.942 E10.84628
G1 X98.56 Y135.813 E10.86933
G1 X97.899 Y135.608 E10.89235
G1 X97.266 Y135.327 E10.91538
G1 X96.669 Y134.976 E10.93842
G1 X96.117 Y134.558 E10.96145
G1 X95.617 Y134.079 E10.98448
G1 X95.175 Y133.545 E11.00753
G1 X94.798 Y132.965 E11.03054
G1 X94.49 Y132.344 E11.05359
G1 X94.255 Y131.693 E11.07661
G1 X94.098 Y131.018 E11.09966
G1 X94.011 Y130.153 E11.12858
G1 X94.002 Y129.82 E11.13966
G1 X94 Y129.658 E11.14505
G1 X94.001 Y110.593 E11.77915
G1 X94.01 Y109.928 E11.80127
G1 X94.059 Y109.237 E11.82431
G1 X94.187 Y108.557 E11.84733
G1 X94.394 Y107.895 E11.8704
G1 X94.675 Y107.262 E11.89343
G1 X95.027 Y106.666 E11.91645
G1 X95.445 Y106.114 E11.93948
G1 X95.924 Y105.614 E11.96251
G1 X96.458 Y105.173 E11.98555
G0 F6000 X96.314 Y105.801
G1 F1200 X96.843 Y105.39 E12.00783
G1 X97.416 Y105.045 E12.03007
G1 X98.027 Y104.772 E12.05233
G1 X98.665 Y104.573 E12.07456
G1 X99.323 Y104.451 E12.09682
G1 X99.852 Y104.411 E12.11446
G1 X100.173 Y104.402 E12.12514
G1 X100.33 Y104.4 E12.13037
G1 X119.293 Y104.4 E12.76108
G1 X120.071 Y104.411 E12.78696
G1 X120.738 Y104.46 E12.8092
G1 X121.395 Y104.589 E12.83147
G1 X122.031 Y104.795 E12.85371
G1 X122.639 Y105.076 E12.87598
G1 X123.208 Y105.426 E12.8982
G1 X123.732 Y105.843 E12.92048
G1 X124.202 Y106.319 E12.94273
G1 X124.612 Y106.847 E12.96496
G1 X124.957 Y107.421 E12.98723
G1 X125.23 Y108.032 E13.00949
G1 X125.428 Y108.671 E13.03174
G1 X125.549 Y109.329 E13.05399
G1 X125.589 Y109.853 E13.07147
G1 X125.598 Y110.173 E13.08212
G1 X125.6 Y110.33 E13.08734
G1 X125.6 Y129.333 E13.71939
G1 X125.591 Y130.06 E13.74357
G1 X125.542 Y130.728 E13.76584
G1 X125.415 Y131.384 E13.78807
G1 X125.21 Y132.021 E13.81033
G1 X124.931 Y132.629 E13.83257
G1 X124.581 Y133.199 E13.85482
G1 X124.165 Y133.724 E13.8771
G1 X123.69 Y134.195 E13.89935
G1 X123.163 Y134.606 E13.92158
G1 X122.59 Y134.952 E13.94384
G1 X121.98 Y135.226 E13.96608
G1 X121.341 Y135.426 E13.98835
G1 X120.683 Y135.548 E14.01061
G1 X120.148 Y135.589 E14.02846
G1 X119.827 Y135.598 E14.03914
G1 X119.67 Y135.6 E14.04436
G1 X100.635 Y135.6 E14.67747
G1 X99.937 Y135.591 E14.70068
G1 X99.27 Y135.542 E14.72293
G1 X98.613 Y135.414 E14.74519
G1 X97.976 Y135.209 E14.76745
G1 X97.368 Y134.929 E14.78971
G1 X96.798 Y134.579 E14.81196
G1 X96.274 Y134.163 E14.83421
G1 X95.803 Y133.688 E14.85646
G1 X95.392 Y133.16 E14.87871
G1 X95.047 Y132.587 E14.90096
G1 X94.773 Y131.977 E14.9232
G1 X94.573 Y131.338 E14.94547
G1 X94.452 Y130.68 E14.96772
G1 X94.411 Y130.142 E14.98567
G1 X94.402 Y129.809 E14.99675
G1 X94.4 Y129.658 E15.00177
G1 X94.401 Y110.598 E15.63571
G1 X94.41 Y109.933 E15.65783
G1 X94.459 Y109.266 E15.68007
G1 X94.587 Y108.609 E15.70234
G1 X94.792 Y107.973 E15.72456
G1 X95.072 Y107.365 E15.74683
G1 X95.423 Y106.795 E15.76909
G1 X95.839 Y106.271 E15.79134
G1 X96.314 Y105.801 E15.81357
G0 F6000 X96.703 Y105.995
G1 F1200 X97.226 Y105.617 E15.83503
G1 X97.79 Y105.306 E15.85645
G1 X98.389 Y105.068 E15.87789
G1 X99.013 Y104.905 E15.89934
G1 X99.863 Y104.811 E15.92778
G1 X100.184 Y104.802 E15.93847
G1 X100.33 Y104.8 E15.94332
G1 X119.293 Y104.8 E16.57403
G1 X120.065 Y104.811 E16.59971
G1 X120.708 Y104.86 E16.62116
G1 X121.34 Y104.988 E16.64261
G1 X121.951 Y105.194 E16.66405
G1 X122.532 Y105.473 E16.68549
G1 X123.074 Y105.822 E16.70693
G1 X123.568 Y106.236 E16.72837
G1 X124.008 Y106.708 E16.74983
G1 X124.386 Y107.23 E16.77127
G1 X124.696 Y107.795 E16.7927
G1 X124.934 Y108.394 E16.81414
G1 X125.096 Y109.018 E16.83558
G1 X125.189 Y109.864 E16.86389
G1 X125.198 Y110.184 E16.87454
G1 X125.2 Y110.33 E16.87939
G1 X125.2 Y129.328 E17.51127
G1 X125.191 Y130.055 E17.53545
G1 X125.143 Y130.698 E17.5569
G1 X125.016 Y131.33 E17.57834
G1 X124.811 Y131.942 E17.59981
G1 X124.533 Y132.523 E17.62123
G1 X124.185 Y133.066 E17.64268
G1 X123.772 Y133.561 E17.66412
G1 X123.301 Y134.001 E17.68556
G1 X122.779 Y134.38 E17.70701
G1 X122.215 Y134.691 E17.72843
G1 X121.616 Y134.93 E17.74989
G1 X120.993 Y135.094 E17.77131
G1 X120.137 Y135.189 E17.79996
G1 X119.816 Y135.198 E17.81064
G1 X119.67 Y135.2 E17.81549
G1 X100.64 Y135.2 E18.44843
G1 X99.942 Y135.191 E18.47165
G1 X99.299 Y135.142 E18.4931
G1 X98.667 Y135.015 E18.51454
G1 X98.056 Y134.81 E18.53598
G1 X97.475 Y134.532 E18.5574
G1 X96.932 Y134.183 E18.57887
G1 X96.437 Y133.77 E18.60031
G1 X95.997 Y133.299 E18.62175
G1 X95.618 Y132.777 E18.6432
G1 X95.307 Y132.213 E18.66462
G1 X95.069 Y131.614 E18.68606
G1 X94.906 Y130.99 E18.70751
G1 X94.811 Y130.131 E18.73626
G1 X94.8 Y129.658 E18.75199
G1 X94.8 Y110.604 E19.38573
G1 X94.809 Y109.939 E19.40785
G1 X94.858 Y109.296 E19.4293
G1 X94.986 Y108.664 E19.45075
G1 X95.191 Y108.053 E19.47218
G1 X95.47 Y107.472 E19.49362
G1 X95.819 Y106.929 E19.51509
G1 X96.232 Y106.435 E19.5365
G1 X96.703 Y105.995 E19.55794
;MESH:Cube
G0 F6000 X119.4 Y129.4
;TYPE:WALL-INNER
G1 F1200 X100.6 Y129.4 E20.18323
G1 X100.6 Y110.6 E20.80852
G1 X119.4 Y110.6 E21.43381
G1 X119.4 Y129.4 E22.0591
G0 F6000 X119.8 Y129.8
;TYPE:WALL-OUTER
G1 F1200 X100.2 Y129.8 E22.711
G1 X100.2 Y110.2 E23.3629
G1 X119.8 Y110.2 E24.0148
G1 X119.8 Y129.8 E24.6667
G0 F6000 X119.01 Y129.01
;TYPE:SKIN
G1 F1200 X100.99 Y129.01 E25.26605
G1 X100.99 Y110.99 E25.86539
G1 X119.01 Y110.99 E26.46474
G1 X119.01 Y129.01 E27.06409
G0 F6000 X118.849 Y111.495
G1 F1200 X118.504 Y111.15 E27.08032
G0 F6000 X117.938 Y111.15
G1 F1200 X118.849 Y112.061 E27.12317
G0 F6000 X118.849 Y112.627
G1 F1200 X117.372 Y111.15 E27.19264
G0 F6000 X116.806 Y111.15
G1 F1200 X118.849 Y113.192 E27.28871
G0 F6000 X118.849 Y113.758
G1 F1200 X116.241 Y111.15 E27.41139
G0 F6000 X115.675 Y111.15
G1 F1200 X118.849 Y114.324 E27.56068
G0 F6000 X118.849 Y114.89
G1 F1200 X115.109 Y111.15 E27.7366
G0 F6000 X114.544 Y111.15
G1 F1200 X118.849 Y115.455 E27.93909
G0 F6000 X118.849 Y116.021
G1 F1200 X113.978 Y111.15 E28.16821
G0 F6000 X113.412 Y111.15
G1 F1200 X118.849 Y116.587 E28.42395
G0 F6000 X118.849 Y117.152
G1 F1200 X112.847 Y111.15 E28.70627
G0 F6000 X112.281 Y111.15
G1 F1200 X118.849 Y117.718 E29.01521
G0 F6000 X118.849 Y118.284
G1 F1200 X111.715 Y111.15 E29.35077
G0 F6000 X111.15 Y111.15
G1 F1200 X118.849 Y118.849 E29.7129
G0 F6000 X118.849 Y119.415
G1 F1200 X110.584 Y111.15 E30.10166
G0 F6000 X110.018 Y111.15
G1 F1200 X118.849 Y119.981 E30.51705
G0 F6000 X118.849 Y120.546
G1 F1200 X109.453 Y111.15 E30.95901
G0 F6000 X108.887 Y111.15
G1 F1200 X118.849 Y121.112 E31.42759
G0 F6000 X118.849 Y121.678
G1 F1200 X108.321 Y111.15 E31.92279
G0 F6000 X107.756 Y111.15
G1 F1200 X118.849 Y122.243 E32.44457
G0 F6000 X118.849 Y122.809
G1 F1200 X107.19 Y111.15 E32.99298
G0 F6000 X106.624 Y111.15
G1 F1200 X118.849 Y123.375 E33.568
G0 F6000 X118.849 Y123.94
G1 F1200 X106.058 Y111.15 E34.16963
G0 F6000 X105.493 Y111.15
G1 F1200 X118.849 Y124.506 E34.79786
G0 F6000 X118.849 Y125.072
G1 F1200 X104.927 Y111.15 E35.4527
G0 F6000 X104.361 Y111.15
G1 F1200 X118.849 Y125.638 E36.13417
G0 F6000 X118.849 Y126.203
G1 F1200 X103.796 Y111.15 E36.84222
G0 F6000 X103.23 Y111.15
G1 F1200 X118.849 Y126.769 E37.57689
G0 F6000 X118.849 Y127.335
G1 F1200 X102.664 Y111.15 E38.33818
G0 F6000 X102.099 Y111.15
G1 F1200 X118.849 Y127.9 E39.12605
G0 F6000 X118.849 Y128.466
G1 F1200 X101.533 Y111.15 E39.94054
G0 F6000 X101.149 Y111.331
G1 F1200 X118.666 Y128.848 E40.76449
G0 F6000 X118.1 Y128.848
G1 F1200 X101.149 Y111.897 E41.56181
G0 F6000 X101.149 Y112.463
G1 F1200 X117.535 Y128.848 E42.33254
G0 F6000 X116.969 Y128.848
G1 F1200 X101.149 Y113.028 E43.07666
G0 F6000 X101.149 Y113.594
G1 F1200 X116.403 Y128.848 E43.79416
G0 F6000 X115.838 Y128.848
G1 F1200 X101.149 Y114.16 E44.48507
G0 F6000 X101.149 Y114.725
G1 F1200 X115.272 Y128.848 E45.14937
G0 F6000 X114.706 Y128.848
G1 F1200 X101.149 Y115.291 E45.78705
G0 F6000 X101.149 Y115.857
G1 F1200 X114.141 Y128.848 E46.39813
G0 F6000 X113.575 Y128.848
G1 F1200 X101.149 Y116.423 E46.98259
G0 F6000 X101.149 Y116.988
G1 F1200 X113.009 Y128.848 E47.54044
G0 F6000 X112.444 Y128.848
G1 F1200 X101.149 Y117.554 E48.0717
G0 F6000 X101.149 Y118.12
G1 F1200 X111.878 Y128.848 E48.57634
G0 F6000 X111.312 Y128.848
G1 F1200 X101.149 Y118.685 E49.05437
G0 F6000 X101.149 Y119.251
G1 F1200 X110.747 Y128.848 E49.50581
G0 F6000 X110.181 Y128.848
G1 F1200 X101.149 Y119.817 E49.93063
G0 F6000 X101.149 Y120.382
G1 F1200 X109.615 Y128.848 E50.32884
G0 F6000 X109.05 Y128.848
G1 F1200 X101.149 Y120.948 E50.70046
G0 F6000 X101.149 Y121.514
G1 F1200 X108.484 Y128.848 E51.04545
G0 F6000 X107.918 Y128.848
G1 F1200 X101.149 Y122.079 E51.36384
G0 F6000 X101.149 Y122.645
G1 F1200 X107.352 Y128.848 E51.65561
G0 F6000 X106.787 Y128.848
G1 F1200 X101.149 Y123.211 E51.92078
G0 F6000 X101.149 Y123.776
G1 F1200 X106.221 Y128.848 E52.15935
G0 F6000 X105.655 Y128.848
G1 F1200 X101.149 Y124.342 E52.3713
G0 F6000 X101.149 Y124.908
G1 F1200 X105.09 Y128.848 E52.55665
G0 F6000 X104.524 Y128.848
G1 F1200 X101.149 Y125.473 E52.7154
G0 F6000 X101.149 Y126.039
G1 F1200 X103.958 Y128.848 E52.84753
G0 F6000 X103.393 Y128.848
G1 F1200 X101.149 Y126.605 E52.95305
G0 F6000 X101.149 Y127.171
G1 F1200 X102.827 Y128.848 E53.03196
G0 F6000 X102.261 Y128.848
G1 F1200 X101.149 Y127.736 E53.08426
G0 F6000 X101.149 Y128.302
G1 F1200 X101.696 Y128.848 E53.10997
;MESH:NONMESH
G0 F300 X101.696 Y128.848 Z0.4
G0 F6000 X119.4 Y129.4
;TIME_ELAPSED:87.673096
;LAYER:1
M106 S85
;TYPE:WALL-INNER
;MESH:Cube
G1 F1650 X100.6 Y129.4 E53.73526
G1 X100.6 Y110.6 E54.36055
G1 X119.4 Y110.6 E54.98584
G1 X119.4 Y129.4 E55.61113
G0 F8400 X119.8 Y129.8
;TYPE:WALL-OUTER
G1 F1050 X100.2 Y129.8 E56.26303
G1 X100.2 Y110.2 E56.91493
G1 X119.8 Y110.2 E57.56683
G1 X119.8 Y129.8 E58.21873
G0 F8400 X119.01 Y129.01
;TYPE:SKIN
G1 F3000 X100.99 Y129.01 E58.81807
