;FLAVOR:Marlin
;TIME:8408
;Filament used: 2.57609m
;Layer height: 0.2
;MINX:16.103
;MINY:24.091
;MINZ:0.2
;MAXX:78.832
;MAXY:51.953
;MAXZ:75.8
;POSTPROCESSED
;Generated with Cura_SteamEngine 4.11.0
M140 S70
M105
M190 S70
M104 S250
M105
M109 S250
M82 ;absolute extrusion mode
M201 X500.00 Y500.00 Z100.00 E5000.00 ;Setup machine max acceleration
M203 X500.00 Y500.00 Z10.00 E50.00 ;Setup machine max feedrate
M204 P500.00 R1000.00 T500.00 ;Setup Print/Retract/Travel acceleration
M205 X8.00 Y8.00 Z0.40 E5.00 ;Setup Jerk
M220 S100 ;Reset Feedrate
M221 S100 ;Reset Flowrate
G28 ;Home
G29 ;Auto Bed Level
G92 E0 ;Reset Extruder
G1 Z2.0 F3000 ;Move Z Axis up
G1 X10.1 Y20 Z0.28 F5000.0 ;Move to start position
G1 X10.1 Y200.0 Z0.28 F1500.0 E15 ;Draw the first line
G1 X10.4 Y200.0 Z0.28 F5000.0 ;Move to side a little
G1 X10.4 Y20 Z0.28 F1500.0 E30 ;Draw the second line
G92 E0 ;Reset Extruder
G1 Z2.0 F3000 ;Move Z Axis up
G92 E0
G92 E0
G1 F1500 E-1
;LAYER_COUNT:378
;LAYER:0
M107
G1 F300 Z0.4
G0 F9000 X19.935 Y25.787 Z0.4
;TYPE:SKIRT
G1 F300 Z0.2
G1 F1500 E0
G1 F1800 X20.651 Y25.332 E0.02822
G1 X21.407 Y24.947 E0.05643
G1 X22.337 Y24.588 E0.08959
G1 X22.482 Y24.541 E0.09466
G1 X23.3 Y24.317 E0.12287
G1 X24.136 Y24.172 E0.15109
G1 X25.121 Y24.103 E0.18393
G1 X25.983 Y24.091 E0.2126
G1 X69.159 Y24.093 E1.64864
G1 X69.858 Y24.103 E1.67189
G1 X70.704 Y24.155 E1.70009
G1 X71.542 Y24.287 E1.7283
G1 X72.364 Y24.496 E1.75651
G1 X73.163 Y24.783 E1.78475
G1 X73.931 Y25.143 E1.81296
G1 X74.662 Y25.574 E1.84118
G1 X75.348 Y26.072 E1.86938
G1 X75.985 Y26.632 E1.89759
G1 X76.567 Y27.25 E1.92582
G1 X76.888 Y27.648 E1.94283
G1 X76.968 Y27.753 E1.94722
G1 X77.45 Y28.451 E1.97543
G1 X77.863 Y29.191 E2.00362
G1 X78.206 Y29.968 E2.03187
G1 X78.473 Y30.772 E2.06005
G1 X78.664 Y31.599 E2.08828
G1 X78.776 Y32.44 E2.11649
G1 X78.807 Y33.014 E2.13561
G1 X78.83 Y34.088 E2.17134
G1 X78.832 Y34.282 E2.1778
G1 X78.83 Y42.218 E2.44175
G1 X78.82 Y42.933 E2.46553
G1 X78.768 Y43.78 E2.49376
G1 X78.637 Y44.618 E2.52197
G1 X78.427 Y45.44 E2.55018
G1 X78.141 Y46.238 E2.57838
G1 X77.781 Y47.006 E2.60659
G1 X77.194 Y47.968 E2.64407
G1 X77.103 Y48.098 E2.64935
G1 X76.584 Y48.769 E2.67756
G1 X76.005 Y49.389 E2.70578
G1 X75.37 Y49.951 E2.73398
G1 X74.684 Y50.451 E2.76222
G1 X73.955 Y50.884 E2.79042
G1 X73.188 Y51.246 E2.81863
G1 X72.39 Y51.535 E2.84686
G1 X71.569 Y51.747 E2.87506
G1 X70.731 Y51.881 E2.90328
G1 X69.887 Y51.936 E2.93142
G1 X69.025 Y51.951 E2.96009
G1 X25.965 Y51.953 E4.39227
G1 X25.116 Y51.941 E4.42051
G1 X24.27 Y51.888 E4.44871
G1 X23.432 Y51.755 E4.47693
G1 X22.61 Y51.544 E4.50515
G1 X21.815 Y51.258 E4.53325
G1 X21.67 Y51.198 E4.53847
G1 X20.902 Y50.837 E4.5667
G1 X20.172 Y50.406 E4.59489
G1 X19.485 Y49.907 E4.62313
G1 X18.849 Y49.346 E4.65134
G1 X18.268 Y48.728 E4.67955
G1 X17.748 Y48.058 E4.70776
G1 X17.294 Y47.342 E4.73596
G1 X16.908 Y46.586 E4.76419
G1 X16.596 Y45.797 E4.79241
G1 X16.36 Y44.982 E4.82063
G1 X16.201 Y44.149 E4.84884
G1 X16.114 Y43.122 E4.88312
G1 X16.106 Y42.822 E4.8931
G1 X16.103 Y42.583 E4.90105
G1 X16.103 Y33.68 E5.19717
G1 X16.113 Y33.014 E5.21932
G1 X16.166 Y32.167 E5.24755
G1 X16.298 Y31.329 E5.27576
G1 X16.508 Y30.508 E5.30395
G1 X16.795 Y29.709 E5.33218
G1 X17.156 Y28.941 E5.36041
G1 X17.588 Y28.211 E5.38862
G1 X18.086 Y27.525 E5.41682
G1 X18.647 Y26.888 E5.44505
G1 X19.265 Y26.307 E5.47326
G1 X19.935 Y25.787 E5.50147
G0 F9000 X20.319 Y26.009
G1 F1800 X21.029 Y25.58 E5.52906
G1 X21.777 Y25.222 E5.55664
G1 X22.46 Y24.968 E5.58088
G1 X22.605 Y24.921 E5.58595
G1 X23.405 Y24.704 E5.61352
G1 X24.223 Y24.564 E5.64112
G1 X25.127 Y24.503 E5.67125
G1 X25.983 Y24.491 E5.69973
G1 X69.153 Y24.493 E7.13557
G1 X69.852 Y24.503 E7.15882
G1 X70.68 Y24.555 E7.18641
G1 X71.498 Y24.686 E7.21397
G1 X72.301 Y24.896 E7.24157
G1 X73.079 Y25.181 E7.26913
G1 X73.826 Y25.541 E7.29671
G1 X74.535 Y25.971 E7.32429
G1 X75.2 Y26.467 E7.35188
G1 X75.814 Y27.024 E7.37946
G1 X76.57 Y27.89 E7.41769
G1 X76.65 Y27.995 E7.42208
G1 X77.12 Y28.678 E7.44966
G1 X77.522 Y29.403 E7.47723
G1 X77.853 Y30.164 E7.50483
G1 X78.108 Y30.953 E7.53241
G1 X78.287 Y31.762 E7.55997
G1 X78.387 Y32.586 E7.58757
G1 X78.407 Y33.023 E7.60212
G1 X78.43 Y34.097 E7.63785
G1 X78.432 Y34.282 E7.64401
G1 X78.43 Y42.212 E7.90776
G1 X78.42 Y42.927 E7.93154
G1 X78.369 Y43.755 E7.95914
G1 X78.238 Y44.574 E7.98672
G1 X78.028 Y45.376 E8.0143
G1 X77.743 Y46.155 E8.04188
G1 X77.384 Y46.902 E8.06945
G1 X76.866 Y47.739 E8.10219
G1 X76.775 Y47.869 E8.10747
G1 X76.268 Y48.524 E8.13502
G1 X75.699 Y49.128 E8.16262
G1 X75.075 Y49.674 E8.19019
G1 X74.401 Y50.158 E8.21779
G1 X73.684 Y50.574 E8.24536
G1 X72.93 Y50.919 E8.27294
G1 X72.147 Y51.19 E8.3005
G1 X71.341 Y51.385 E8.32808
G1 X70.52 Y51.501 E8.35566
G1 X69.88 Y51.536 E8.37698
G1 X68.868 Y51.552 E8.41064
G1 X25.832 Y51.552 E9.84202
G1 X25.123 Y51.541 E9.86561
G1 X24.295 Y51.488 E9.8932
G1 X23.476 Y51.356 E9.9208
G1 X22.674 Y51.145 E9.94838
G1 X21.968 Y50.889 E9.97336
G1 X21.823 Y50.829 E9.97857
G1 X21.073 Y50.475 E10.00616
G1 X20.36 Y50.051 E10.03375
G1 X19.692 Y49.56 E10.06132
G1 X19.074 Y49.007 E10.08891
G1 X18.512 Y48.397 E10.11649
G1 X18.012 Y47.736 E10.14406
G1 X17.577 Y47.03 E10.17164
G1 X17.213 Y46.285 E10.19922
G1 X16.922 Y45.508 E10.22681
G1 X16.707 Y44.707 E10.2544
G1 X16.57 Y43.889 E10.28198
G1 X16.514 Y43.111 E10.30793
G1 X16.506 Y42.811 E10.31791
G1 X16.503 Y42.583 E10.32549
G1 X16.503 Y33.686 E10.62141
G1 X16.513 Y33.02 E10.64356
G1 X16.565 Y32.192 E10.67116
G1 X16.697 Y31.374 E10.69871
G1 X16.907 Y30.572 E10.72629
G1 X17.194 Y29.793 E10.7539
G1 X17.554 Y29.046 E10.78148
G1 X17.984 Y28.337 E10.80906
G1 X18.48 Y27.673 E10.83663
G1 X19.039 Y27.06 E10.86422
G1 X19.653 Y26.503 E10.89179
G1 X20.319 Y26.009 E10.91937
G0 F9000 X20.701 Y26.236
G1 F1800 X21.404 Y25.835 E10.94629
G1 X22.144 Y25.505 E10.97324
G1 X22.584 Y25.349 E10.98877
G1 X22.729 Y25.302 E10.99384
G1 X23.51 Y25.09 E11.02075
G1 X24.309 Y24.957 E11.04769
G1 X25.133 Y24.903 E11.07516
G1 X25.983 Y24.891 E11.10343
G1 X69.147 Y24.893 E12.53907
G1 X69.846 Y24.903 E12.56232
G1 X70.654 Y24.954 E12.58925
G1 X71.453 Y25.085 E12.61618
G1 X72.236 Y25.295 E12.64314
G1 X72.993 Y25.58 E12.67005
G1 X73.719 Y25.938 E12.69697
G1 X74.406 Y26.367 E12.72391
G1 X75.048 Y26.861 E12.75085
G1 X75.637 Y27.416 E12.77777
G1 X76.252 Y28.132 E12.80916
G1 X76.332 Y28.237 E12.81355
G1 X76.79 Y28.905 E12.84049
G1 X77.18 Y29.614 E12.8674
G1 X77.498 Y30.359 E12.89435
G1 X77.742 Y31.131 E12.92127
G1 X77.908 Y31.924 E12.94822
G1 X78.007 Y33.031 E12.98519
G1 X78.03 Y34.105 E13.02092
G1 X78.032 Y34.282 E13.0268
G1 X78.03 Y42.207 E13.29039
G1 X78.02 Y42.922 E13.31417
G1 X77.969 Y43.73 E13.3411
G1 X77.838 Y44.529 E13.36803
G1 X77.629 Y45.311 E13.39495
G1 X77.344 Y46.069 E13.42189
G1 X76.986 Y46.795 E13.44881
G1 X76.539 Y47.509 E13.47683
G1 X76.448 Y47.639 E13.48211
G1 X75.951 Y48.279 E13.50906
G1 X75.394 Y48.866 E13.53597
G1 X74.782 Y49.396 E13.5629
G1 X74.12 Y49.863 E13.58985
G1 X73.416 Y50.262 E13.61676
G1 X72.675 Y50.59 E13.64371
G1 X71.906 Y50.843 E13.67064
G1 X71.116 Y51.019 E13.69756
G1 X70.312 Y51.116 E13.72449
G1 X69.873 Y51.136 E13.73911
G1 X68.868 Y51.152 E13.77254
G1 X25.838 Y51.152 E15.20372
G1 X25.129 Y51.141 E15.22731
G1 X24.321 Y51.088 E15.25424
G1 X23.522 Y50.957 E15.28117
G1 X22.74 Y50.746 E15.30811
G1 X22.121 Y50.519 E15.33004
G1 X21.976 Y50.459 E15.33526
G1 X21.244 Y50.113 E15.36219
G1 X20.549 Y49.696 E15.38914
G1 X19.9 Y49.213 E15.41605
G1 X19.301 Y48.668 E15.44299
G1 X18.758 Y48.067 E15.46993
G1 X18.278 Y47.415 E15.49685
G1 X17.864 Y46.719 E15.52379
G1 X17.521 Y45.986 E15.55071
G1 X17.252 Y45.222 E15.57765
G1 X17.06 Y44.436 E15.60456
G1 X16.946 Y43.634 E15.6315
G1 X16.914 Y43.101 E15.64926
G1 X16.906 Y42.801 E15.65924
G1 X16.903 Y42.583 E15.66649
G1 X16.903 Y33.692 E15.96221
G1 X16.913 Y33.026 E15.98436
G1 X16.965 Y32.218 E16.01129
G1 X17.097 Y31.419 E16.03823
G1 X17.306 Y30.637 E16.06515
G1 X17.592 Y29.879 E16.09209
G1 X17.951 Y29.154 E16.119
G1 X18.38 Y28.467 E16.14594
G1 X18.875 Y27.826 E16.17288
G1 X19.43 Y27.237 E16.1998
G1 X20.041 Y26.705 E16.22674
G1 X20.701 Y26.236 E16.25367
G1 F1500 E15.25367
G1 F300 Z0.4
;MESH:ABSTempTower
G0 F9000 X68.431 Y41.552 Z0.4
;TYPE:WALL-INNER
G1 F300 Z0.2
G1 F1500 E16.25367
G1 F1800 X26.701 Y41.553 E17.64162
G1 X26.502 Y41.553 E17.64823
G1 X26.502 Y41.354 E17.65252
G1 X26.502 Y34.69 E17.87416
G1 X26.502 Y34.491 E17.88078
G1 X26.701 Y34.491 E17.88506
G1 X68.233 Y34.492 E19.26642
G1 X68.432 Y34.492 E19.27304
G1 X68.432 Y34.691 E19.27732
G1 X68.431 Y41.552 E19.50552
G0 F9000 X68.831 Y41.952
G1 F1800 X26.301 Y41.953 E20.92008
G1 X26.102 Y41.953 E20.92669
G1 X26.102 Y41.754 E20.93098
G1 X26.102 Y34.091 E21.18585
G1 X68.633 Y34.092 E22.60044
G1 X68.832 Y34.092 E22.60706
G1 X68.832 Y34.291 E22.61134
G1 X68.831 Y41.952 E22.86614
G0 F9000 X69.231 Y42.352
G1 F1800 X25.901 Y42.353 E24.30731
G1 X25.702 Y42.353 E24.31392
G1 X25.702 Y42.154 E24.31821
G1 X25.702 Y33.89 E24.59307
G1 X25.702 Y33.691 E24.59969
G1 X25.901 Y33.691 E24.60397
G1 X69.033 Y33.692 E26.03855
G1 X69.232 Y33.692 E26.04516
G1 X69.232 Y33.891 E26.04945
G1 X69.231 Y42.352 E26.33086
G0 F9000 X69.631 Y42.752
;TYPE:WALL-OUTER
G1 F1800 X25.302 Y42.753 E27.80525
G1 X25.302 Y33.291 E28.11996
G1 X69.632 Y33.292 E29.59438
G1 X69.631 Y42.752 E29.90902
G1 F1500 E28.90902
G1 F300 Z0.4
G0 F9000 X68.041 Y41.162 Z0.4
;TYPE:SKIN
G1 F300 Z0.2
G1 F1500 E29.90902
G1 F1800 X26.892 Y41.163 E31.27764
G1 X26.892 Y34.881 E31.48658
G1 X68.042 Y34.882 E32.85523
G1 X68.041 Y41.162 E33.06411
G1 F1500 E32.06411
G1 F300 Z0.4
G0 F9000 X67.881 Y35.637 Z0.4
G1 F300 Z0.2
G1 F1500 E33.06411
G1 F1800 X67.286 Y35.042 E33.0921
G0 F9000 X66.72 Y35.042
G1 F1800 X67.881 Y36.203 E33.14671
G0 F9000 X67.881 Y36.768
G1 F1800 X66.154 Y35.042 E33.22791
G0 F9000 X65.589 Y35.042
G1 F1800 X67.881 Y37.334 E33.33572
G0 F9000 X67.881 Y37.9
G1 F1800 X65.023 Y35.042 E33.47015
G0 F9000 X64.457 Y35.042
G1 F1800 X67.88 Y38.465 E33.63116
G0 F9000 X67.88 Y39.03
G1 F1800 X63.892 Y35.042 E33.81875
G0 F9000 X63.326 Y35.042
G1 F1800 X67.88 Y39.596 E34.03295
G0 F9000 X67.88 Y40.162
G1 F1800 X62.76 Y35.042 E34.27378
G0 F9000 X62.194 Y35.042
G1 F1800 X67.88 Y40.727 E34.54121
G0 F9000 X67.588 Y41.001
G1 F1800 X61.629 Y35.042 E34.8215
G0 F9000 X61.063 Y35.042
G1 F1800 X67.023 Y41.001 E35.10182
G0 F9000 X66.457 Y41.001
G1 F1800 X60.497 Y35.042 E35.38214
G0 F9000 X59.932 Y35.042
G1 F1800 X65.891 Y41.001 E35.66243
G0 F9000 X65.326 Y41.001
G1 F1800 X59.366 Y35.042 E35.94275
G0 F9000 X58.8 Y35.042
G1 F1800 X64.76 Y41.001 E36.22306
G0 F9000 X64.194 Y41.001
G1 F1800 X58.235 Y35.042 E36.50336
G0 F9000 X57.669 Y35.042
G1 F1800 X63.629 Y41.001 E36.78367
G0 F9000 X63.063 Y41.001
G1 F1800 X57.103 Y35.042 E37.06399
G0 F9000 X56.538 Y35.042
G1 F1800 X62.497 Y41.001 E37.34428
G0 F9000 X61.931 Y41.001
G1 F1800 X55.972 Y35.042 E37.62457
G0 F9000 X55.406 Y35.042
G1 F1800 X61.366 Y41.001 E37.90489
G0 F9000 X60.8 Y41.001
G1 F1800 X54.841 Y35.042 E38.18518
G0 F9000 X54.275 Y35.042
G1 F1800 X60.234 Y41.001 E38.46548
G0 F9000 X59.669 Y41.001
G1 F1800 X53.709 Y35.042 E38.74579
G0 F9000 X53.144 Y35.042
G1 F1800 X59.103 Y41.001 E39.02609
G0 F9000 X58.537 Y41.001
G1 F1800 X52.578 Y35.042 E39.30638
G0 F9000 X52.012 Y35.042
G1 F1800 X57.972 Y41.001 E39.5867
G0 F9000 X57.406 Y41.001
G1 F1800 X51.446 Y35.042 E39.86701
G0 F9000 X50.881 Y35.042
G1 F1800 X56.84 Y41.001 E40.14731
G0 F9000 X56.275 Y41.001
G1 F1800 X50.315 Y35.042 E40.42762
G0 F9000 X49.749 Y35.042
G1 F1800 X55.709 Y41.001 E40.70794
G0 F9000 X55.143 Y41.001
G1 F1800 X49.184 Y35.042 E40.98823
G0 F9000 X48.618 Y35.042
G1 F1800 X54.578 Y41.001 E41.26855
G0 F9000 X54.012 Y41.001
G1 F1800 X48.052 Y35.042 E41.54887
G0 F9000 X47.487 Y35.042
G1 F1800 X53.446 Y41.001 E41.82916
G0 F9000 X52.88 Y41.001
G1 F1800 X46.92 Y35.041 E42.1095
G0 F9000 X46.355 Y35.041
G1 F1800 X52.315 Y41.001 E42.38984
G0 F9000 X51.749 Y41.001
G1 F1800 X45.789 Y35.041 E42.67018
G0 F9000 X45.223 Y35.041
G1 F1800 X51.183 Y41.001 E42.95052
G0 F9000 X50.618 Y41.001
G1 F1800 X44.658 Y35.041 E43.23086
G0 F9000 X44.092 Y35.041
G1 F1800 X50.052 Y41.001 E43.5112
G0 F9000 X49.486 Y41.001
G1 F1800 X43.526 Y35.041 E43.79154
G0 F9000 X42.96 Y35.041
G1 F1800 X48.921 Y41.001 E44.0719
G0 F9000 X48.355 Y41.001
G1 F1800 X42.395 Y35.041 E44.35224
G0 F9000 X41.829 Y35.041
G1 F1800 X47.789 Y41.001 E44.63258
G0 F9000 X47.224 Y41.001
G1 F1800 X41.263 Y35.041 E44.91295
G0 F9000 X40.698 Y35.041
G1 F1800 X46.658 Y41.001 E45.19329
G0 F9000 X46.092 Y41.001
G1 F1800 X40.132 Y35.041 E45.47363
G0 F9000 X39.566 Y35.041
G1 F1800 X45.527 Y41.001 E45.75399
G0 F9000 X44.961 Y41.001
G1 F1800 X39.001 Y35.041 E46.03433
G0 F9000 X38.435 Y35.041
G1 F1800 X44.395 Y41.001 E46.31467
G0 F9000 X43.83 Y41.001
G1 F1800 X37.869 Y35.041 E46.59504
G0 F9000 X37.304 Y35.041
G1 F1800 X43.264 Y41.001 E46.87538
G0 F9000 X42.698 Y41.001
G1 F1800 X36.738 Y35.041 E47.15572
G0 F9000 X36.172 Y35.041
G1 F1800 X42.132 Y41.001 E47.43606
G0 F9000 X41.567 Y41.001
G1 F1800 X35.607 Y35.041 E47.7164
G0 F9000 X35.041 Y35.041
G1 F1800 X41.001 Y41.001 E47.99674
G0 F9000 X40.435 Y41.001
G1 F1800 X34.475 Y35.041 E48.27708
G0 F9000 X33.91 Y35.041
G1 F1800 X39.87 Y41.001 E48.55742
G0 F9000 X39.304 Y41.001
G1 F1800 X33.344 Y35.041 E48.83776
G0 F9000 X32.778 Y35.041
G1 F1800 X38.738 Y41.001 E49.1181
G0 F9000 X38.173 Y41.001
G1 F1800 X32.212 Y35.041 E49.39846
G0 F9000 X31.647 Y35.041
G1 F1800 X37.607 Y41.001 E49.6788
G0 F9000 X37.041 Y41.001
G1 F1800 X31.081 Y35.041 E49.95914
G0 F9000 X30.515 Y35.041
G1 F1800 X36.476 Y41.001 E50.2395
G0 F9000 X35.91 Y41.001
G1 F1800 X29.95 Y35.041 E50.51984
G0 F9000 X29.384 Y35.041
G1 F1800 X35.344 Y41.001 E50.80018
G0 F9000 X34.779 Y41.001
G1 F1800 X28.818 Y35.041 E51.08055
G0 F9000 X28.253 Y35.041
G1 F1800 X34.213 Y41.001 E51.36089
G0 F9000 X33.647 Y41.001
G1 F1800 X27.687 Y35.041 E51.64123
G0 F9000 X27.121 Y35.041
G1 F1800 X33.081 Y41.001 E51.92157
G0 F9000 X32.516 Y41.001
G1 F1800 X27.051 Y35.537 E52.1786
G0 F9000 X27.051 Y36.102
G1 F1800 X31.95 Y41.001 E52.40904
G0 F9000 X31.384 Y41.001
G1 F1800 X27.051 Y36.668 E52.61285
G0 F9000 X27.051 Y37.234
G1 F1800 X30.819 Y41.001 E52.79006
G0 F9000 X30.253 Y41.001
G1 F1800 X27.051 Y37.799 E52.94067
G0 F9000 X27.051 Y38.365
G1 F1800 X29.687 Y41.001 E53.06466
G0 F9000 X29.122 Y41.001
G1 F1800 X27.051 Y38.931 E53.16205
G0 F9000 X27.051 Y39.496
G1 F1800 X28.556 Y41.001 E53.23284
G0 F9000 X27.99 Y41.001
G1 F1800 X27.051 Y40.062 E53.27701
G0 F9000 X27.051 Y40.628
G1 F1800 X27.425 Y41.001 E53.29458
G1 F1500 E52.29458
G1 F300 Z0.4
;MESH:NONMESH
G0 F9000 X26.484 Y34.47 Z0.4
;TIME_ELAPSED:67.662105
;LAYER:1
M106 S85
;TYPE:WALL-INNER
;MESH:ABSTempTower
G1 F300 Z0.4
G1 F1500 E53.29458
G1 F1350 X68.454 Y34.47 E54.6905
G1 X68.454 Y41.574 E54.92678
G1 X26.484 Y41.574 E56.32271
G1 X26.484 Y34.47 E56.55899
G0 F5400 X26.084 Y34.07
G1 F1350 X68.854 Y34.07 E57.98153
G1 X68.854 Y41.974 E58.24442
G1 X26.084 Y41.974 E59.66695
G1 X26.084 Y34.07 E59.92984
G0 F5400 X25.684 Y33.67
G1 F1350 X69.254 Y33.67 E61.37898
G1 X69.254 Y42.374 E61.66848
G1 X25.684 Y42.374 E63.11762
G1 X25.684 Y33.67 E63.40712
G0 F5400 X25.284 Y33.273
;TYPE:WALL-OUTER
G1 F1350 X25.294 Y33.27 E63.40747
G1 X69.641 Y33.27 E64.88246
G1 X69.654 Y33.288 E64.88319
G1 X69.654 Y42.756 E65.1981
G1 X69.641 Y42.774 E65.19884
G1 X25.294 Y42.774 E66.67383
G1 X25.284 Y42.771 E66.67417
G1 X25.284 Y33.273 E66.99008
G1 F1500 E65.99008
G1 F300 Z0.6
G0 F5400 X26.874 Y34.86 Z0.6
;TYPE:SKIN
G1 F300 Z0.4
G1 F1500 E66.99008
G1 F1350 X68.064 Y34.86 E68.36006
G1 X68.064 Y41.184 E68.5704
G1 X26.874 Y41.184 E69.94039
G1 X26.874 Y34.86 E70.15072
G0 F5400 X27.034 Y35.191
G1 F1350 X27.206 Y35.018 E70.15884
G0 F5400 X27.772 Y35.018
G1 F1350 X27.034 Y35.756 E70.19355
G0 F5400 X27.034 Y36.322
G1 F1350 X28.338 Y35.018 E70.25489
G0 F5400 X28.903 Y35.018
G1 F1350 X27.034 Y36.888 E70.34282
G0 F5400 X27.034 Y37.454
G1 F1350 X29.469 Y35.018 E70.45738
G0 F5400 X30.035 Y35.018
G1 F1350 X27.034 Y38.019 E70.59854
G0 F5400 X27.034 Y38.585
G1 F1350 X30.6 Y35.018 E70.76629
G0 F5400 X31.166 Y35.018
G1 F1350 X27.034 Y39.151 E70.96068
G0 F5400 X27.034 Y39.716
