;FLAVOR:Marlin
;TIME:23184
;Filament used: 8.17928m
;Layer height: 0.2
;MINX:27.062
;MINY:24.887
;MINZ:0.2
;MAXX:87.896
;MAXY:71.018
;MAXZ:111.6
;POSTPROCESSED
;Generated with Cura_SteamEngine 4.11.0
M140 S85
M105
M190 S85
M104 S250
M105
M109 S250
M82 ;absolute extrusion mode
M201 X500.00 Y500.00 Z100.00 E5000.00 ;Setup machine max acceleration
M203 X500.00 Y500.00 Z10.00 E50.00 ;Setup machine max feedrate
M204 P500.00 R1000.00 T500.00 ;Setup Print/Retract/Travel acceleration
M205 X8.00 Y8.00 Z0.40 E5.00 ;Setup Jerk
M220 S100 ;Reset Feedrate
M221 S100 ;Reset Flowrate
G28 ;Home
G29 ;Auto Bed Level
G92 E0 ;Reset Extruder
G1 Z2.0 F3000 ;Move Z Axis up
G1 X10.1 Y20 Z0.28 F5000.0 ;Move to start position
G1 X10.1 Y200.0 Z0.28 F1500.0 E15 ;Draw the first line
G1 X10.4 Y200.0 Z0.28 F5000.0 ;Move to side a little
G1 X10.4 Y20 Z0.28 F1500.0 E30 ;Draw the second line
G92 E0 ;Reset Extruder
G1 Z2.0 F3000 ;Move Z Axis up
G92 E0
G92 E0
G1 F1500 E-1
;LAYER_COUNT:557
;LAYER:0
M107
G1 F300 Z0.4
G0 F9000 X29.591 Y27.976 Z0.4
;TYPE:SKIRT
G1 F300 Z0.2
G1 F1500 E0
G1 F1800 X30.335 Y27.274 E0.03402
G1 X30.512 Y27.125 E0.04172
G1 X31.186 Y26.61 E0.06993
G1 X31.905 Y26.16 E0.09814
G1 X32.664 Y25.781 E0.12636
G1 X33.455 Y25.474 E0.15458
G1 X33.919 Y25.333 E0.17071
G1 X34.206 Y25.254 E0.18061
G1 X35.034 Y25.067 E0.20884
G1 X35.905 Y24.958 E0.23804
G1 X36.165 Y24.938 E0.24671
G1 X37.215 Y24.918 E0.28164
G1 X37.49 Y24.929 E0.29079
G1 X38.305 Y24.999 E0.318
G1 X38.7 Y25.051 E0.33125
G1 X39.244 Y25.14 E0.34959
G1 X39.988 Y25.285 E0.3748
G1 X42.586 Y25.751 E0.46259
G1 X45.121 Y26.132 E0.54785
G1 X47.697 Y26.446 E0.63416
G1 X50.251 Y26.683 E0.71947
G1 X52.806 Y26.848 E0.80463
G1 X55.38 Y26.942 E0.8903
G1 X57.975 Y26.962 E0.97661
G1 X60.548 Y26.909 E1.06221
G1 X63.109 Y26.785 E1.14748
G1 X65.668 Y26.588 E1.23285
G1 X68.211 Y26.32 E1.3179
G1 X70.804 Y25.971 E1.40492
G1 X73.311 Y25.561 E1.48941
G1 X74.785 Y25.276 E1.53934
G1 X75.555 Y25.132 E1.5654
G1 X76.025 Y25.057 E1.58123
G1 X76.628 Y24.977 E1.60146
G1 X77.276 Y24.915 E1.62311
G1 X77.561 Y24.898 E1.63261
G1 X78.409 Y24.887 E1.66081
G1 X78.973 Y24.925 E1.67961
G1 X79.331 Y24.96 E1.69158
G1 X80.17 Y25.082 E1.71978
G1 X80.994 Y25.283 E1.74799
G1 X81.69 Y25.519 E1.77243
G1 X81.934 Y25.613 E1.78113
G1 X82.711 Y25.955 E1.80936
G1 X83.451 Y26.368 E1.83755
G1 X84.15 Y26.849 E1.86577
G1 X84.8 Y27.394 E1.89398
G1 X85.128 Y27.713 E1.9092
G1 X85.272 Y27.86 E1.91605
G1 X85.837 Y28.493 E1.94427
G1 X86.339 Y29.177 E1.97249
G1 X86.775 Y29.905 E2.00071
G1 X87.14 Y30.67 E2.0289
G1 X87.431 Y31.467 E2.05712
G1 X87.685 Y32.477 E2.09176
G1 X87.731 Y32.719 E2.09995
G1 X87.85 Y33.559 E2.12817
G1 X87.889 Y34.407 E2.15641
G1 X87.83 Y35.429 E2.19045
G1 X87.704 Y36.519 E2.22695
G1 X87.584 Y37.44 E2.25784
G1 X87.324 Y39.998 E2.34336
G1 X87.138 Y42.55 E2.42846
G1 X87.022 Y45.123 E2.51413
G1 X86.98 Y47.719 E2.60048
G1 X87.01 Y50.249 E2.68464
G1 X87.115 Y52.859 E2.77152
G1 X87.289 Y55.4 E2.85623
G1 X87.543 Y58.006 E2.94331
G1 X87.788 Y60.007 E3.01036
G1 X87.819 Y60.241 E3.01822
G1 X87.891 Y61.086 E3.04642
G1 X87.896 Y61.552 E3.06192
G1 X87.893 Y61.762 E3.06891
G1 X87.841 Y62.608 E3.0971
G1 X87.709 Y63.446 E3.12531
G1 X87.5 Y64.268 E3.15352
G1 X87.213 Y65.067 E3.18176
G1 X86.825 Y65.887 E3.21193
G1 X86.729 Y66.066 E3.21869
G1 X86.294 Y66.794 E3.2469
G1 X85.791 Y67.477 E3.27511
G1 X85.227 Y68.11 E3.30331
G1 X84.605 Y68.688 E3.33155
G1 X83.932 Y69.204 E3.35975
G1 X83.213 Y69.654 E3.38797
G1 X82.79 Y69.878 E3.40389
G1 X82.497 Y70.023 E3.41476
G1 X81.72 Y70.363 E3.44297
G1 X80.717 Y70.681 E3.47796
G1 X80.646 Y70.699 E3.4804
G1 X79.815 Y70.868 E3.50861
G1 X79.273 Y70.936 E3.52677
G1 X79.006 Y70.961 E3.53569
G1 X78.42 Y70.996 E3.55522
G1 X78.207 Y71.002 E3.56231
G1 X77.173 Y70.972 E3.59671
G1 X76.955 Y70.953 E3.60399
G1 X76.275 Y70.868 E3.62678
G1 X75.655 Y70.766 E3.64768
G1 X72.664 Y70.217 E3.74882
G1 X70.093 Y69.82 E3.83535
G1 X67.566 Y69.504 E3.92005
G1 X65.003 Y69.257 E4.00569
G1 X62.432 Y69.081 E4.0914
G1 X59.84 Y68.978 E4.17768
G1 X57.308 Y68.949 E4.2619
G1 X54.702 Y68.993 E4.34859
G1 X52.151 Y69.108 E4.43352
G1 X49.576 Y69.298 E4.5194
G1 X46.983 Y69.562 E4.60609
G1 X44.465 Y69.891 E4.69055
G1 X41.935 Y70.295 E4.77577
G1 X39.363 Y70.773 E4.86278
G1 X38.697 Y70.883 E4.88523
G1 X38.236 Y70.947 E4.90071
G1 X38.156 Y70.956 E4.90339
G1 X37.307 Y71.011 E4.93168
G1 X36.905 Y71.018 E4.94505
G1 X36.056 Y70.992 E4.97331
G1 X34.956 Y70.842 E5.01023
G1 X34.731 Y70.797 E5.01786
G1 X33.698 Y70.526 E5.05338
G1 X33.484 Y70.456 E5.06087
G1 X32.691 Y70.155 E5.08908
G1 X31.93 Y69.78 E5.1173
G1 X31.208 Y69.335 E5.14551
G1 X30.53 Y68.824 E5.17375
G1 X30.179 Y68.517 E5.18926
G1 X30.024 Y68.374 E5.19627
G1 X29.429 Y67.77 E5.22447
G1 X28.892 Y67.113 E5.25269
G1 X28.42 Y66.408 E5.28091
G1 X28.017 Y65.661 E5.30914
G1 X27.686 Y64.881 E5.33732
G1 X27.335 Y63.685 E5.37878
G1 X27.289 Y63.475 E5.38593
G1 X27.147 Y62.638 E5.41417
G1 X27.084 Y61.793 E5.44235
G1 X27.125 Y60.663 E5.47996
G1 X27.194 Y59.984 E5.50266
G1 X27.472 Y57.688 E5.57958
G1 X27.708 Y55.125 E5.66519
G1 X27.872 Y52.541 E5.7513
G1 X27.962 Y50.005 E5.83571
G1 X27.981 Y47.4 E5.92235
G1 X27.927 Y44.837 E6.00762
G1 X27.8 Y42.275 E6.09293
G1 X27.599 Y39.702 E6.17877
G1 X27.285 Y36.797 E6.27595
G1 X27.126 Y35.5 E6.31942
G1 X27.062 Y34.654 E6.34763
G1 X27.079 Y33.806 E6.37584
G1 X27.175 Y32.963 E6.40406
G1 X27.424 Y31.866 E6.44148
G1 X27.496 Y31.621 E6.44997
G1 X27.773 Y30.82 E6.47816
G1 X28.125 Y30.048 E6.50638
G1 X28.548 Y29.312 E6.53462
G1 X29.038 Y28.62 E6.56282
G1 X29.591 Y27.976 E6.59105
G0 F9000 X29.946 Y28.184
G1 F1800 X30.593 Y27.58 E6.62049
G1 X30.77 Y27.431 E6.62818
G1 X31.429 Y26.928 E6.65576
G1 X32.134 Y26.491 E6.68335
G1 X32.877 Y26.124 E6.71091
G1 X34.026 Y25.718 E6.75144
G1 X34.313 Y25.639 E6.76134
G1 X35.122 Y25.458 E6.78891
G1 X35.935 Y25.356 E6.81617
G1 X36.195 Y25.336 E6.82484
G1 X37.199 Y25.318 E6.85824
G1 X37.474 Y25.329 E6.86739
G1 X38.252 Y25.396 E6.89336
G1 X38.647 Y25.448 E6.90662
G1 X39.168 Y25.532 E6.92417
G1 X39.913 Y25.677 E6.94941
G1 X42.522 Y26.146 E7.03758
G1 X45.085 Y26.53 E7.12377
G1 X47.648 Y26.843 E7.20965
G1 X50.225 Y27.082 E7.29573
G1 X52.801 Y27.249 E7.38159
G1 X55.361 Y27.342 E7.46679
G1 X57.98 Y27.362 E7.5539
G1 X60.54 Y27.31 E7.63907
G1 X63.123 Y27.184 E7.72508
G1 X65.739 Y26.983 E7.81235
G1 X68.275 Y26.715 E7.89716
G1 X70.845 Y26.37 E7.98341
G1 X73.386 Y25.955 E8.06904
G1 X74.858 Y25.67 E8.11891
G1 X75.628 Y25.526 E8.14496
G1 X76.078 Y25.454 E8.16012
G1 X76.681 Y25.374 E8.18035
G1 X77.3 Y25.314 E8.20104
G1 X77.585 Y25.297 E8.21053
G1 X78.414 Y25.288 E8.23811
G1 X78.934 Y25.323 E8.25544
G1 X79.292 Y25.358 E8.26741
G1 X80.112 Y25.478 E8.29497
G1 X80.917 Y25.677 E8.32255
G1 X81.547 Y25.892 E8.34469
G1 X81.791 Y25.986 E8.35339
G1 X82.549 Y26.321 E8.38095
G1 X83.272 Y26.728 E8.40855
G1 X83.952 Y27.202 E8.43612
G1 X84.842 Y27.993 E8.47572
G1 X84.986 Y28.14 E8.48256
G1 X85.538 Y28.76 E8.51017
G1 X86.026 Y29.429 E8.53772
G1 X86.448 Y30.143 E8.5653
G1 X86.8 Y30.894 E8.59289
G1 X87.077 Y31.676 E8.62048
G1 X87.292 Y32.552 E8.65048
G1 X87.338 Y32.794 E8.65867
G1 X87.453 Y33.615 E8.68625
G1 X87.489 Y34.444 E8.71385
G1 X87.433 Y35.383 E8.74513
G1 X87.307 Y36.467 E8.78143
G1 X87.188 Y37.381 E8.81209
G1 X86.925 Y39.965 E8.89847
G1 X86.737 Y42.539 E8.98431
G1 X86.622 Y45.099 E9.06954
G1 X86.58 Y47.718 E9.15666
G1 X86.61 Y50.269 E9.24152
G1 X86.715 Y52.866 E9.32796
G1 X86.891 Y55.433 E9.41354
G1 X87.145 Y58.049 E9.50096
G1 X87.392 Y60.06 E9.56835
G1 X87.423 Y60.294 E9.5762
G1 X87.492 Y61.12 E9.60377
G1 X87.496 Y61.546 E9.61794
G1 X87.493 Y61.756 E9.62492
G1 X87.441 Y62.583 E9.65248
G1 X87.31 Y63.402 E9.68007
G1 X87.101 Y64.205 E9.70767
G1 X86.815 Y64.983 E9.73524
G1 X86.473 Y65.698 E9.7616
G1 X86.377 Y65.877 E9.76836
G1 X85.95 Y66.588 E9.79594
G1 X85.457 Y67.254 E9.8235
G1 X84.902 Y67.87 E9.85108
G1 X84.29 Y68.43 E9.87867
G1 X83.627 Y68.928 E9.90625
G1 X82.612 Y69.52 E9.94533
G1 X82.319 Y69.665 E9.9562
G1 X81.559 Y69.996 E9.98377
G1 X80.618 Y70.293 E10.01659
G1 X80.547 Y70.311 E10.01903
G1 X79.735 Y70.476 E10.04659
G1 X79.236 Y70.538 E10.06331
G1 X78.969 Y70.563 E10.07223
G1 X78.409 Y70.597 E10.09089
G1 X78.196 Y70.603 E10.09798
G1 X77.207 Y70.574 E10.13089
G1 X76.989 Y70.555 E10.13817
G1 X76.34 Y70.473 E10.15992
G1 X75.72 Y70.371 E10.18082
G1 X75.438 Y70.32 E10.19035
G1 X75.333 Y70.299 E10.19391
G1 X72.725 Y69.822 E10.2821
G1 X70.167 Y69.427 E10.36818
G1 X67.583 Y69.104 E10.4548
G1 X65.036 Y68.858 E10.5399
G1 X62.439 Y68.681 E10.62648
G1 X59.861 Y68.579 E10.71229
G1 X57.306 Y68.549 E10.79728
G1 X54.678 Y68.593 E10.8847
G1 X52.137 Y68.708 E10.9693
G1 X49.545 Y68.899 E11.05574
G1 X46.963 Y69.162 E11.14207
G1 X44.383 Y69.499 E11.22861
G1 X41.839 Y69.905 E11.31429
G1 X39.751 Y70.293 E11.38493
G1 X39.552 Y70.332 E11.39167
G1 X39.297 Y70.378 E11.40029
G1 X38.631 Y70.488 E11.42274
G1 X38.191 Y70.549 E11.43751
G1 X38.111 Y70.558 E11.44019
G1 X37.3 Y70.611 E11.46722
G1 X36.898 Y70.618 E11.4806
G1 X36.086 Y70.594 E11.50762
G1 X35.034 Y70.45 E11.54293
G1 X34.809 Y70.405 E11.55056
G1 X33.822 Y70.146 E11.5845
G1 X33.608 Y70.076 E11.59199
G1 X32.834 Y69.78 E11.61955
G1 X32.091 Y69.412 E11.64713
G1 X31.387 Y68.973 E11.67472
G1 X30.45 Y68.223 E11.71464
G1 X30.295 Y68.08 E11.72166
G1 X29.714 Y67.489 E11.74922
G1 X29.192 Y66.845 E11.77679
G1 X28.734 Y66.153 E11.80439
G1 X28.345 Y65.421 E11.83197
G1 X28.029 Y64.654 E11.85956
G1 X27.726 Y63.599 E11.89606
G1 X27.68 Y63.389 E11.90321
G1 X27.542 Y62.572 E11.93077
G1 X27.483 Y61.744 E11.95838
G1 X27.523 Y60.702 E11.99306
G1 X27.591 Y60.032 E12.01546
G1 X27.869 Y57.737 E12.09235
G1 X28.107 Y55.152 E12.17869
G1 X28.27 Y52.582 E12.26434
G1 X28.362 Y49.986 E12.35074
G1 X28.381 Y47.394 E12.43695
G1 X28.326 Y44.81 E12.52292
G1 X28.2 Y42.258 E12.6079
G1 X27.997 Y39.661 E12.69454
G1 X27.686 Y36.78 E12.79092
G1 X27.523 Y35.452 E12.83542
G1 X27.462 Y34.625 E12.863
G1 X27.481 Y33.796 E12.89058
G1 X27.579 Y32.972 E12.91818
G1 X27.808 Y31.979 E12.95208
G1 X27.88 Y31.734 E12.96057
G1 X28.152 Y30.951 E12.98814
G1 X28.498 Y30.197 E13.01573
G1 X28.915 Y29.481 E13.04329
G1 X29.399 Y28.807 E13.07089
G1 X29.946 Y28.184 E13.09846
G0 F9000 X30.3 Y28.394
G1 F1800 X30.85 Y27.886 E13.12337
G1 X31.027 Y27.737 E13.13106
G1 X31.672 Y27.247 E13.158
G1 X32.361 Y26.822 E13.18493
G1 X33.089 Y26.468 E13.21185
G1 X34.132 Y26.104 E13.24859
G1 X34.419 Y26.025 E13.25849
G1 X35.209 Y25.849 E13.28541
G1 X35.966 Y25.755 E13.31079
G1 X36.226 Y25.735 E13.31946
G1 X37.183 Y25.718 E13.35129
G1 X37.458 Y25.729 E13.36045
G1 X38.2 Y25.792 E13.38522
G1 X38.595 Y25.844 E13.39847
G1 X39.091 Y25.925 E13.41518
G1 X39.825 Y26.068 E13.44005
G1 X42.468 Y26.543 E13.52937
G1 X45.009 Y26.924 E13.61483
G1 X47.599 Y27.24 E13.70161
G1 X50.196 Y27.481 E13.78836
G1 X52.762 Y27.647 E13.87388
G1 X55.379 Y27.742 E13.96098
G1 X57.985 Y27.762 E14.04766
G1 X60.567 Y27.709 E14.13355
G1 X63.14 Y27.585 E14.21923
G1 X65.741 Y27.384 E14.306
G1 X68.333 Y27.111 E14.39269
G1 X70.897 Y26.766 E14.47873
G1 X73.455 Y26.348 E14.56494
G1 X74.932 Y26.063 E14.61497
G1 X75.702 Y25.919 E14.64103
G1 X76.131 Y25.85 E14.65548
G1 X76.734 Y25.77 E14.67571
G1 X77.324 Y25.714 E14.69542
G1 X77.609 Y25.697 E14.70492
G1 X78.418 Y25.688 E14.73183
G1 X78.895 Y25.721 E14.74773
G1 X79.253 Y25.756 E14.7597
G1 X80.054 Y25.874 E14.78662
G1 X80.839 Y26.071 E14.81354
G1 X81.403 Y26.265 E14.83338
G1 X81.647 Y26.359 E14.84208
G1 X82.387 Y26.687 E14.869
G1 X83.091 Y27.087 E14.89593
G1 X83.753 Y27.554 E14.92288
G1 X84.557 Y28.273 E14.95875
G1 X84.701 Y28.42 E14.96559
G1 X85.238 Y29.025 E14.9925
G1 X85.713 Y29.681 E15.01944
G1 X86.121 Y30.381 E15.04639
G1 X86.458 Y31.117 E15.07331
G1 X86.721 Y31.883 E15.10025
G1 X86.899 Y32.627 E15.12569
G1 X86.945 Y32.869 E15.13388
G1 X87.057 Y33.671 E15.16082
G1 X87.089 Y34.48 E15.18775
G1 X87.035 Y35.337 E15.21631
G1 X86.91 Y36.416 E15.25243
G1 X86.791 Y37.329 E15.28306
G1 X86.527 Y39.928 E15.36994
G1 X86.34 Y42.492 E15.45545
G1 X86.222 Y45.109 E15.54258
G1 X86.18 Y47.715 E15.62927
G1 X86.211 Y50.292 E15.71499
G1 X86.315 Y52.872 E15.80087
G1 X86.494 Y55.5 E15.88848
G1 X86.743 Y58.058 E15.97396
G1 X86.999 Y60.144 E16.04386
G1 X87.026 Y60.346 E16.05064
G1 X87.096 Y61.54 E16.09042
G1 X87.093 Y61.75 E16.0974
G1 X87.042 Y62.558 E16.12433
G1 X86.911 Y63.357 E16.15126
G1 X86.702 Y64.139 E16.17818
G1 X86.416 Y64.897 E16.20513
G1 X86.12 Y65.509 E16.22774
G1 X86.024 Y65.688 E16.2345
G1 X85.607 Y66.381 E16.2614
G1 X85.123 Y67.031 E16.28835
G1 X84.578 Y67.629 E16.31526
G1 X83.976 Y68.171 E16.3422
G1 X83.323 Y68.65 E16.36914
G1 X82.435 Y69.161 E16.40321
G1 X82.142 Y69.306 E16.41409
G1 X81.399 Y69.629 E16.44103
G1 X80.52 Y69.906 E16.47169
G1 X80.449 Y69.924 E16.47412
G1 X79.655 Y70.084 E16.50106
G1 X79.198 Y70.139 E16.51637
G1 X78.931 Y70.164 E16.52529
G1 X78.398 Y70.197 E16.54305
G1 X78.185 Y70.203 E16.55014
G1 X77.242 Y70.175 E16.58152
G1 X77.024 Y70.156 E16.5888
G1 X76.405 Y70.078 E16.60955
G1 X75.785 Y69.976 E16.63045
G1 X72.787 Y69.426 E16.73182
G1 X70.241 Y69.033 E16.81751
G1 X67.638 Y68.708 E16.90476
G1 X65.063 Y68.459 E16.9908
G1 X62.484 Y68.283 E17.07678
G1 X59.846 Y68.178 E17.16459
G1 X57.303 Y68.149 E17.24917
G1 X54.689 Y68.193 E17.33613
G1 X52.091 Y68.31 E17.42263
G1 X49.508 Y68.5 E17.50877
G1 X46.906 Y68.766 E17.59576
G1 X44.334 Y69.101 E17.68203
G1 X41.788 Y69.508 E17.76779
G1 X39.232 Y69.983 E17.85425
G1 X38.566 Y70.093 E17.8767
G1 X38.147 Y70.152 E17.89078
G1 X38.067 Y70.161 E17.89346
G1 X37.293 Y70.211 E17.91925
G1 X36.891 Y70.218 E17.93263
G1 X36.115 Y70.195 E17.95845
G1 X35.113 Y70.058 E17.99208
G1 X34.888 Y70.013 E17.99972
G1 X33.947 Y69.766 E18.03207
G1 X33.733 Y69.696 E18.03956
G1 X32.976 Y69.406 E18.06652
G1 X32.253 Y69.044 E18.09342
G1 X31.568 Y68.611 E18.12037
G1 X30.722 Y67.929 E18.15651
G1 X30.567 Y67.786 E18.16353
G1 X29.999 Y67.208 E18.19048
G1 X29.492 Y66.577 E18.2174
G1 X29.049 Y65.899 E18.24434
G1 X28.675 Y65.181 E18.27127
G1 X28.374 Y64.43 E18.29818
G1 X28.117 Y63.514 E18.32982
G1 X28.071 Y63.304 E18.33697
G1 X27.937 Y62.505 E18.36392
G1 X27.882 Y61.697 E18.39085
G1 X27.921 Y60.741 E18.42267
G1 X27.988 Y60.08 E18.44477
G1 X28.269 Y57.754 E18.5227
G1 X28.504 Y55.212 E18.60761
G1 X28.67 Y52.585 E18.69515
G1 X28.762 Y50.003 E18.78109
G1 X28.781 Y47.389 E18.86803
G1 X28.727 Y44.816 E18.95363
G1 X28.597 Y42.208 E19.04048
G1 X28.398 Y39.654 E19.12568
G1 X28.074 Y36.654 E19.22604
G1 X27.92 Y35.403 E19.26797
G1 X27.861 Y34.595 E19.29491
G1 X27.882 Y33.786 E19.32183
G1 X27.983 Y32.982 E19.34878
G1 X28.192 Y32.092 E19.37919
G1 X28.264 Y31.847 E19.38768
G1 X28.53 Y31.082 E19.41462
G1 X28.871 Y30.348 E19.44154
G1 X29.282 Y29.65 E19.46848
G1 X29.76 Y28.997 E19.49539
G1 X30.3 Y28.394 E19.52232
G1 F1500 E18.52232
G1 F300 Z0.4
;MESH:SmartTemperatureTower_ABS_200-250.stl
G0 F9000 X46.208 Y48.398 Z0.4
;TYPE:WALL-OUTER
G1 F300 Z0.2
G1 F1500 E19.52232
G1 F1800 X46.123 Y48.627 E19.53044
G1 X45.984 Y48.62 E19.53507
G1 X45.918 Y48.398 E19.54277
G1 X46.208 Y48.398 E19.55242
G1 F1500 E18.55242
G1 F300 Z0.4
G0 F9000 X49.64 Y48.398 Z0.4
G1 F300 Z0.2
G1 F1500 E19.55242
G1 F1800 X49.556 Y48.627 E19.56053
G1 X49.415 Y48.619 E19.56523
G1 X49.35 Y48.398 E19.57289
G1 X49.64 Y48.398 E19.58253
G1 F1500 E18.58253
G1 F300 Z0.4
G0 F9000 X55.037 Y48.496 Z0.4
G1 F300 Z0.2
G1 F1500 E19.58253
G1 F1800 X54.959 Y48.227 E19.59185
G1 X54.956 Y48.169 E19.59378
G1 X54.955 Y47.581 E19.61334
G1 X55.016 Y47.244 E19.62473
G1 X55.126 Y47.199 E19.62868
G1 X55.238 Y47.248 E19.63275
G1 X55.295 Y47.504 E19.64147
G1 X55.298 Y47.567 E19.64357
G1 X55.299 Y48.124 E19.6621
G1 X55.264 Y48.391 E19.67105
G1 X55.201 Y48.508 E19.67547
G1 X55.037 Y48.496 E19.68094
G1 F1500 E18.68094
G1 F300 Z0.4
G0 F9000 X62.299 Y47.44 Z0.4
G1 F300 Z0.2
G1 F1500 E19.68094
G1 F1800 X62.321 Y47.178 E19.68969
G1 X62.453 Y47.145 E19.69421
G1 X62.49 Y47.183 E19.69598
G1 X62.47 Y47.413 E19.70365
G1 X62.299 Y47.44 E19.70941
G1 F1500 E18.70941
G1 F300 Z0.4
G0 F9000 X65.803 Y47.44 Z0.4
G1 F300 Z0.2
G1 F1500 E19.70941
G1 F1800 X65.825 Y47.178 E19.71816
G1 X65.957 Y47.145 E19.72268
G1 X65.994 Y47.183 E19.72445
G1 X65.974 Y47.413 E19.73212
G1 X65.803 Y47.44 E19.73788
