;FLAVOR:Marlin
;TIME:2112
;Filament used: 0.819424m
;Layer height: 0.2
;MINX:82.95
;MINY:97.95
;MINZ:0.2
;MAXX:137.05
;MAXY:122.05
;MAXZ:51.2
;Generated with Cura_SteamEngine 4.11.0
M140 S70
M105
M190 S70
M104 S190
M105
M109 S190
M82 ;absolute extrusion mode
M201 X500.00 Y500.00 Z100.00 E5000.00 ;Setup machine max acceleration
M203 X500.00 Y500.00 Z10.00 E50.00 ;Setup machine max feedrate
M204 P500.00 R1000.00 T500.00 ;Setup Print/Retract/Travel acceleration
M205 X8.00 Y8.00 Z0.40 E5.00 ;Setup Jerk
M220 S100 ;Reset Feedrate
M221 S100 ;Reset Flowrate

G28 ;Home

G92 E0 ;Reset Extruder
G1 Z2.0 F3000 ;Move Z Axis up
G1 X10.1 Y20 Z0.28 F5000.0 ;Move to start position
G1 X10.1 Y200.0 Z0.28 F1500.0 E15 ;Draw the first line
G1 X10.4 Y200.0 Z0.28 F5000.0 ;Move to side a little
G1 X10.4 Y20 Z0.28 F1500.0 E30 ;Draw the second line
G92 E0 ;Reset Extruder
G1 Z2.0 F3000 ;Move Z Axis up

G92 E0
G92 E0
G1 F2400 E-6.5
;LAYER_COUNT:255
;LAYER:0
M107
G1 F300 Z0.4
G0 F6000 X86.282 Y100.408 Z0.4
;TYPE:SKIRT
G1 F300 Z0.2
G1 F2400 E0
G1 F1200 X86.483 Y100.236 E0.0088
G1 X86.952 Y99.87 E0.02859
G1 X87.162 Y99.72 E0.03717
G1 X87.726 Y99.357 E0.05948
G1 X88.041 Y99.176 E0.07156
G1 X88.525 Y98.923 E0.08973
G1 X88.669 Y98.855 E0.09502
G1 X89.317 Y98.589 E0.11832
G1 X89.661 Y98.468 E0.13045
G1 X90.219 Y98.298 E0.14985
G1 X90.409 Y98.249 E0.15638
G1 X91.046 Y98.117 E0.17801
G1 X91.388 Y98.063 E0.18953
G1 X92.002 Y97.995 E0.21008
G1 X92.321 Y97.974 E0.22071
G1 X92.768 Y97.956 E0.23559
G1 X93.168 Y97.95 E0.24889
G1 X126.543 Y97.95 E1.35895
G1 X127.429 Y97.962 E1.38842
G1 X127.762 Y97.974 E1.3995
G1 X127.873 Y97.981 E1.4032
G1 X128.273 Y98.019 E1.41657
G1 X128.534 Y98.051 E1.42531
G1 X129.155 Y98.156 E1.44626
G1 X129.508 Y98.233 E1.45828
G1 X130.068 Y98.381 E1.47754
G1 X130.262 Y98.441 E1.4843
G1 X130.898 Y98.673 E1.50681
G1 X131.213 Y98.806 E1.51819
G1 X131.776 Y99.074 E1.53892
G1 X131.933 Y99.158 E1.54485
G1 X132.462 Y99.473 E1.56532
G1 X132.766 Y99.673 E1.57743
G1 X133.27 Y100.039 E1.59814
G1 X133.463 Y100.193 E1.60636
G1 X133.932 Y100.603 E1.62708
G1 X134.133 Y100.796 E1.63634
G1 X134.586 Y101.276 E1.6583
G1 X134.76 Y101.479 E1.66719
G1 X135.123 Y101.941 E1.68673
G1 X135.27 Y102.146 E1.69512
G1 X135.639 Y102.719 E1.71779
G1 X135.823 Y103.039 E1.73007
G1 X136.077 Y103.525 E1.74831
G1 X136.145 Y103.669 E1.7536
G1 X136.411 Y104.317 E1.7769
G1 X136.532 Y104.661 E1.78903
G1 X136.702 Y105.219 E1.80843
G1 X136.751 Y105.409 E1.81496
G1 X136.882 Y106.04 E1.83639
G1 X136.936 Y106.38 E1.84784
G1 X137.005 Y107.003 E1.86869
G1 X137.026 Y107.324 E1.87939
G1 X137.044 Y107.766 E1.8941
G1 X137.05 Y108.168 E1.90747
G1 X137.049 Y111.638 E2.02289
G1 X137.038 Y112.423 E2.049
G1 X137.027 Y112.731 E2.05925
G1 X137.02 Y112.849 E2.06318
G1 X136.981 Y113.277 E2.07747
G1 X136.949 Y113.537 E2.08619
G1 X136.844 Y114.155 E2.10704
G1 X136.767 Y114.508 E2.11905
G1 X136.623 Y115.056 E2.1379
G1 X136.564 Y115.248 E2.14458
G1 X136.327 Y115.899 E2.16762
G1 X136.193 Y116.216 E2.17907
G1 X135.926 Y116.776 E2.1997
G1 X135.842 Y116.933 E2.20563
G1 X135.527 Y117.462 E2.2261
G1 X135.327 Y117.766 E2.23821
G1 X134.961 Y118.27 E2.25892
G1 X134.807 Y118.463 E2.26714
G1 X134.397 Y118.932 E2.28785
G1 X134.204 Y119.133 E2.29712
G1 X133.724 Y119.586 E2.31907
G1 X133.521 Y119.76 E2.32797
G1 X133.051 Y120.129 E2.34784
G1 X132.844 Y120.277 E2.35631
G1 X132.281 Y120.639 E2.37857
G1 X131.963 Y120.822 E2.39077
G1 X131.475 Y121.077 E2.40908
G1 X131.331 Y121.145 E2.41438
G1 X130.683 Y121.411 E2.43768
G1 X130.339 Y121.532 E2.44981
G1 X129.781 Y121.702 E2.46921
G1 X129.591 Y121.751 E2.47573
G1 X128.954 Y121.883 E2.49737
G1 X128.612 Y121.937 E2.50889
G1 X127.998 Y122.005 E2.52943
G1 X127.679 Y122.026 E2.54007
G1 X127.232 Y122.044 E2.55495
G1 X126.832 Y122.05 E2.56825
G1 X93.362 Y122.049 E3.68147
G1 X92.571 Y122.038 E3.70778
G1 X92.242 Y122.026 E3.71873
G1 X92.13 Y122.019 E3.72246
G1 X91.723 Y121.981 E3.73606
G1 X91.463 Y121.949 E3.74477
G1 X90.845 Y121.844 E3.76562
G1 X90.492 Y121.767 E3.77764
G1 X89.932 Y121.619 E3.7969
G1 X89.738 Y121.559 E3.80366
G1 X89.102 Y121.327 E3.82617
G1 X88.787 Y121.194 E3.83755
G1 X88.226 Y120.927 E3.85821
G1 X88.067 Y120.842 E3.86421
G1 X87.531 Y120.523 E3.88495
G1 X87.226 Y120.322 E3.8971
G1 X86.72 Y119.954 E3.91791
G1 X86.53 Y119.802 E3.926
G1 X86.067 Y119.396 E3.94649
G1 X85.864 Y119.201 E3.95585
G1 X85.41 Y118.72 E3.97785
G1 X85.237 Y118.518 E3.98669
G1 X84.867 Y118.045 E4.00667
G1 X84.72 Y117.839 E4.01508
G1 X84.361 Y117.281 E4.03715
G1 X84.178 Y116.963 E4.04935
G1 X83.924 Y116.477 E4.06759
G1 X83.855 Y116.331 E4.07296
G1 X83.587 Y115.676 E4.0965
G1 X83.467 Y115.334 E4.10856
G1 X83.298 Y114.781 E4.12779
G1 X83.249 Y114.591 E4.13432
G1 X83.117 Y113.954 E4.15595
G1 X83.063 Y113.612 E4.16747
G1 X82.995 Y112.998 E4.18802
G1 X82.974 Y112.679 E4.19865
G1 X82.955 Y112.198 E4.21466
G1 X82.95 Y111.837 E4.22667
G1 X82.951 Y108.328 E4.34338
G1 X82.962 Y107.563 E4.36882
G1 X82.976 Y107.217 E4.38034
G1 X82.983 Y107.11 E4.38391
G1 X83.019 Y106.723 E4.39683
G1 X83.051 Y106.463 E4.40555
G1 X83.156 Y105.845 E4.4264
G1 X83.233 Y105.492 E4.43841
G1 X83.377 Y104.944 E4.45726
G1 X83.436 Y104.752 E4.46394
G1 X83.673 Y104.101 E4.48698
G1 X83.807 Y103.784 E4.49843
G1 X84.074 Y103.224 E4.51906
G1 X84.158 Y103.067 E4.52499
G1 X84.473 Y102.538 E4.54546
G1 X84.673 Y102.234 E4.55757
G1 X85.039 Y101.73 E4.57828
G1 X85.193 Y101.537 E4.5865
G1 X85.604 Y101.067 E4.60726
G1 X85.799 Y100.864 E4.61662
G1 X86.282 Y100.408 E4.63872
G0 F6000 X86.542 Y100.712
G1 F1200 X86.743 Y100.54 E4.64752
G1 X87.184 Y100.195 E4.66614
G1 X87.394 Y100.045 E4.67472
G1 X87.925 Y99.704 E4.69571
G1 X88.24 Y99.523 E4.70779
G1 X88.696 Y99.285 E4.7249
G1 X88.84 Y99.217 E4.7302
G1 X89.449 Y98.967 E4.7521
G1 X89.793 Y98.846 E4.76422
G1 X90.319 Y98.686 E4.78251
G1 X90.509 Y98.637 E4.78904
G1 X91.109 Y98.512 E4.80942
G1 X91.451 Y98.458 E4.82094
G1 X92.029 Y98.394 E4.84028
G1 X92.348 Y98.373 E4.85091
G1 X92.781 Y98.355 E4.86533
G1 X93.171 Y98.35 E4.8783
G1 X126.543 Y98.35 E5.98826
G1 X127.423 Y98.362 E6.01753
G1 X127.737 Y98.374 E6.02798
G1 X127.848 Y98.381 E6.03168
G1 X128.224 Y98.416 E6.04424
G1 X128.485 Y98.448 E6.05298
G1 X129.07 Y98.547 E6.07272
G1 X129.423 Y98.624 E6.08473
G1 X129.95 Y98.763 E6.10286
G1 X130.144 Y98.823 E6.10962
G1 X130.742 Y99.041 E6.13079
G1 X131.057 Y99.174 E6.14216
G1 X131.587 Y99.427 E6.16169
G1 X131.744 Y99.511 E6.16761
G1 X132.243 Y99.807 E6.18691
G1 X132.547 Y100.007 E6.19901
G1 X133.021 Y100.351 E6.21849
G1 X133.214 Y100.505 E6.22671
G1 X133.655 Y100.892 E6.24622
G1 X133.856 Y101.085 E6.25549
G1 X134.282 Y101.536 E6.27612
G1 X134.456 Y101.739 E6.28502
G1 X134.798 Y102.174 E6.30342
G1 X134.945 Y102.379 E6.31181
G1 X135.292 Y102.919 E6.33316
G1 X135.476 Y103.239 E6.34544
G1 X135.715 Y103.696 E6.36259
G1 X135.783 Y103.84 E6.36789
G1 X136.033 Y104.449 E6.38978
G1 X136.154 Y104.793 E6.40191
G1 X136.314 Y105.319 E6.4202
G1 X136.363 Y105.509 E6.42672
G1 X136.487 Y106.103 E6.4469
G1 X136.541 Y106.443 E6.45836
G1 X136.606 Y107.029 E6.47797
G1 X136.627 Y107.35 E6.48866
G1 X136.645 Y107.779 E6.50295
G1 X136.65 Y108.172 E6.51602
G1 X136.649 Y111.633 E6.63113
G1 X136.638 Y112.418 E6.65724
G1 X136.628 Y112.707 E6.66686
G1 X136.621 Y112.825 E6.67079
G1 X136.584 Y113.228 E6.68425
G1 X136.552 Y113.488 E6.69297
G1 X136.453 Y114.07 E6.7126
G1 X136.376 Y114.423 E6.72462
G1 X136.241 Y114.939 E6.74236
G1 X136.182 Y115.131 E6.74904
G1 X135.959 Y115.743 E6.7707
G1 X135.825 Y116.06 E6.78215
G1 X135.573 Y116.587 E6.80158
G1 X135.489 Y116.744 E6.8075
G1 X135.193 Y117.243 E6.8268
G1 X134.993 Y117.547 E6.8389
G1 X134.649 Y118.021 E6.85838
G1 X134.495 Y118.214 E6.86659
G1 X134.108 Y118.655 E6.88611
G1 X133.915 Y118.856 E6.89538
G1 X133.464 Y119.282 E6.91601
G1 X133.261 Y119.456 E6.9249
G1 X132.818 Y119.803 E6.94362
G1 X132.611 Y119.951 E6.95208
G1 X132.081 Y120.292 E6.97304
G1 X131.763 Y120.475 E6.98525
G1 X131.304 Y120.715 E7.00247
G1 X131.16 Y120.783 E7.00777
G1 X130.551 Y121.033 E7.02967
G1 X130.207 Y121.154 E7.04179
G1 X129.681 Y121.314 E7.06008
G1 X129.491 Y121.363 E7.06661
G1 X128.891 Y121.488 E7.08699
G1 X128.549 Y121.542 E7.09851
G1 X127.971 Y121.606 E7.11785
G1 X127.652 Y121.627 E7.12848
G1 X127.219 Y121.645 E7.1429
G1 X126.829 Y121.65 E7.15587
G1 X93.368 Y121.649 E8.26879
G1 X92.577 Y121.638 E8.2951
G1 X92.267 Y121.627 E8.30542
G1 X92.155 Y121.62 E8.30915
G1 X91.772 Y121.584 E8.32194
G1 X91.512 Y121.552 E8.33066
G1 X90.93 Y121.453 E8.35029
G1 X90.577 Y121.376 E8.36231
G1 X90.05 Y121.237 E8.38044
G1 X89.856 Y121.177 E8.38719
G1 X89.258 Y120.959 E8.40836
G1 X88.943 Y120.826 E8.41973
G1 X88.415 Y120.574 E8.43919
G1 X88.256 Y120.489 E8.44519
G1 X87.751 Y120.189 E8.46472
G1 X87.446 Y119.988 E8.47687
G1 X86.97 Y119.642 E8.49645
G1 X86.78 Y119.49 E8.50454
G1 X86.344 Y119.108 E8.52382
G1 X86.141 Y118.913 E8.53318
G1 X85.714 Y118.46 E8.55389
G1 X85.541 Y118.258 E8.56273
G1 X85.192 Y117.813 E8.58154
G1 X85.045 Y117.607 E8.58996
G1 X84.708 Y117.081 E8.61074
G1 X84.525 Y116.763 E8.62294
G1 X84.286 Y116.306 E8.64009
G1 X84.217 Y116.16 E8.64546
G1 X83.964 Y115.544 E8.66761
G1 X83.844 Y115.202 E8.67967
G1 X83.686 Y114.681 E8.69777
G1 X83.637 Y114.491 E8.7043
G1 X83.512 Y113.891 E8.72469
G1 X83.458 Y113.549 E8.7362
G1 X83.394 Y112.971 E8.75554
G1 X83.373 Y112.652 E8.76618
G1 X83.355 Y112.186 E8.78169
G1 X83.35 Y111.833 E8.79343
G1 X83.351 Y108.334 E8.90981
G1 X83.362 Y107.569 E8.93525
G1 X83.375 Y107.243 E8.9461
G1 X83.382 Y107.136 E8.94967
G1 X83.416 Y106.772 E8.96183
G1 X83.448 Y106.512 E8.97054
G1 X83.547 Y105.93 E8.99018
G1 X83.624 Y105.577 E9.00219
G1 X83.759 Y105.061 E9.01993
G1 X83.818 Y104.869 E9.02662
G1 X84.041 Y104.257 E9.04828
G1 X84.175 Y103.94 E9.05973
G1 X84.427 Y103.413 E9.07916
G1 X84.511 Y103.256 E9.08508
G1 X84.807 Y102.757 E9.10437
G1 X85.007 Y102.453 E9.11648
G1 X85.351 Y101.979 E9.13596
G1 X85.505 Y101.786 E9.14417
G1 X85.892 Y101.344 E9.16371
G1 X86.087 Y101.141 E9.17307
G1 X86.542 Y100.712 E9.19387
G0 F6000 X86.802 Y101.016
G1 F1200 X87.003 Y100.844 E9.20267
G1 X87.417 Y100.521 E9.22013
G1 X87.627 Y100.371 E9.22872
G1 X88.125 Y100.051 E9.24841
G1 X88.44 Y99.87 E9.26049
G1 X88.867 Y99.647 E9.27651
G1 X89.011 Y99.579 E9.28181
G1 X89.582 Y99.344 E9.30235
G1 X89.926 Y99.223 E9.31447
G1 X90.419 Y99.073 E9.33161
G1 X90.609 Y99.024 E9.33814
G1 X91.171 Y98.907 E9.35723
G1 X91.513 Y98.853 E9.36875
G1 X92.055 Y98.793 E9.38689
G1 X92.374 Y98.772 E9.39752
G1 X92.793 Y98.755 E9.41147
G1 X93.175 Y98.75 E9.42417
G1 X126.543 Y98.75 E10.534
G1 X127.417 Y98.762 E10.56307
G1 X127.712 Y98.773 E10.57289
G1 X127.823 Y98.78 E10.57659
G1 X128.175 Y98.813 E10.58835
G1 X128.436 Y98.845 E10.59709
G1 X128.985 Y98.938 E10.61561
G1 X129.338 Y99.015 E10.62763
G1 X129.832 Y99.145 E10.64462
G1 X130.026 Y99.205 E10.65137
G1 X130.587 Y99.41 E10.67124
G1 X130.902 Y99.543 E10.68261
G1 X131.399 Y99.78 E10.70092
G1 X131.556 Y99.864 E10.70685
G1 X132.023 Y100.141 E10.72491
G1 X132.327 Y100.341 E10.73701
G1 X132.771 Y100.664 E10.75527
G1 X132.964 Y100.818 E10.76348
G1 X133.378 Y101.18 E10.78177
G1 X133.579 Y101.373 E10.79104
G1 X133.979 Y101.796 E10.81041
G1 X134.153 Y101.999 E10.8193
G1 X134.473 Y102.408 E10.83657
G1 X134.62 Y102.613 E10.84496
G1 X134.945 Y103.118 E10.86493
G1 X135.129 Y103.438 E10.87721
G1 X135.353 Y103.867 E10.89331
G1 X135.421 Y104.011 E10.89861
G1 X135.656 Y104.582 E10.91914
G1 X135.777 Y104.926 E10.93127
G1 X135.927 Y105.419 E10.94841
G1 X135.976 Y105.609 E10.95494
G1 X136.092 Y106.166 E10.97386
G1 X136.146 Y106.506 E10.98531
G1 X136.207 Y107.055 E11.00368
G1 X136.228 Y107.376 E11.01438
G1 X136.245 Y107.792 E11.02823
G1 X136.25 Y108.175 E11.04097
G1 X136.249 Y111.627 E11.15578
G1 X136.238 Y112.412 E11.18189
G1 X136.228 Y112.683 E11.19091
G1 X136.221 Y112.801 E11.19485
G1 X136.187 Y113.179 E11.20747
G1 X136.155 Y113.439 E11.21618
G1 X136.062 Y113.985 E11.2346
G1 X135.985 Y114.338 E11.24662
G1 X135.858 Y114.821 E11.26323
G1 X135.799 Y115.013 E11.26991
G1 X135.591 Y115.587 E11.29022
G1 X135.457 Y115.904 E11.30166
G1 X135.22 Y116.399 E11.31992
G1 X135.136 Y116.556 E11.32584
G1 X134.859 Y117.023 E11.3439
G1 X134.659 Y117.327 E11.356
G1 X134.336 Y117.771 E11.37426
G1 X134.182 Y117.964 E11.38248
G1 X133.82 Y118.378 E11.40077
G1 X133.627 Y118.579 E11.41004
G1 X133.204 Y118.979 E11.4294
G1 X133.001 Y119.153 E11.43829
G1 X132.586 Y119.478 E11.45582
G1 X132.379 Y119.626 E11.46429
G1 X131.882 Y119.945 E11.48393
G1 X131.564 Y120.128 E11.49613
G1 X131.133 Y120.353 E11.5123
G1 X130.989 Y120.421 E11.5176
G1 X130.418 Y120.656 E11.53814
G1 X130.074 Y120.777 E11.55027
G1 X129.581 Y120.927 E11.56741
G1 X129.391 Y120.976 E11.57393
G1 X128.829 Y121.093 E11.59302
G1 X128.487 Y121.147 E11.60454
G1 X127.945 Y121.207 E11.62268
G1 X127.626 Y121.228 E11.63331
G1 X127.207 Y121.245 E11.64726
G1 X126.825 Y121.25 E11.65996
G1 X93.374 Y121.249 E12.77255
G1 X92.583 Y121.238 E12.79886
G1 X92.292 Y121.227 E12.80855
G1 X92.18 Y121.22 E12.81228
G1 X91.821 Y121.187 E12.82427
G1 X91.561 Y121.155 E12.83298
G1 X91.015 Y121.062 E12.8514
G1 X90.662 Y120.985 E12.86342
G1 X90.168 Y120.855 E12.88041
G1 X89.974 Y120.795 E12.88716
G1 X89.413 Y120.59 E12.90703
G1 X89.098 Y120.457 E12.9184
G1 X88.603 Y120.221 E12.93664
G1 X88.444 Y120.136 E12.94264
G1 X87.971 Y119.855 E12.96094
G1 X87.666 Y119.654 E12.97309
G1 X87.22 Y119.329 E12.99144
G1 X87.03 Y119.177 E12.99953
G1 X86.621 Y118.819 E13.01761
G1 X86.418 Y118.624 E13.02698
G1 X86.018 Y118.2 E13.04636
G1 X85.845 Y117.998 E13.05521
G1 X85.518 Y117.58 E13.07286
G1 X85.371 Y117.374 E13.08128
G1 X85.055 Y116.882 E13.10073
G1 X84.872 Y116.564 E13.11293
G1 X84.647 Y116.135 E13.12904
G1 X84.578 Y115.989 E13.13441
G1 X84.341 Y115.412 E13.15516
G1 X84.221 Y115.07 E13.16721
G1 X84.073 Y114.581 E13.18421
G1 X84.024 Y114.391 E13.19073
G1 X83.907 Y113.829 E13.20983
G1 X83.853 Y113.487 E13.22134
G1 X83.793 Y112.945 E13.23948
G1 X83.772 Y112.626 E13.25011
G1 X83.755 Y112.174 E13.26516
G1 X83.75 Y111.829 E13.27663
G1 X83.751 Y108.34 E13.39268
G1 X83.762 Y107.575 E13.41812
G1 X83.774 Y107.269 E13.42831
G1 X83.781 Y107.162 E13.43187
G1 X83.813 Y106.821 E13.44327
G1 X83.845 Y106.561 E13.45198
G1 X83.938 Y106.015 E13.4704
G1 X84.015 Y105.662 E13.48242
G1 X84.142 Y105.179 E13.49903
G1 X84.201 Y104.987 E13.50571
G1 X84.409 Y104.413 E13.52601
G1 X84.543 Y104.096 E13.53746
G1 X84.78 Y103.601 E13.55572
G1 X84.864 Y103.444 E13.56164
G1 X85.141 Y102.977 E13.5797
G1 X85.341 Y102.673 E13.5918
G1 X85.664 Y102.229 E13.61006
G1 X85.818 Y102.036 E13.61827
G1 X86.181 Y101.621 E13.63661
G1 X86.376 Y101.418 E13.64597
G1 X86.802 Y101.016 E13.66546
G0 F6000 X87.062 Y101.32
G1 F1200 X87.263 Y101.148 E13.67425
G1 X87.649 Y100.846 E13.69056
G1 X87.859 Y100.696 E13.69914
G1 X88.324 Y100.397 E13.71753
G1 X88.639 Y100.216 E13.72961
G1 X89.038 Y100.008 E13.74458
G1 X89.182 Y99.94 E13.74987
G1 X89.715 Y99.721 E13.76904
G1 X90.059 Y99.6 E13.78117
G1 X90.519 Y99.46 E13.79716
G1 X90.709 Y99.411 E13.80369
G1 X91.234 Y99.303 E13.82151
G1 X91.576 Y99.249 E13.83303
G1 X92.081 Y99.192 E13.84993
G1 X92.4 Y99.171 E13.86056
G1 X92.806 Y99.155 E13.87408
G1 X93.178 Y99.15 E13.88645
G1 X126.543 Y99.15 E14.99618
G1 X127.412 Y99.162 E15.02508
G1 X127.686 Y99.172 E15.0342
G1 X127.797 Y99.179 E15.0379
G1 X128.126 Y99.21 E15.04889
G1 X128.387 Y99.242 E15.05764
G1 X128.899 Y99.329 E15.07491
G1 X129.252 Y99.406 E15.08693
G1 X129.714 Y99.527 E15.10281
G1 X129.908 Y99.587 E15.10957
G1 X130.431 Y99.778 E15.12809
G1 X130.746 Y99.911 E15.13946
G1 X131.21 Y100.132 E15.15655
G1 X131.367 Y100.216 E15.16247
G1 X131.803 Y100.476 E15.17936
G1 X132.107 Y100.676 E15.19146
G1 X132.522 Y100.977 E15.20851
G1 X132.715 Y101.131 E15.21672
G1 X133.101 Y101.469 E15.23379
G1 X133.302 Y101.662 E15.24306
G1 X133.675 Y102.057 E15.26113
G1 X133.849 Y102.26 E15.27002
G1 X134.148 Y102.641 E15.28613
G1 X134.295 Y102.846 E15.29452
G1 X134.599 Y103.318 E15.31319
G1 X134.783 Y103.638 E15.32547
G1 X134.992 Y104.038 E15.34048
G1 X135.06 Y104.182 E15.34578
G1 X135.279 Y104.715 E15.36494
G1 X135.4 Y105.059 E15.37707
G1 X135.54 Y105.519 E15.39306
G1 X135.589 Y105.709 E15.39959
G1 X135.697 Y106.229 E15.41725
