;FLAVOR:Marlin
;TIME:798
;Filament used: 0.375438m
;Layer height: 0.2
;MINX:13.2
;MINY:13.2
;MINZ:0.2
;MAXX:206.8
;MAXY:206.8
;MAXZ:0.4
;Generated with Cura_SteamEngine 4.8.0
M140 S70
M105
M190 S70
M104 S190
M105
M109 S190
M82 ;absolute extrusion mode
M201 X500.00 Y500.00 Z100.00 E5000.00 ;Setup machine max acceleration
M203 X500.00 Y500.00 Z10.00 E50.00 ;Setup machine max feedrate
M204 P500.00 R1000.00 T500.00 ;Setup Print/Retract/Travel acceleration
M205 X8.00 Y8.00 Z0.40 E5.00 ;Setup Jerk
M220 S100 ;Reset Feedrate
M221 S100 ;Reset Flowrate

G28 ;Home

G92 E0 ;Reset Extruder
G1 Z2.0 F3000 ;Move Z Axis up
G1 X10.1 Y20 Z0.28 F5000.0 ;Move to start position
G1 X10.1 Y200.0 Z0.28 F1500.0 E15 ;Draw the first line
G1 X10.4 Y200.0 Z0.28 F5000.0 ;Move to side a little
G1 X10.4 Y20 Z0.28 F1500.0 E30 ;Draw the second line
G92 E0 ;Reset Extruder
G1 Z2.0 F3000 ;Move Z Axis up

G92 E0
G92 E0
G1 F2400 E-6.5
;LAYER_COUNT:1
;LAYER:0
M107
G1 F300 Z0.4
G0 F6000 X15.141 Y15.261 Z0.4
;TYPE:SKIRT
G1 F300 Z0.2
G1 F2400 E0
G1 F1200 X15.684 Y14.762 E0.02453
G1 X16.277 Y14.325 E0.04903
G1 X16.914 Y13.954 E0.07355
G1 X17.588 Y13.655 E0.09807
G1 X18.29 Y13.43 E0.12259
G1 X19.013 Y13.282 E0.14714
G1 X19.818 Y13.212 E0.17401
G1 X20.139 Y13.203 E0.18469
G1 X20.33 Y13.2 E0.19104
G1 X44.293 Y13.2 E0.98806
G1 X45.093 Y13.211 E1.01467
G1 X45.828 Y13.261 E1.03917
G1 X46.554 Y13.391 E1.0637
G1 X47.262 Y13.598 E1.08824
G1 X47.942 Y13.881 E1.11273
G1 X48.589 Y14.236 E1.13728
G1 X49.338 Y14.777 E1.16801
G1 X50.336 Y15.605 E1.21114
G1 X52.343 Y17.232 E1.29707
G1 X54.43 Y18.829 E1.38448
G1 X56.566 Y20.37 E1.47208
G1 X58.751 Y21.853 E1.55991
G1 X60.987 Y23.281 E1.64815
G1 X63.233 Y24.626 E1.73523
G1 X65.515 Y25.908 E1.82228
G1 X67.873 Y27.145 E1.91085
G1 X70.246 Y28.307 E1.99873
G1 X72.642 Y29.395 E2.08625
G1 X75.054 Y30.411 E2.1733
G1 X77.543 Y31.378 E2.26211
G1 X80.004 Y32.252 E2.34897
G1 X82.506 Y33.063 E2.43645
G1 X85.031 Y33.804 E2.52398
G1 X87.612 Y34.482 E2.61273
G1 X90.154 Y35.075 E2.69955
G1 X92.738 Y35.601 E2.78726
G1 X95.338 Y36.051 E2.87502
G1 X97.948 Y36.429 E2.96273
G1 X100.577 Y36.734 E3.05076
G1 X103.196 Y36.964 E3.13821
G1 X105.809 Y37.119 E3.22527
G1 X108.464 Y37.2 E3.31361
G1 X111.084 Y37.207 E3.40076
G1 X113.738 Y37.138 E3.48906
G1 X116.362 Y36.996 E3.57646
G1 X118.991 Y36.78 E3.6642
G1 X121.59 Y36.49 E3.75118
G1 X124.231 Y36.122 E3.83986
G1 X126.801 Y35.688 E3.92655
G1 X129.422 Y35.169 E4.01542
G1 X131.975 Y34.588 E4.1025
G1 X134.524 Y33.93 E4.19006
G1 X137.07 Y33.198 E4.27817
G1 X139.552 Y32.406 E4.36483
G1 X142.057 Y31.529 E4.4531
G1 X144.501 Y30.595 E4.54012
G1 X146.964 Y29.573 E4.62882
G1 X149.34 Y28.506 E4.71544
G1 X151.732 Y27.351 E4.80379
G1 X154.083 Y26.132 E4.89187
G1 X156.379 Y24.859 E4.97919
G1 X158.632 Y23.523 E5.06631
G1 X160.889 Y22.099 E5.15507
G1 X163.061 Y20.64 E5.2421
G1 X165.209 Y19.106 E5.32989
G1 X167.294 Y17.528 E5.41686
G1 X169.385 Y15.849 E5.50605
G1 X170.631 Y14.803 E5.56016
G1 X171.22 Y14.36 E5.58467
G1 X171.854 Y13.984 E5.60919
G1 X172.525 Y13.678 E5.63372
G1 X173.225 Y13.447 E5.65823
G1 X173.946 Y13.293 E5.68275
G1 X174.796 Y13.213 E5.71115
G1 X175.121 Y13.203 E5.72197
G1 X175.33 Y13.2 E5.72892
G1 X199.381 Y13.201 E6.52886
G1 X200.079 Y13.21 E6.55207
G1 X200.814 Y13.259 E6.57657
G1 X201.54 Y13.388 E6.6011
G1 X202.248 Y13.594 E6.62562
G1 X202.929 Y13.877 E6.65015
G1 X203.576 Y14.231 E6.67468
G1 X204.18 Y14.653 E6.69919
G1 X204.736 Y15.138 E6.72373
G1 X205.235 Y15.68 E6.74823
G1 X205.673 Y16.273 E6.77275
G1 X206.044 Y16.91 E6.79727
G1 X206.344 Y17.584 E6.82181
G1 X206.569 Y18.286 E6.84633
G1 X206.717 Y19.008 E6.87084
G1 X206.788 Y19.818 E6.89788
G1 X206.797 Y20.139 E6.90856
G1 X206.8 Y20.33 E6.91492
G1 X206.799 Y44.368 E7.71443
G1 X206.789 Y45.091 E7.73847
G1 X206.739 Y45.827 E7.76301
G1 X206.61 Y46.552 E7.7875
G1 X206.402 Y47.26 E7.81205
G1 X206.12 Y47.941 E7.83656
G1 X205.765 Y48.587 E7.86108
G1 X205.223 Y49.339 E7.89191
G1 X204.413 Y50.313 E7.93404
G1 X202.782 Y52.325 E8.02019
G1 X201.171 Y54.43 E8.10835
G1 X199.63 Y56.566 E8.19595
G1 X198.147 Y58.751 E8.28379
G1 X196.728 Y60.973 E8.37147
G1 X195.372 Y63.236 E8.45922
G1 X194.086 Y65.527 E8.5466
G1 X192.855 Y67.873 E8.63472
G1 X191.699 Y70.233 E8.72213
G1 X190.605 Y72.643 E8.81015
G1 X189.576 Y75.083 E8.89823
G1 X188.628 Y77.531 E8.98554
G1 X187.749 Y80 E9.07271
G1 X186.937 Y82.506 E9.16033
G1 X186.198 Y85.022 E9.24755
G1 X185.519 Y87.606 E9.33641
G1 X184.918 Y90.179 E9.42429
G1 X184.401 Y92.735 E9.51102
G1 X183.95 Y95.33 E9.59863
G1 X183.57 Y97.952 E9.68675
G1 X183.266 Y100.574 E9.77454
G1 X183.036 Y103.196 E9.86208
G1 X182.881 Y105.81 E9.94918
G1 X182.8 Y108.464 E10.03749
G1 X182.793 Y111.085 E10.12466
G1 X182.862 Y113.738 E10.21293
G1 X183.004 Y116.361 E10.3003
G1 X183.22 Y118.99 E10.38804
G1 X183.51 Y121.589 E10.47502
G1 X183.878 Y124.225 E10.56354
G1 X184.315 Y126.812 E10.6508
G1 X184.828 Y129.408 E10.73882
G1 X185.41 Y131.961 E10.82591
G1 X186.067 Y134.514 E10.91359
G1 X186.795 Y137.047 E11.00125
G1 X187.605 Y139.585 E11.08986
G1 X188.475 Y142.069 E11.1774
G1 X189.402 Y144.494 E11.26374
G1 X190.435 Y146.981 E11.35331
G1 X191.502 Y149.36 E11.44003
G1 X192.641 Y151.717 E11.5271
G1 X193.868 Y154.083 E11.61575
G1 X195.136 Y156.369 E11.70269
G1 X196.49 Y158.653 E11.791
G1 X197.895 Y160.879 E11.87856
G1 X199.36 Y163.061 E11.96597
G1 X200.89 Y165.204 E12.05355
G1 X202.48 Y167.305 E12.14118
G1 X204.151 Y169.386 E12.22995
G1 X205.195 Y170.628 E12.28391
G1 X205.638 Y171.217 E12.30843
G1 X206.015 Y171.851 E12.33296
G1 X206.321 Y172.521 E12.35746
G1 X206.552 Y173.221 E12.38198
G1 X206.707 Y173.942 E12.4065
G1 X206.787 Y174.796 E12.43503
G1 X206.797 Y175.122 E12.44588
G1 X206.8 Y175.33 E12.4528
G1 X206.799 Y199.348 E13.25164
G1 X206.79 Y200.075 E13.27582
G1 X206.741 Y200.811 E13.30036
G1 X206.613 Y201.537 E13.32488
G1 X206.407 Y202.245 E13.3494
G1 X206.125 Y202.926 E13.37392
G1 X205.771 Y203.573 E13.39845
G1 X205.349 Y204.178 E13.42298
G1 X204.865 Y204.733 E13.44747
G1 X204.323 Y205.233 E13.472
G1 X203.73 Y205.671 E13.49652
G1 X203.093 Y206.042 E13.52104
G1 X202.419 Y206.343 E13.54559
G1 X201.717 Y206.568 E13.57011
G1 X200.995 Y206.716 E13.59462
G1 X200.182 Y206.788 E13.62177
G1 X199.861 Y206.797 E13.63245
G1 X199.67 Y206.8 E13.6388
G1 X175.61 Y206.799 E14.43904
G1 X174.907 Y206.789 E14.46242
G1 X174.172 Y206.739 E14.48693
G1 X173.446 Y206.609 E14.51146
G1 X172.738 Y206.402 E14.53599
G1 X172.058 Y206.119 E14.56049
G1 X171.411 Y205.764 E14.58503
G1 X170.662 Y205.223 E14.61576
G1 X169.599 Y204.341 E14.66171
G1 X167.676 Y202.782 E14.74404
G1 X165.57 Y201.171 E14.83223
G1 X163.434 Y199.63 E14.91984
G1 X161.249 Y198.147 E15.00767
G1 X159.013 Y196.719 E15.09591
G1 X156.767 Y195.374 E15.18298
G1 X154.485 Y194.092 E15.27004
G1 X152.127 Y192.855 E15.3586
G1 X149.754 Y191.693 E15.44648
G1 X147.358 Y190.605 E15.53401
G1 X144.946 Y189.589 E15.62106
G1 X142.457 Y188.622 E15.70987
G1 X139.996 Y187.748 E15.79673
G1 X137.494 Y186.937 E15.88421
G1 X134.969 Y186.196 E15.97173
G1 X132.388 Y185.518 E16.06049
G1 X129.846 Y184.925 E16.14731
G1 X127.262 Y184.399 E16.23501
G1 X124.662 Y183.949 E16.32278
G1 X122.052 Y183.571 E16.41049
G1 X119.423 Y183.266 E16.49852
G1 X116.804 Y183.036 E16.58596
G1 X114.191 Y182.881 E16.67302
G1 X111.536 Y182.8 E16.76137
G1 X108.916 Y182.793 E16.84851
G1 X106.262 Y182.862 E16.93681
G1 X103.638 Y183.004 E17.02422
G1 X101.009 Y183.22 E17.11195
G1 X98.41 Y183.51 E17.19893
G1 X95.769 Y183.878 E17.28762
G1 X93.199 Y184.312 E17.37431
G1 X90.578 Y184.831 E17.46318
G1 X88.025 Y185.412 E17.55026
G1 X85.476 Y186.07 E17.63782
G1 X82.93 Y186.802 E17.72593
G1 X80.448 Y187.594 E17.81258
G1 X77.943 Y188.471 E17.90086
G1 X75.499 Y189.405 E17.98788
G1 X73.036 Y190.427 E18.07657
G1 X70.66 Y191.494 E18.1632
G1 X68.268 Y192.649 E18.25155
G1 X65.917 Y193.868 E18.33963
G1 X63.621 Y195.141 E18.42695
G1 X61.368 Y196.477 E18.51407
G1 X59.111 Y197.901 E18.60283
G1 X56.939 Y199.36 E18.68985
G1 X54.791 Y200.894 E18.77764
G1 X52.706 Y202.472 E18.86461
G1 X50.615 Y204.151 E18.95381
G1 X49.369 Y205.197 E19.00791
G1 X48.78 Y205.64 E19.03243
G1 X48.146 Y206.016 E19.05694
G1 X47.475 Y206.322 E19.08147
G1 X46.775 Y206.553 E19.10599
G1 X46.054 Y206.707 E19.13051
G1 X45.204 Y206.787 E19.15891
G1 X44.879 Y206.797 E19.16972
G1 X44.67 Y206.8 E19.17667
G1 X20.619 Y206.799 E19.97661
G1 X19.921 Y206.79 E19.99983
G1 X19.186 Y206.741 E20.02433
G1 X18.46 Y206.612 E20.04886
G1 X17.752 Y206.406 E20.07338
G1 X17.071 Y206.123 E20.09791
G1 X16.424 Y205.769 E20.12244
G1 X15.82 Y205.347 E20.14695
G1 X15.264 Y204.862 E20.17148
G1 X14.765 Y204.32 E20.19599
G1 X14.327 Y203.727 E20.22051
G1 X13.956 Y203.09 E20.24503
G1 X13.656 Y202.416 E20.26956
G1 X13.431 Y201.714 E20.29408
G1 X13.283 Y200.992 E20.3186
G1 X13.211 Y200.175 E20.34587
G1 X13.202 Y199.842 E20.35695
G1 X13.2 Y199.658 E20.36307
G1 X13.201 Y175.61 E21.16291
G1 X13.211 Y174.907 E21.1863
G1 X13.261 Y174.172 E21.2108
G1 X13.391 Y173.446 E21.23533
G1 X13.598 Y172.738 E21.25987
G1 X13.881 Y172.058 E21.28436
G1 X14.236 Y171.411 E21.30891
G1 X14.777 Y170.662 E21.33964
G1 X15.577 Y169.7 E21.38125
G1 X17.218 Y167.675 E21.46794
G1 X18.83 Y165.569 E21.55615
G1 X20.375 Y163.426 E21.64402
G1 X21.849 Y161.256 E21.73127
G1 X23.281 Y159.013 E21.81978
G1 X24.626 Y156.767 E21.90686
G1 X25.908 Y154.485 E21.99391
G1 X27.145 Y152.127 E22.08248
G1 X28.307 Y149.754 E22.17036
G1 X29.395 Y147.358 E22.25788
G1 X30.411 Y144.946 E22.34493
G1 X31.378 Y142.457 E22.43374
G1 X32.252 Y139.996 E22.52061
G1 X33.063 Y137.494 E22.60809
G1 X33.804 Y134.969 E22.69561
G1 X34.482 Y132.388 E22.78437
G1 X35.075 Y129.846 E22.87118
G1 X35.601 Y127.262 E22.95889
G1 X36.051 Y124.662 E23.04665
G1 X36.429 Y122.052 E23.13437
G1 X36.734 Y119.423 E23.22239
G1 X36.964 Y116.804 E23.30984
G1 X37.119 Y114.191 E23.3969
G1 X37.2 Y111.536 E23.48525
G1 X37.207 Y108.915 E23.57242
G1 X37.138 Y106.262 E23.66069
G1 X36.996 Y103.638 E23.74809
G1 X36.78 Y101.009 E23.83583
G1 X36.49 Y98.41 E23.92281
G1 X36.122 Y95.774 E24.01133
G1 X35.685 Y93.187 E24.09859
G1 X35.171 Y90.584 E24.18684
G1 X34.588 Y88.026 E24.2741
G1 X33.93 Y85.476 E24.36169
G1 X33.207 Y82.961 E24.44873
G1 X32.395 Y80.415 E24.53761
G1 X31.53 Y77.943 E24.62472
G1 X30.595 Y75.499 E24.71175
G1 X29.58 Y73.052 E24.79987
G1 X28.492 Y70.628 E24.88824
G1 X27.359 Y68.283 E24.97486
G1 X26.132 Y65.917 E25.06351
G1 X24.859 Y63.621 E25.15082
G1 X23.523 Y61.368 E25.23794
G1 X22.099 Y59.111 E25.3267
G1 X20.64 Y56.939 E25.41373
G1 X19.106 Y54.791 E25.50152
G1 X17.528 Y52.706 E25.58849
G1 X15.849 Y50.615 E25.67768
G1 X14.803 Y49.369 E25.73179
G1 X14.36 Y48.78 E25.7563
G1 X13.984 Y48.146 E25.78082
G1 X13.678 Y47.475 E25.80535
G1 X13.447 Y46.775 E25.82987
G1 X13.293 Y46.054 E25.85439
G1 X13.213 Y45.204 E25.88278
G1 X13.203 Y44.879 E25.8936
G1 X13.2 Y44.67 E25.90055
G1 X13.201 Y20.582 E26.70172
G1 X13.21 Y19.917 E26.72384
G1 X13.26 Y19.181 E26.74838
G1 X13.389 Y18.456 E26.77287
G1 X13.596 Y17.748 E26.7974
G1 X13.878 Y17.067 E26.82192
G1 X14.233 Y16.42 E26.84646
G1 X14.655 Y15.816 E26.87097
G1 X15.141 Y15.261 E26.89551
G0 F6000 X15.533 Y15.435
G1 F1200 X16.071 Y14.964 E26.91929
G1 X16.659 Y14.556 E26.94309
G1 X17.288 Y14.216 E26.96687
G1 X17.952 Y13.949 E26.99068
G1 X18.641 Y13.757 E27.01447
G1 X19.347 Y13.643 E27.03825
G1 X19.83 Y13.612 E27.05435
G1 X20.33 Y13.6 E27.07099
G1 X44.293 Y13.6 E27.868
G1 X45.087 Y13.611 E27.89441
G1 X45.801 Y13.661 E27.91821
G1 X46.504 Y13.79 E27.94199
G1 X47.189 Y13.997 E27.96579
G1 X47.846 Y14.28 E27.98958
G1 X48.467 Y14.633 E28.01334
G1 X49.083 Y15.085 E28.03875
G1 X50.084 Y15.916 E28.08202
G1 X52.093 Y17.545 E28.16805
G1 X54.198 Y19.156 E28.25621
G1 X56.33 Y20.693 E28.34363
G1 X58.541 Y22.195 E28.43253
G1 X60.762 Y23.613 E28.52017
G1 X63.01 Y24.959 E28.60732
G1 X65.34 Y26.267 E28.69619
G1 X67.689 Y27.501 E28.78444
G1 X70.07 Y28.666 E28.87261
G1 X72.47 Y29.756 E28.96028
G1 X74.903 Y30.781 E29.04809
G1 X77.43 Y31.763 E29.13826
G1 X79.862 Y32.626 E29.22409
G1 X82.398 Y33.448 E29.31276
G1 X84.923 Y34.189 E29.40028
G1 X87.5 Y34.866 E29.4889
G1 X90.089 Y35.47 E29.57732
G1 X92.688 Y35.999 E29.66554
G1 X95.249 Y36.442 E29.75198
G1 X97.916 Y36.829 E29.84162
G1 X100.497 Y37.128 E29.92804
G1 X103.172 Y37.363 E30.01735
G1 X105.809 Y37.519 E30.10521
G1 X108.451 Y37.6 E30.19312
G1 X111.094 Y37.607 E30.28103
G1 X113.735 Y37.539 E30.3689
G1 X116.416 Y37.393 E30.4582
G1 X119.001 Y37.181 E30.54447
G1 X121.649 Y36.886 E30.63309
G1 X124.281 Y36.518 E30.72148
G1 X126.914 Y36.074 E30.81029
G1 X129.484 Y35.565 E30.89743
G1 X132.058 Y34.979 E30.98523
G1 X134.629 Y34.316 E31.07354
G1 X137.187 Y33.58 E31.16207
G1 X139.668 Y32.789 E31.24868
G1 X142.196 Y31.904 E31.33777
G1 X144.648 Y30.966 E31.42508
G1 X147.131 Y29.936 E31.51449
G1 X149.512 Y28.867 E31.6013
G1 X151.911 Y27.709 E31.6899
G1 X154.282 Y26.48 E31.77873
G1 X156.571 Y25.21 E31.86579
G1 X158.844 Y23.862 E31.95369
G1 X161.104 Y22.436 E32.04257
G1 X163.294 Y20.965 E32.13031
G1 X165.437 Y19.435 E32.21789
G1 X167.557 Y17.83 E32.30633
G1 X169.637 Y16.161 E32.39503
G1 X170.888 Y15.11 E32.44937
G1 X171.461 Y14.681 E32.47318
G1 X172.078 Y14.319 E32.49697
G1 X172.731 Y14.028 E32.52075
G1 X173.413 Y13.811 E32.54455
G1 X174.114 Y13.672 E32.56832
G1 X174.808 Y13.613 E32.59149
G1 X175.133 Y13.603 E32.6023
G1 X175.33 Y13.6 E32.60886
G1 X199.376 Y13.601 E33.40863
G1 X200.074 Y13.61 E33.43185
G1 X200.787 Y13.659 E33.45562
G1 X201.491 Y13.787 E33.47942
G1 X202.176 Y13.993 E33.50321
G1 X202.833 Y14.275 E33.52699
G1 X203.455 Y14.628 E33.55078
G1 X204.034 Y15.048 E33.57457
G1 X204.563 Y15.53 E33.59837
G1 X205.034 Y16.068 E33.62215
G1 X205.442 Y16.655 E33.64593
G1 X205.782 Y17.285 E33.66974
G1 X206.05 Y17.948 E33.69352
G1 X206.242 Y18.637 E33.71731
G1 X206.356 Y19.343 E33.7411
G1 X206.388 Y19.83 E33.75733
G1 X206.4 Y20.33 E33.77397
G1 X206.399 Y44.363 E34.57331
G1 X206.389 Y45.086 E34.59736
G1 X206.34 Y45.799 E34.62113
G1 X206.21 Y46.503 E34.64494
G1 X206.004 Y47.187 E34.6687
G1 X205.722 Y47.845 E34.69251
G1 X205.368 Y48.466 E34.71628
G1 X204.916 Y49.083 E34.74172
G1 X204.21 Y49.934 E34.7785
G1 X204.12 Y50.039 E34.7831
G1 X202.452 Y52.097 E34.87121
G1 X200.844 Y54.198 E34.9592
G1 X199.307 Y56.33 E35.04662
G1 X197.805 Y58.541 E35.13552
G1 X196.397 Y60.748 E35.22259
G1 X195.023 Y63.041 E35.3115
G1 X193.741 Y65.324 E35.39859
G1 X192.499 Y67.689 E35.48744
G1 X191.334 Y70.07 E35.5756
G1 X190.244 Y72.47 E35.66327
G1 X189.204 Y74.937 E35.75232
G1 X188.262 Y77.369 E35.83906
G1 X187.369 Y79.88 E35.9277
G1 X186.546 Y82.417 E36.01641
G1 X185.813 Y84.913 E36.10293
G1 X185.128 Y87.519 E36.19255
G1 X184.532 Y90.074 E36.27982
G1 X184.008 Y92.659 E36.36754
G1 X183.554 Y95.277 E36.45592
G1 X183.17 Y97.92 E36.54475
G1 X182.872 Y100.494 E36.63093
G1 X182.637 Y103.172 E36.72034
G1 X182.481 Y105.81 E36.80824
G1 X182.4 Y108.451 E36.89612
G1 X182.393 Y111.094 E36.98402
G1 X182.461 Y113.735 E37.07189
G1 X182.607 Y116.415 E37.16116
G1 X182.819 Y118.997 E37.24733
G1 X183.115 Y121.652 E37.33618
G1 X183.482 Y124.281 E37.42447
G1 X183.926 Y126.913 E37.51325
G1 X184.433 Y129.476 E37.60015
G1 X185.019 Y132.045 E37.68779
G1 X185.687 Y134.643 E37.77701
G1 X186.409 Y137.151 E37.86381
G1 X187.229 Y139.723 E37.9536
G1 X188.088 Y142.177 E38.04007
G1 X189.047 Y144.685 E38.12938
G1 X190.053 Y147.106 E38.21658
G1 X191.141 Y149.532 E38.30501
G1 X192.283 Y151.896 E38.39233
G1 X193.52 Y154.282 E38.48172
G1 X194.785 Y156.561 E38.56842
G1 X196.15 Y158.865 E38.65749
G1 X197.558 Y161.094 E38.74517
G1 X199.035 Y163.294 E38.83331
G1 X200.561 Y165.432 E38.92067
G1 X202.178 Y167.568 E39.00978
G1 X203.827 Y169.623 E39.09741
G1 X204.888 Y170.885 E39.15225
G1 X205.317 Y171.457 E39.17603
G1 X205.68 Y172.074 E39.19984
G1 X205.971 Y172.727 E39.22362
G1 X206.188 Y173.409 E39.24742
G1 X206.327 Y174.11 E39.27119
G1 X206.387 Y174.808 E39.29449
G1 X206.397 Y175.134 E39.30534
G1 X206.4 Y175.33 E39.31186
G1 X206.4 Y199.343 E40.11054
G1 X206.391 Y200.07 E40.13472
G1 X206.342 Y200.784 E40.15852
G1 X206.214 Y201.488 E40.18232
G1 X206.008 Y202.173 E40.20611
G1 X205.727 Y202.83 E40.22988
G1 X205.374 Y203.453 E40.25369
G1 X204.954 Y204.032 E40.27749
