;FLAVOR:Marlin
;TIME:2791
;Filament used: 1.43561m
;Layer height: 0.2
;MINX:18.29
;MINY:32.714
;MINZ:0.2
;MAXX:69.14
;MAXY:58.576
;MAXZ:39.6
;POSTPROCESSED
;Generated with Cura_SteamEngine 4.11.0
M140 S70
M105
M190 S70
M104 S225
M105
M109 S225
M82 ;absolute extrusion mode
M201 X500.00 Y500.00 Z100.00 E5000.00 ;Setup machine max acceleration
M203 X500.00 Y500.00 Z10.00 E50.00 ;Setup machine max feedrate
M204 P500.00 R1000.00 T500.00 ;Setup Print/Retract/Travel acceleration
M205 X8.00 Y8.00 Z0.40 E5.00 ;Setup Jerk
M220 S100 ;Reset Feedrate
M221 S100 ;Reset Flowrate

G28 ;Home
G29 ;Auto Bed Level

G92 E0 ;Reset Extruder
G1 Z2.0 F3000 ;Move Z Axis up
G1 X10.1 Y20 Z0.28 F5000.0 ;Move to start position
G1 X10.1 Y200.0 Z0.28 F1500.0 E15 ;Draw the first line
G1 X10.4 Y200.0 Z0.28 F5000.0 ;Move to side a little
G1 X10.4 Y20 Z0.28 F1500.0 E30 ;Draw the second line
G92 E0 ;Reset Extruder
G1 Z2.0 F3000 ;Move Z Axis up
G92 E0
G92 E0
G1 F1500 E-1
;LAYER_COUNT:197
;LAYER:0
M117 distance (1.0/1.0)
M107
G1 F300 Z0.4
G0 F6000 X21.96 Y33.947 Z0.4
;TYPE:SKIRT
G1 F300 Z0.2
G1 F1500 E0
G1 F1200 X22.651 Y33.563 E0.02629
G1 X23.695 Y33.141 E0.06375
G1 X23.85 Y33.091 E0.06916
G1 X24.613 Y32.887 E0.09543
G1 X25.393 Y32.761 E0.12171
G1 X26.245 Y32.714 E0.15009
G1 X61.244 Y32.715 E1.31416
G1 X62.033 Y32.755 E1.34044
G1 X62.813 Y32.875 E1.36669
G1 X63.578 Y33.072 E1.39296
G1 X64.319 Y33.347 E1.41925
G1 X65.028 Y33.694 E1.4455
G1 X65.698 Y34.112 E1.47177
G1 X66.323 Y34.595 E1.49804
G1 X66.895 Y35.139 E1.5243
G1 X67.519 Y35.881 E1.55654
G1 X67.615 Y36.011 E1.56192
G1 X68.051 Y36.67 E1.5882
G1 X68.418 Y37.369 E1.61446
G1 X68.713 Y38.101 E1.64071
G1 X68.933 Y38.86 E1.66699
G1 X69.075 Y39.637 E1.69326
G1 X69.14 Y40.646 E1.72689
G1 X69.139 Y50.646 E2.05949
G1 X69.099 Y51.434 E2.08573
G1 X68.979 Y52.215 E2.11201
G1 X68.781 Y52.98 E2.1383
G1 X68.507 Y53.72 E2.16454
G1 X68.16 Y54.429 E2.1908
G1 X67.637 Y55.247 E2.22309
G1 X67.542 Y55.377 E2.22844
G1 X67.044 Y55.99 E2.25471
G1 X66.487 Y56.55 E2.28098
G1 X65.876 Y57.051 E2.30726
G1 X65.218 Y57.487 E2.33352
G1 X64.519 Y57.854 E2.35978
G1 X63.786 Y58.149 E2.38606
G1 X63.028 Y58.368 E2.4123
G1 X62.251 Y58.51 E2.43857
G1 X61.244 Y58.575 E2.47213
G1 X26.245 Y58.576 E3.6362
G1 X25.457 Y58.536 E3.66245
G1 X24.676 Y58.417 E3.68872
G1 X23.85 Y58.199 E3.71714
G1 X23.695 Y58.149 E3.72255
G1 X22.957 Y57.869 E3.74881
G1 X22.251 Y57.516 E3.77506
G1 X21.584 Y57.093 E3.80133
G1 X20.963 Y56.605 E3.8276
G1 X20.395 Y56.056 E3.85387
G1 X19.885 Y55.453 E3.88014
G1 X19.439 Y54.801 E3.90641
G1 X19.061 Y54.108 E3.93267
G1 X18.755 Y53.38 E3.95893
G1 X18.525 Y52.625 E3.98518
G1 X18.371 Y51.85 E4.01146
G1 X18.29 Y50.726 E4.04895
G1 X18.29 Y40.564 E4.38694
G1 X18.33 Y39.775 E4.41321
G1 X18.449 Y38.995 E4.43945
G1 X18.647 Y38.23 E4.46574
G1 X18.921 Y37.49 E4.49198
G1 X19.269 Y36.781 E4.51825
G1 X19.687 Y36.11 E4.54454
G1 X20.17 Y35.486 E4.57079
G1 X20.713 Y34.913 E4.59705
G1 X21.312 Y34.398 E4.62332
G1 X21.96 Y33.947 E4.64958
G0 F6000 X22.343 Y34.183
G1 F1200 X23.026 Y33.828 E4.67518
G1 X23.818 Y33.521 E4.70343
G1 X23.973 Y33.471 E4.70885
G1 X24.716 Y33.274 E4.73442
G1 X25.476 Y33.154 E4.76001
G1 X26.245 Y33.114 E4.78562
G1 X61.244 Y33.115 E5.94969
G1 X62.012 Y33.155 E5.97527
G1 X62.772 Y33.275 E6.00086
G1 X63.515 Y33.472 E6.02642
G1 X64.234 Y33.746 E6.05202
G1 X64.921 Y34.093 E6.07762
G1 X65.567 Y34.509 E6.10317
G1 X66.167 Y34.991 E6.12877
G1 X66.714 Y35.531 E6.15433
G1 X67.197 Y36.119 E6.17964
G1 X67.293 Y36.249 E6.18502
G1 X67.717 Y36.891 E6.21061
G1 X68.072 Y37.573 E6.23618
G1 X68.355 Y38.288 E6.26176
G1 X68.561 Y39.029 E6.28734
G1 X68.69 Y39.787 E6.31291
G1 X68.74 Y40.646 E6.34153
G1 X68.739 Y50.646 E6.67413
G1 X68.699 Y51.414 E6.69971
G1 X68.579 Y52.174 E6.7253
G1 X68.382 Y52.917 E6.75087
G1 X68.108 Y53.636 E6.77646
G1 X67.761 Y54.322 E6.80203
G1 X67.314 Y55.011 E6.82934
G1 X67.219 Y55.141 E6.8347
G1 X66.733 Y55.738 E6.8603
G1 X66.188 Y56.281 E6.88589
G1 X65.59 Y56.764 E6.91146
G1 X64.945 Y57.183 E6.93704
G1 X64.26 Y57.533 E6.96262
G1 X63.542 Y57.809 E6.98821
G1 X62.8 Y58.01 E7.01378
G1 X62.04 Y58.132 E7.03938
G1 X61.244 Y58.175 E7.06589
G1 X26.245 Y58.176 E8.22996
G1 X25.477 Y58.136 E8.25554
G1 X24.717 Y58.017 E8.28113
G1 X23.973 Y57.819 E8.30673
G1 X23.818 Y57.769 E8.31215
G1 X23.099 Y57.495 E8.33774
G1 X22.413 Y57.148 E8.36331
G1 X21.766 Y56.731 E8.38891
G1 X21.166 Y56.25 E8.41449
G1 X20.619 Y55.709 E8.44008
G1 X20.132 Y55.115 E8.46563
G1 X19.708 Y54.472 E8.49124
G1 X19.354 Y53.79 E8.5168
G1 X19.072 Y53.074 E8.5424
G1 X18.867 Y52.333 E8.56797
G1 X18.739 Y51.574 E8.59357
G1 X18.69 Y50.726 E8.62182
G1 X18.69 Y40.564 E8.95981
G1 X18.73 Y39.796 E8.98539
G1 X18.849 Y39.036 E9.01097
G1 X19.047 Y38.293 E9.03655
G1 X19.321 Y37.574 E9.06214
G1 X19.668 Y36.888 E9.08771
G1 X20.084 Y36.241 E9.11329
G1 X20.565 Y35.641 E9.13887
G1 X21.106 Y35.094 E9.16446
G1 X21.701 Y34.606 E9.19005
G1 X22.343 Y34.183 E9.21563
G0 F6000 X22.088 Y34.821
G1 F1200 X22.724 Y34.426 E9.24053
G1 X23.398 Y34.102 E9.2654
G1 X23.941 Y33.902 E9.28465
G1 X24.096 Y33.852 E9.29006
G1 X24.819 Y33.661 E9.31493
G1 X25.559 Y33.548 E9.33983
G1 X26.245 Y33.514 E9.36268
G1 X61.244 Y33.515 E10.52675
G1 X61.991 Y33.555 E10.55163
G1 X62.73 Y33.674 E10.57653
G1 X63.451 Y33.872 E10.60139
G1 X64.147 Y34.146 E10.62627
G1 X64.811 Y34.492 E10.65117
G1 X65.433 Y34.907 E10.67604
G1 X66.008 Y35.386 E10.70094
G1 X66.528 Y35.923 E10.7258
G1 X66.875 Y36.357 E10.74428
G1 X66.971 Y36.487 E10.74965
G1 X67.383 Y37.111 E10.77452
G1 X67.725 Y37.776 E10.7994
G1 X67.995 Y38.474 E10.82429
G1 X68.189 Y39.197 E10.84919
G1 X68.304 Y39.936 E10.87406
G1 X68.34 Y40.646 E10.89771
G1 X68.339 Y50.646 E11.23031
G1 X68.299 Y51.393 E11.25519
G1 X68.179 Y52.131 E11.28006
G1 X67.982 Y52.853 E11.30495
G1 X67.708 Y53.549 E11.32983
G1 X67.362 Y54.212 E11.3547
G1 X66.991 Y54.775 E11.37713
G1 X66.896 Y54.905 E11.38248
G1 X66.423 Y55.485 E11.40737
G1 X65.891 Y56.01 E11.43223
G1 X65.305 Y56.476 E11.45713
G1 X64.674 Y56.877 E11.482
G1 X64.003 Y57.208 E11.50689
G1 X63.301 Y57.466 E11.53176
G1 X62.575 Y57.647 E11.55665
G1 X61.834 Y57.75 E11.58153
G1 X61.244 Y57.775 E11.60117
G1 X26.245 Y57.776 E12.76524
G1 X25.498 Y57.736 E12.79012
G1 X24.76 Y57.617 E12.81499
G1 X24.096 Y57.438 E12.83786
G1 X23.941 Y57.388 E12.84328
G1 X23.242 Y57.121 E12.86816
G1 X22.576 Y56.78 E12.89305
G1 X21.95 Y56.371 E12.91792
G1 X21.371 Y55.897 E12.94281
G1 X20.847 Y55.364 E12.96767
G1 X20.382 Y54.778 E12.99255
G1 X19.982 Y54.145 E13.01746
G1 X19.652 Y53.474 E13.04233
G1 X19.395 Y52.771 E13.06722
G1 X19.215 Y52.045 E13.0921
G1 X19.114 Y51.304 E13.11697
G1 X19.09 Y50.726 E13.13621
G1 X19.09 Y40.564 E13.4742
G1 X19.13 Y39.817 E13.49908
G1 X19.249 Y39.079 E13.52395
G1 X19.447 Y38.357 E13.54885
G1 X19.72 Y37.661 E13.57371
G1 X20.067 Y36.998 E13.5986
G1 X20.482 Y36.375 E13.6235
G1 X20.961 Y35.801 E13.64837
G1 X21.498 Y35.28 E13.67325
G1 X22.088 Y34.821 E13.69811
G0 F6000 X22.474 Y35.043
G1 F1200 X23.103 Y34.679 E13.72228
G1 X24.064 Y34.283 E13.75686
G1 X24.219 Y34.233 E13.76227
G1 X24.921 Y34.048 E13.78642
G1 X25.64 Y33.942 E13.81059
G1 X26.245 Y33.914 E13.83073
G1 X61.244 Y33.915 E14.99481
G1 X61.969 Y33.955 E15.01896
G1 X62.686 Y34.074 E15.04313
G1 X63.385 Y34.272 E15.06729
G1 X64.058 Y34.545 E15.09145
G1 X64.697 Y34.89 E15.1156
G1 X65.294 Y35.304 E15.13977
G1 X65.842 Y35.78 E15.16391
G1 X66.553 Y36.594 E15.19986
G1 X66.649 Y36.724 E15.20523
G1 X67.048 Y37.331 E15.22939
G1 X67.377 Y37.979 E15.25356
G1 X67.634 Y38.658 E15.27771
G1 X67.814 Y39.362 E15.30188
G1 X67.916 Y40.081 E15.32603
G1 X67.94 Y40.646 E15.34484
G1 X67.939 Y50.646 E15.67744
G1 X67.899 Y51.371 E15.70159
G1 X67.779 Y52.087 E15.72574
G1 X67.582 Y52.786 E15.74989
G1 X67.309 Y53.459 E15.77405
G1 X66.963 Y54.098 E15.79822
G1 X66.668 Y54.539 E15.81586
G1 X66.573 Y54.669 E15.82122
G1 X66.113 Y55.231 E15.84537
G1 X65.593 Y55.739 E15.86955
G1 X65.022 Y56.187 E15.89369
G1 X64.404 Y56.569 E15.91786
G1 X63.748 Y56.881 E15.94202
G1 X63.062 Y57.12 E15.96618
G1 X62.354 Y57.281 E15.99033
G1 X61.632 Y57.364 E16.0145
G1 X61.244 Y57.375 E16.02741
G1 X26.245 Y57.376 E17.19148
G1 X25.52 Y57.336 E17.21563
G1 X24.803 Y57.217 E17.23981
G1 X24.219 Y57.057 E17.25995
G1 X24.064 Y57.007 E17.26536
G1 X23.386 Y56.747 E17.28951
G1 X22.741 Y56.413 E17.31367
G1 X22.136 Y56.01 E17.33785
G1 X21.579 Y55.544 E17.362
G1 X21.077 Y55.019 E17.38616
G1 X20.636 Y54.442 E17.41032
G1 X20.26 Y53.82 E17.43449
G1 X19.956 Y53.161 E17.45863
G1 X19.725 Y52.472 E17.4828
G1 X19.572 Y51.762 E17.50696
G1 X19.49 Y50.726 E17.54152
G1 X19.49 Y40.564 E17.87951
G1 X19.53 Y39.839 E17.90366
G1 X19.649 Y39.122 E17.92784
G1 X19.847 Y38.423 E17.952
G1 X20.12 Y37.75 E17.97616
G1 X20.465 Y37.111 E18.00031
G1 X20.879 Y36.514 E18.02447
G1 X21.355 Y35.966 E18.04861
G1 X21.889 Y35.473 E18.07279
G1 X22.474 Y35.043 E18.09694
G0 F6000 X22.858 Y35.273
G1 F1200 X23.479 Y34.941 E18.12036
G1 X24.187 Y34.663 E18.14565
G1 X24.342 Y34.613 E18.15107
G1 X25.023 Y34.436 E18.17447
G1 X25.72 Y34.336 E18.19789
G1 X26.245 Y34.314 E18.21537
G1 X61.244 Y34.315 E19.37944
G1 X61.947 Y34.355 E19.40286
G1 X62.641 Y34.474 E19.42628
G1 X63.317 Y34.672 E19.44971
G1 X63.966 Y34.944 E19.47311
G1 X64.58 Y35.289 E19.49654
G1 X65.151 Y35.701 E19.51996
G1 X65.671 Y36.174 E19.54334
G1 X66.231 Y36.832 E19.57208
G1 X66.327 Y36.962 E19.57745
G1 X66.713 Y37.551 E19.60087
G1 X67.029 Y38.18 E19.62429
G1 X67.272 Y38.841 E19.64771
G1 X67.438 Y39.525 E19.67112
G1 X67.526 Y40.223 E19.69452
G1 X67.54 Y40.646 E19.7086
G1 X67.539 Y50.646 E20.0412
G1 X67.499 Y51.348 E20.06458
G1 X67.38 Y52.042 E20.088
G1 X67.182 Y52.718 E20.11143
G1 X66.909 Y53.367 E20.13485
G1 X66.565 Y53.981 E20.15826
G1 X66.345 Y54.303 E20.17123
G1 X66.25 Y54.433 E20.17658
G1 X65.803 Y54.977 E20.2
G1 X65.297 Y55.467 E20.22343
G1 X64.739 Y55.896 E20.24684
G1 X64.136 Y56.259 E20.27025
G1 X63.496 Y56.552 E20.29366
G1 X62.826 Y56.77 E20.31709
G1 X62.137 Y56.91 E20.34048
G1 X61.244 Y56.975 E20.37026
G1 X26.245 Y56.976 E21.53433
G1 X25.542 Y56.936 E21.55775
G1 X24.849 Y56.817 E21.58114
G1 X24.342 Y56.677 E21.59863
G1 X24.187 Y56.627 E21.60405
G1 X23.53 Y56.373 E21.62748
G1 X22.906 Y56.046 E21.65091
G1 X22.324 Y55.651 E21.6743
G1 X21.79 Y55.192 E21.69772
G1 X21.311 Y54.676 E21.72114
G1 X20.894 Y54.109 E21.74455
G1 X20.544 Y53.498 E21.76797
G1 X20.266 Y52.851 E21.79139
G1 X20.062 Y52.177 E21.81481
G1 X19.937 Y51.485 E21.8382
G1 X19.89 Y50.726 E21.86349
G1 X19.89 Y40.564 E22.20148
G1 X19.93 Y39.861 E22.2249
G1 X20.049 Y39.167 E22.24832
G1 X20.247 Y38.492 E22.27172
G1 X20.519 Y37.843 E22.29512
G1 X20.864 Y37.229 E22.31855
G1 X21.275 Y36.658 E22.34195
G1 X21.749 Y36.137 E22.36537
G1 X22.279 Y35.673 E22.3888
G1 X22.858 Y35.273 E22.41221
G0 F6000 X23.24 Y35.512
G1 F1200 X23.852 Y35.213 E22.43486
G1 X24.309 Y35.044 E22.45107
G1 X24.464 Y34.994 E22.45649
G1 X25.124 Y34.823 E22.47916
G1 X25.798 Y34.731 E22.50179
G1 X26.245 Y34.714 E22.51667
G1 X61.244 Y34.715 E23.68074
G1 X61.924 Y34.755 E23.70339
G1 X62.594 Y34.874 E23.72603
G1 X63.246 Y35.071 E23.74868
G1 X63.87 Y35.344 E23.77134
G1 X64.458 Y35.687 E23.79398
G1 X65.002 Y36.097 E23.81663
G1 X65.494 Y36.568 E23.83929
G1 X65.91 Y37.07 E23.86097
G1 X66.006 Y37.2 E23.86635
G1 X66.377 Y37.77 E23.88897
G1 X66.68 Y38.38 E23.91162
G1 X66.908 Y39.022 E23.93428
G1 X67.06 Y39.685 E23.9569
G1 X67.14 Y40.646 E23.98898
G1 X67.139 Y50.646 E24.32158
G1 X67.099 Y51.325 E24.3442
G1 X66.98 Y51.996 E24.36687
G1 X66.782 Y52.647 E24.3895
G1 X66.51 Y53.271 E24.41214
G1 X66.022 Y54.067 E24.44319
G1 X65.927 Y54.197 E24.44855
G1 X65.494 Y54.722 E24.47118
G1 X65.002 Y55.193 E24.49384
G1 X64.458 Y55.603 E24.51649
G1 X63.87 Y55.946 E24.53913
G1 X63.246 Y56.219 E24.56179
G1 X62.594 Y56.416 E24.58444
G1 X61.924 Y56.535 E24.60708
G1 X61.244 Y56.575 E24.62973
G1 X26.245 Y56.576 E25.7938
G1 X25.565 Y56.536 E25.81646
G1 X24.895 Y56.417 E25.83909
G1 X24.464 Y56.296 E25.85398
G1 X24.309 Y56.246 E25.8594
G1 X23.675 Y55.999 E25.88203
G1 X23.073 Y55.68 E25.90469
G1 X22.514 Y55.292 E25.92732
G1 X22.003 Y54.842 E25.94997
G1 X21.549 Y54.334 E25.97263
G1 X21.157 Y53.777 E25.99528
G1 X20.834 Y53.178 E26.01792
G1 X20.583 Y52.545 E26.04057
G1 X20.407 Y51.887 E26.06322
G1 X20.311 Y51.213 E26.08586
G1 X20.29 Y50.726 E26.10208
G1 X20.29 Y40.564 E26.44007
G1 X20.33 Y39.884 E26.46272
G1 X20.449 Y39.214 E26.48535
G1 X20.646 Y38.562 E26.50801
G1 X20.918 Y37.938 E26.53065
G1 X21.262 Y37.35 E26.55331
G1 X21.672 Y36.806 E26.57596
G1 X22.143 Y36.315 E26.59859
G1 X22.668 Y35.881 E26.62125
G1 X23.24 Y35.512 E26.64389
G0 F6000 X23.055 Y36.098
G1 F1200 X23.619 Y35.762 E26.66572
G1 X24.432 Y35.425 E26.695
G1 X24.587 Y35.375 E26.70041
G1 X25.224 Y35.211 E26.72229
G1 X25.875 Y35.127 E26.74412
G1 X26.245 Y35.114 E26.75644
G1 X61.244 Y35.115 E27.92051
G1 X61.9 Y35.155 E27.94237
G1 X62.546 Y35.274 E27.96421
G1 X63.173 Y35.471 E27.98607
G1 X63.771 Y35.743 E28.00792
G1 X64.332 Y36.085 E28.02978
G1 X64.847 Y36.493 E28.05163
G1 X65.309 Y36.96 E28.07348
G1 X65.588 Y37.307 E28.08829
G1 X65.684 Y37.437 E28.09366
G1 X66.041 Y37.988 E28.1155
G1 X66.329 Y38.579 E28.13737
G1 X66.543 Y39.2 E28.15921
G1 X66.68 Y39.843 E28.18108
G1 X66.74 Y40.646 E28.20786
G1 X66.739 Y50.646 E28.54046
G1 X66.699 Y51.301 E28.56229
G1 X66.58 Y51.947 E28.58414
G1 X66.383 Y52.574 E28.606
G1 X66.111 Y53.172 E28.62785
G1 X65.699 Y53.831 E28.65369
G1 X65.604 Y53.961 E28.65905
G1 X65.185 Y54.467 E28.6809
G1 X64.707 Y54.918 E28.70276
G1 X64.178 Y55.308 E28.72462
G1 X63.606 Y55.631 E28.74647
G1 X62.999 Y55.882 E28.76831
G1 X62.366 Y56.057 E28.79016
G1 X61.716 Y56.154 E28.81202
G1 X61.244 Y56.175 E28.82773
G1 X26.245 Y56.176 E29.9918
G1 X25.589 Y56.136 E30.01366
G1 X24.943 Y56.017 E30.03551
G1 X24.587 Y55.915 E30.04782
G1 X24.432 Y55.865 E30.05324
G1 X23.82 Y55.626 E30.07509
G1 X23.242 Y55.314 E30.09694
G1 X22.706 Y54.934 E30.11879
G1 X22.22 Y54.492 E30.14064
G1 X21.791 Y53.994 E30.1625
G1 X21.426 Y53.448 E30.18435
G1 X21.13 Y52.862 E30.20618
G1 X20.908 Y52.244 E30.22803
G1 X20.762 Y51.603 E30.24989
G1 X20.69 Y50.726 E30.27916
G1 X20.69 Y40.564 E30.61715
G1 X20.73 Y39.908 E30.63901
G1 X20.849 Y39.262 E30.66085
G1 X21.046 Y38.635 E30.68271
G1 X21.318 Y38.037 E30.70456
G1 X21.66 Y37.476 E30.72642
G1 X22.068 Y36.961 E30.74827
G1 X22.535 Y36.499 E30.77012
G1 X23.055 Y36.098 E30.79196
G0 F6000 X23.44 Y36.324
G1 F1200 X23.996 Y36.024 E30.81297
G1 X24.555 Y35.805 E30.83294
G1 X24.71 Y35.755 E30.83836
G1 X25.323 Y35.6 E30.85939
G1 X26.245 Y35.514 E30.89019
G1 X61.244 Y35.515 E32.05426
G1 X61.875 Y35.555 E32.07529
G1 X62.496 Y35.674 E32.09632
G1 X63.097 Y35.871 E32.11735
G1 X63.668 Y36.142 E32.13838
G1 X64.2 Y36.483 E32.15939
G1 X64.685 Y36.888 E32.18041
G1 X65.266 Y37.545 E32.20958
G1 X65.362 Y37.675 E32.21495
G1 X65.705 Y38.206 E32.23598
G1 X65.978 Y38.776 E32.257
G1 X66.176 Y39.376 E32.27801
G1 X66.298 Y39.997 E32.29906
G1 X66.34 Y40.645 E32.32066
G1 X66.339 Y50.645 E32.65326
G1 X66.299 Y51.276 E32.67429
G1 X66.18 Y51.897 E32.69532
G1 X65.983 Y52.498 E32.71636
G1 X65.712 Y53.069 E32.73738
G1 X65.376 Y53.595 E32.75814
G1 X65.281 Y53.725 E32.7635
G1 X64.876 Y54.211 E32.78454
G1 X64.414 Y54.642 E32.80555
G1 X63.901 Y55.011 E32.82657
G1 X63.345 Y55.312 E32.8476
G1 X62.756 Y55.541 E32.86862
G1 X62.142 Y55.694 E32.88966
G1 X61.244 Y55.775 E32.91965
G1 X26.245 Y55.776 E34.08372
G1 X25.614 Y55.736 E34.10475
G1 X24.71 Y55.535 E34.13555
G1 X24.555 Y55.485 E34.14097
G1 X23.967 Y55.253 E34.162
G1 X23.413 Y54.949 E34.18301
G1 X22.901 Y54.577 E34.20406
G1 X22.441 Y54.144 E34.22507
G1 X22.039 Y53.656 E34.2461
G1 X21.701 Y53.122 E34.26712
G1 X21.434 Y52.549 E34.28815
G1 X21.241 Y51.947 E34.30917
G1 X21.126 Y51.325 E34.33021
G1 X21.09 Y50.726 E34.35017
G1 X21.09 Y40.564 E34.68816
G1 X21.13 Y39.933 E34.70919
G1 X21.249 Y39.312 E34.73022
G1 X21.446 Y38.712 E34.75123
G1 X21.717 Y38.14 E34.77228
G1 X22.057 Y37.608 E34.79328
G1 X22.463 Y37.123 E34.81431
G1 X22.926 Y36.693 E34.83533
G1 X23.44 Y36.324 E34.85638
G0 F6000 X23.822 Y36.562
G1 F1200 X24.368 Y36.298 E34.87655
G1 X24.678 Y36.186 E34.88751
G1 X24.833 Y36.136 E34.89293
G1 X25.421 Y35.988 E34.91309
G1 X26.245 Y35.914 E34.94061
