;FLAVOR:Marlin
;TIME:2876
;Filament used: 1.37879m
;Layer height: 0.2
;MINX:85.574
;MINY:117.818
;MINZ:0.2
;MAXX:134.423
;MAXY:141.679
;MAXZ:39.6
;POSTPROCESSED
;Generated with Cura_SteamEngine 4.8.0
M140 S70
M105
M190 S70
M104 S200
M105
M109 S200
M82 ;absolute extrusion mode
M201 X500.00 Y500.00 Z100.00 E5000.00 ;Setup machine max acceleration
M203 X500.00 Y500.00 Z10.00 E50.00 ;Setup machine max feedrate
M204 P500.00 R1000.00 T500.00 ;Setup Print/Retract/Travel acceleration
M205 X8.00 Y8.00 Z0.40 E5.00 ;Setup Jerk
M220 S100 ;Reset Feedrate
M221 S100 ;Reset Flowrate

G28 ;Home

G92 E0 ;Reset Extruder
G1 Z2.0 F3000 ;Move Z Axis up
G1 X10.1 Y20 Z0.28 F5000.0 ;Move to start position
G1 X10.1 Y200.0 Z0.28 F1500.0 E15 ;Draw the first line
G1 X10.4 Y200.0 Z0.28 F5000.0 ;Move to side a little
G1 X10.4 Y20 Z0.28 F1500.0 E30 ;Draw the second line
G92 E0 ;Reset Extruder
G1 Z2.0 F3000 ;Move Z Axis up

G92 E0
G92 E0
G1 F2400 E-6.5
;LAYER_COUNT:197
;LAYER:0
M117 distance (1.0/1.0)
M107
G1 F300 Z0.4
G0 F6000 X88.065 Y119.423 Z0.4
;TYPE:SKIRT
G1 F300 Z0.2
G1 F2400 E0
G1 F1200 X88.659 Y118.986 E0.02453
G1 X89.297 Y118.616 E0.04906
G1 X90.286 Y118.207 E0.08465
G1 X90.431 Y118.16 E0.08972
G1 X91.144 Y117.971 E0.11426
G1 X91.873 Y117.861 E0.13878
G1 X92.425 Y117.83 E0.15717
G1 X93.253 Y117.818 E0.18471
G1 X126.919 Y117.82 E1.30444
G1 X127.618 Y117.83 E1.3277
G1 X128.354 Y117.88 E1.35223
G1 X129.08 Y118.01 E1.37676
G1 X129.787 Y118.218 E1.40127
G1 X130.468 Y118.501 E1.4258
G1 X131.114 Y118.856 E1.45032
G1 X131.718 Y119.279 E1.47484
G1 X132.273 Y119.765 E1.49938
G1 X132.955 Y120.541 E1.53374
G1 X133.034 Y120.646 E1.53811
G1 X133.444 Y121.258 E1.56261
G1 X133.786 Y121.911 E1.58713
G1 X134.056 Y122.598 E1.61168
G1 X134.249 Y123.309 E1.63619
G1 X134.364 Y124.037 E1.6607
G1 X134.398 Y124.588 E1.67906
G1 X134.423 Y125.809 E1.71968
G1 X134.421 Y134.114 E1.9959
G1 X134.411 Y134.83 E2.01972
G1 X134.361 Y135.566 E2.04426
G1 X134.231 Y136.291 E2.06876
G1 X134.024 Y136.999 E2.09329
G1 X133.741 Y137.68 E2.11782
G1 X133.189 Y138.626 E2.15425
G1 X133.099 Y138.755 E2.15948
G1 X132.645 Y139.336 E2.184
G1 X132.131 Y139.864 E2.20851
G1 X131.562 Y140.334 E2.23306
G1 X130.946 Y140.739 E2.25758
G1 X130.29 Y141.075 E2.28209
G1 X129.601 Y141.338 E2.30662
G1 X128.888 Y141.525 E2.33114
G1 X128.159 Y141.634 E2.35565
G1 X127.64 Y141.663 E2.37294
G1 X126.658 Y141.679 E2.40561
G1 X93.132 Y141.679 E3.52069
G1 X92.423 Y141.668 E3.54427
G1 X91.687 Y141.617 E3.56881
G1 X90.961 Y141.486 E3.59335
G1 X89.943 Y141.159 E3.62891
G1 X89.797 Y141.099 E3.63416
G1 X89.131 Y140.782 E3.65869
G1 X88.504 Y140.395 E3.6832
G1 X87.922 Y139.942 E3.70773
G1 X87.392 Y139.429 E3.73226
G1 X86.922 Y138.862 E3.75676
G1 X86.515 Y138.247 E3.78128
G1 X86.177 Y137.591 E3.80583
G1 X85.912 Y136.903 E3.83035
G1 X85.724 Y136.19 E3.85488
G1 X85.613 Y135.461 E3.8794
G1 X85.584 Y134.99 E3.8951
G1 X85.576 Y134.69 E3.90508
G1 X85.574 Y134.51 E3.91107
G1 X85.574 Y125.24 E4.21939
G1 X85.584 Y124.574 E4.24154
G1 X85.635 Y123.838 E4.26608
G1 X85.765 Y123.113 E4.29058
G1 X85.973 Y122.405 E4.31512
G1 X86.257 Y121.725 E4.33963
G1 X86.612 Y121.079 E4.36415
G1 X87.036 Y120.475 E4.38869
G1 X87.522 Y119.921 E4.4132
G1 X88.065 Y119.423 E4.43771
G0 F6000 X88.453 Y119.625
G1 F1200 X89.041 Y119.218 E4.46149
G1 X89.671 Y118.879 E4.48529
G1 X90.41 Y118.588 E4.5117
G1 X90.555 Y118.541 E4.51677
G1 X91.246 Y118.359 E4.54054
G1 X91.954 Y118.255 E4.56434
G1 X92.431 Y118.23 E4.58023
G1 X93.253 Y118.218 E4.60757
G1 X126.914 Y118.22 E5.72714
G1 X127.613 Y118.23 E5.75039
G1 X128.326 Y118.28 E5.77416
G1 X129.029 Y118.409 E5.79794
G1 X129.714 Y118.616 E5.82174
G1 X130.371 Y118.899 E5.84553
G1 X130.993 Y119.253 E5.86933
G1 X131.571 Y119.674 E5.89312
G1 X132.099 Y120.156 E5.9169
G1 X132.635 Y120.781 E5.94428
G1 X132.714 Y120.886 E5.94865
G1 X133.112 Y121.481 E5.97246
G1 X133.44 Y122.116 E5.99623
G1 X133.696 Y122.784 E6.02003
G1 X133.875 Y123.477 E6.04383
G1 X133.976 Y124.185 E6.06762
G1 X133.999 Y124.597 E6.08134
G1 X134.022 Y125.671 E6.11707
G1 X134.022 Y134.02 E6.39476
G1 X134.011 Y134.824 E6.4215
G1 X133.961 Y135.538 E6.44531
G1 X133.832 Y136.241 E6.46908
G1 X133.625 Y136.926 E6.49288
G1 X133.343 Y137.583 E6.51666
G1 X132.861 Y138.397 E6.54813
G1 X132.771 Y138.526 E6.55336
G1 X132.329 Y139.089 E6.57717
G1 X131.828 Y139.599 E6.60094
G1 X131.273 Y140.05 E6.62473
G1 X130.671 Y140.436 E6.64851
G1 X130.029 Y140.752 E6.67231
G1 X129.357 Y140.995 E6.69608
G1 X128.661 Y141.162 E6.71989
G1 X127.633 Y141.263 E6.75424
G1 X126.658 Y141.279 E6.78668
G1 X93.138 Y141.279 E7.90156
G1 X92.429 Y141.268 E7.92514
G1 X91.715 Y141.217 E7.94895
G1 X91.012 Y141.087 E7.97273
G1 X90.095 Y140.789 E8.0048
G1 X89.949 Y140.729 E8.01005
G1 X89.304 Y140.42 E8.03383
G1 X88.697 Y140.042 E8.05762
G1 X88.136 Y139.598 E8.08141
G1 X87.628 Y139.094 E8.10521
G1 X87.18 Y138.537 E8.12899
G1 X86.796 Y137.933 E8.15279
G1 X86.483 Y137.29 E8.17658
G1 X86.243 Y136.617 E8.20034
G1 X86.079 Y135.92 E8.22416
G1 X85.984 Y134.98 E8.25558
G1 X85.976 Y134.68 E8.26557
G1 X85.974 Y134.51 E8.27122
G1 X85.974 Y125.246 E8.57934
G1 X85.984 Y124.58 E8.6015
G1 X86.034 Y123.866 E8.6253
G1 X86.164 Y123.163 E8.64908
G1 X86.372 Y122.479 E8.67286
G1 X86.655 Y121.822 E8.69665
G1 X87.009 Y121.2 E8.72045
G1 X87.43 Y120.622 E8.74424
G1 X87.914 Y120.095 E8.76804
G1 X88.453 Y119.625 E8.79182
G0 F6000 X88.839 Y119.835
G1 F1200 X89.42 Y119.458 E8.81486
G1 X90.041 Y119.152 E8.83788
G1 X90.533 Y118.968 E8.85535
G1 X90.678 Y118.921 E8.86042
G1 X91.348 Y118.746 E8.88346
G1 X92.034 Y118.649 E8.9065
G1 X92.437 Y118.63 E8.91992
G1 X93.253 Y118.618 E8.94706
G1 X126.908 Y118.62 E10.06643
G1 X127.607 Y118.63 E10.08968
G1 X128.298 Y118.679 E10.11272
G1 X128.978 Y118.809 E10.13575
G1 X129.639 Y119.015 E10.15878
G1 X130.272 Y119.297 E10.18183
G1 X130.868 Y119.649 E10.20485
G1 X131.419 Y120.068 E10.22787
G1 X131.919 Y120.548 E10.25092
G1 X132.316 Y121.022 E10.27149
G1 X132.395 Y121.127 E10.27586
G1 X132.778 Y121.703 E10.29887
G1 X133.093 Y122.32 E10.32191
G1 X133.335 Y122.969 E10.34494
G1 X133.5 Y123.642 E10.36799
G1 X133.599 Y124.606 E10.40022
G1 X133.622 Y125.68 E10.43595
G1 X133.622 Y134.02 E10.71334
G1 X133.611 Y134.819 E10.73992
G1 X133.562 Y135.51 E10.76296
G1 X133.433 Y136.19 E10.78598
G1 X133.226 Y136.851 E10.80902
G1 X132.945 Y137.484 E10.83205
G1 X132.533 Y138.168 E10.85861
G1 X132.443 Y138.297 E10.86384
G1 X132.014 Y138.841 E10.88689
G1 X131.526 Y139.332 E10.90991
G1 X130.985 Y139.764 E10.93294
G1 X130.397 Y140.13 E10.95597
G1 X129.771 Y140.427 E10.97902
G1 X129.115 Y140.649 E11.00205
G1 X128.438 Y140.794 E11.02508
G1 X127.626 Y140.863 E11.05218
G1 X126.658 Y140.879 E11.08438
G1 X93.144 Y140.879 E12.19906
G1 X92.435 Y140.868 E12.22265
G1 X91.744 Y140.818 E12.24569
G1 X91.064 Y140.688 E12.26872
G1 X90.247 Y140.419 E12.29733
G1 X90.101 Y140.359 E12.30258
G1 X89.477 Y140.059 E12.32561
G1 X88.891 Y139.689 E12.34866
G1 X88.352 Y139.254 E12.37169
G1 X87.867 Y138.76 E12.39472
G1 X87.442 Y138.214 E12.41773
G1 X87.082 Y137.622 E12.44078
G1 X86.793 Y136.993 E12.4638
G1 X86.579 Y136.334 E12.48684
G1 X86.442 Y135.655 E12.50988
G1 X86.384 Y134.969 E12.53278
G1 X86.376 Y134.669 E12.54276
G1 X86.374 Y134.51 E12.54805
G1 X86.374 Y125.252 E12.85597
G1 X86.384 Y124.586 E12.87813
G1 X86.434 Y123.895 E12.90117
G1 X86.564 Y123.215 E12.9242
G1 X86.771 Y122.554 E12.94723
G1 X87.053 Y121.922 E12.97025
G1 X87.406 Y121.326 E12.99329
G1 X87.825 Y120.774 E13.01634
G1 X88.305 Y120.275 E13.03937
G1 X88.839 Y119.835 E13.06238
G0 F6000 X88.695 Y120.462
G1 F1200 X89.224 Y120.052 E13.08464
G1 X89.797 Y119.709 E13.10686
G1 X90.656 Y119.349 E13.13783
G1 X90.801 Y119.302 E13.1429
G1 X91.449 Y119.134 E13.16517
G1 X92.443 Y119.03 E13.19841
G1 X93.253 Y119.018 E13.22535
G1 X126.902 Y119.02 E14.34452
G1 X127.601 Y119.03 E14.36778
G1 X128.268 Y119.079 E14.39002
G1 X128.925 Y119.208 E14.41229
G1 X129.561 Y119.414 E14.43452
G1 X130.169 Y119.694 E14.45679
G1 X130.738 Y120.045 E14.47902
G1 X131.262 Y120.462 E14.5013
G1 X131.732 Y120.938 E14.52355
G1 X131.996 Y121.262 E14.53745
G1 X132.075 Y121.367 E14.54182
G1 X132.444 Y121.925 E14.56407
G1 X132.745 Y122.523 E14.58633
G1 X132.972 Y123.152 E14.60858
G1 X133.122 Y123.804 E14.63083
G1 X133.199 Y124.614 E14.65789
G1 X133.222 Y125.688 E14.69362
G1 X133.222 Y134.02 E14.97074
G1 X133.211 Y134.813 E14.99712
G1 X133.162 Y135.48 E15.01937
G1 X133.034 Y136.137 E15.04163
G1 X132.828 Y136.774 E15.06389
G1 X132.547 Y137.381 E15.08614
G1 X132.205 Y137.939 E15.10791
G1 X132.115 Y138.068 E15.11314
G1 X131.7 Y138.593 E15.1354
G1 X131.225 Y139.065 E15.15767
G1 X130.698 Y139.476 E15.1799
G1 X130.125 Y139.822 E15.20216
G1 X129.515 Y140.097 E15.22442
G1 X128.877 Y140.298 E15.24667
G1 X128.219 Y140.42 E15.26892
G1 X127.619 Y140.463 E15.28893
G1 X126.658 Y140.479 E15.3209
G1 X93.15 Y140.479 E16.43538
G1 X92.441 Y140.468 E16.45896
G1 X91.774 Y140.418 E16.48121
G1 X91.118 Y140.288 E16.50345
G1 X90.399 Y140.049 E16.52865
G1 X90.253 Y139.989 E16.5339
G1 X89.651 Y139.698 E16.55614
G1 X89.087 Y139.337 E16.57842
G1 X88.571 Y138.912 E16.60065
G1 X88.109 Y138.428 E16.6229
G1 X87.708 Y137.893 E16.64514
G1 X87.373 Y137.313 E16.66742
G1 X87.11 Y136.698 E16.68967
G1 X86.923 Y136.056 E16.71191
G1 X86.813 Y135.396 E16.73416
G1 X86.784 Y134.958 E16.74876
G1 X86.774 Y134.51 E16.76367
G1 X86.774 Y125.258 E17.07139
G1 X86.784 Y124.592 E17.09354
G1 X86.834 Y123.925 E17.11579
G1 X86.963 Y123.268 E17.13806
G1 X87.169 Y122.632 E17.16029
G1 X87.45 Y122.025 E17.18254
G1 X87.802 Y121.455 E17.20482
G1 X88.218 Y120.932 E17.22705
G1 X88.695 Y120.462 E17.24932
G0 F6000 X89.083 Y120.657
G1 F1200 X89.606 Y120.28 E17.27077
G1 X90.171 Y119.97 E17.2922
G1 X90.78 Y119.729 E17.31398
G1 X90.925 Y119.682 E17.31905
G1 X91.549 Y119.522 E17.34048
G1 X92.449 Y119.43 E17.37057
G1 X93.253 Y119.418 E17.39731
G1 X126.896 Y119.42 E18.51628
G1 X127.595 Y119.43 E18.53954
G1 X128.238 Y119.479 E18.56098
G1 X128.87 Y119.607 E18.58243
G1 X129.481 Y119.813 E18.60388
G1 X130.062 Y120.092 E18.62531
G1 X130.604 Y120.441 E18.64675
G1 X131.098 Y120.855 E18.66819
G1 X131.676 Y121.503 E18.69707
G1 X131.755 Y121.608 E18.70144
G1 X132.11 Y122.146 E18.72288
G1 X132.396 Y122.724 E18.74433
G1 X132.608 Y123.333 E18.76578
G1 X132.743 Y123.963 E18.78721
G1 X132.799 Y124.623 E18.80924
G1 X132.823 Y125.809 E18.84869
G1 X132.821 Y134.092 E19.12419
G1 X132.811 Y134.808 E19.148
G1 X132.763 Y135.45 E19.16942
G1 X132.634 Y136.082 E19.19087
G1 X132.429 Y136.693 E19.2123
G1 X132.15 Y137.274 E19.23374
G1 X131.877 Y137.71 E19.25085
G1 X131.787 Y137.839 E19.25608
G1 X131.386 Y138.344 E19.27753
G1 X130.925 Y138.796 E19.299
G1 X130.413 Y139.186 E19.32041
G1 X129.856 Y139.511 E19.34186
G1 X129.263 Y139.764 E19.3633
G1 X128.643 Y139.942 E19.38476
G1 X128.006 Y140.041 E19.4062
G1 X127.612 Y140.063 E19.41932
G1 X126.658 Y140.079 E19.45106
G1 X93.156 Y140.079 E20.56534
G1 X92.447 Y140.068 E20.58892
G1 X91.805 Y140.018 E20.61034
G1 X91.173 Y139.889 E20.63179
G1 X90.551 Y139.679 E20.65363
G1 X90.405 Y139.619 E20.65888
G1 X89.825 Y139.337 E20.68033
G1 X89.285 Y138.986 E20.70175
G1 X88.792 Y138.571 E20.72318
G1 X88.354 Y138.098 E20.74463
G1 X87.978 Y137.574 E20.76608
G1 X87.67 Y137.008 E20.78751
G1 X87.434 Y136.408 E20.80895
G1 X87.274 Y135.783 E20.83041
G1 X87.184 Y134.948 E20.85834
G1 X87.174 Y134.51 E20.87292
G1 X87.174 Y125.264 E21.18044
G1 X87.184 Y124.598 E21.20259
G1 X87.233 Y123.955 E21.22404
G1 X87.362 Y123.323 E21.24549
G1 X87.568 Y122.713 E21.26691
G1 X87.848 Y122.132 E21.28836
G1 X88.198 Y121.59 E21.30982
G1 X88.611 Y121.096 E21.33124
G1 X89.083 Y120.657 E21.35267
G1 F2400 E14.85267
G1 F300 Z0.4
;MESH:RetractTower
G0 F6000 X126.623 Y125.619 Z0.4
;TYPE:WALL-INNER
G1 F300 Z0.2
G1 F2400 E21.35267
G1 F1200 X126.623 Y125.818 E21.35929
G1 X126.622 Y133.879 E21.6274
G1 X93.572 Y133.88 E22.72665
G1 X93.373 Y133.88 E22.73327
G1 X93.373 Y133.681 E22.73755
G1 X93.373 Y125.817 E22.99911
G1 X93.373 Y125.618 E23.00573
G1 X93.572 Y125.618 E23.01001
G1 X126.424 Y125.619 E24.10267
G1 X126.623 Y125.619 E24.10695
G0 F6000 X127.023 Y125.219
G1 F1200 X127.023 Y125.418 E24.11357
G1 X127.022 Y134.279 E24.40829
G1 X93.172 Y134.28 E25.53415
G1 X92.973 Y134.28 E25.54077
G1 X92.973 Y134.081 E25.54505
G1 X92.973 Y125.417 E25.83321
G1 X92.973 Y125.218 E25.83983
G1 X93.172 Y125.218 E25.84412
G1 X126.824 Y125.219 E26.96339
G1 X127.023 Y125.219 E26.96767
G0 F6000 X127.423 Y124.819
;TYPE:WALL-OUTER
G1 F1200 X127.422 Y134.679 E27.29561
G1 X92.573 Y134.68 E28.45469
G1 X92.573 Y124.818 E28.78271
G1 X127.423 Y124.819 E29.94182
G1 F2400 E23.44182
G1 F300 Z0.4
G0 F6000 X126.233 Y126.009 Z0.4
;TYPE:SKIN
G1 F300 Z0.2
G1 F2400 E29.94182
G1 F1200 X126.232 Y133.489 E30.19061
G1 X93.763 Y133.49 E31.27053
G1 X93.763 Y126.008 E31.51938
G1 X126.233 Y126.009 E32.59934
G0 F6000 X126.073 Y126.639
G1 F1200 X125.602 Y126.168 E32.62149
G0 F6000 X125.036 Y126.168
G1 F1200 X126.073 Y127.204 E32.67025
G0 F6000 X126.073 Y127.77
G1 F1200 X124.471 Y126.168 E32.7456
G0 F6000 X123.905 Y126.168
G1 F1200 X126.073 Y128.336 E32.84758
G0 F6000 X126.073 Y128.902
G1 F1200 X123.339 Y126.168 E32.97618
G0 F6000 X122.774 Y126.168
G1 F1200 X126.073 Y129.467 E33.13135
G0 F6000 X126.072 Y130.032
G1 F1200 X122.208 Y126.168 E33.3131
G0 F6000 X121.642 Y126.168
G1 F1200 X126.072 Y130.598 E33.52148
G0 F6000 X126.072 Y131.164
G1 F1200 X121.077 Y126.168 E33.75645
G0 F6000 X120.511 Y126.168
G1 F1200 X126.072 Y131.729 E34.01802
G0 F6000 X126.072 Y132.295
G1 F1200 X119.945 Y126.168 E34.30622
G0 F6000 X119.38 Y126.168
G1 F1200 X126.072 Y132.861 E34.62101
G0 F6000 X125.974 Y133.328
G1 F1200 X118.814 Y126.168 E34.9578
G0 F6000 X118.248 Y126.168
G1 F1200 X125.408 Y133.328 E35.29458
G0 F6000 X124.843 Y133.328
G1 F1200 X117.683 Y126.168 E35.63136
G0 F6000 X117.117 Y126.168
G1 F1200 X124.277 Y133.328 E35.96815
G0 F6000 X123.711 Y133.328
G1 F1200 X116.551 Y126.168 E36.30493
G0 F6000 X115.986 Y126.168
G1 F1200 X123.146 Y133.328 E36.64172
G0 F6000 X122.58 Y133.328
G1 F1200 X115.42 Y126.168 E36.9785
G0 F6000 X114.854 Y126.168
G1 F1200 X122.014 Y133.328 E37.31529
G0 F6000 X121.449 Y133.328
G1 F1200 X114.288 Y126.168 E37.65209
G0 F6000 X113.723 Y126.168
G1 F1200 X120.883 Y133.328 E37.98888
G0 F6000 X120.317 Y133.328
G1 F1200 X113.157 Y126.168 E38.32566
G0 F6000 X112.591 Y126.168
G1 F1200 X119.752 Y133.328 E38.66247
G0 F6000 X119.186 Y133.328
G1 F1200 X112.026 Y126.168 E38.99926
G0 F6000 X111.46 Y126.168
G1 F1200 X118.62 Y133.328 E39.33604
G0 F6000 X118.055 Y133.328
G1 F1200 X110.894 Y126.168 E39.67285
G0 F6000 X110.329 Y126.168
G1 F1200 X117.489 Y133.328 E40.00963
G0 F6000 X116.923 Y133.328
G1 F1200 X109.762 Y126.167 E40.34646
G0 F6000 X109.197 Y126.167
G1 F1200 X116.357 Y133.328 E40.68327
G0 F6000 X115.792 Y133.328
G1 F1200 X108.631 Y126.167 E41.0201
G0 F6000 X108.065 Y126.167
G1 F1200 X115.226 Y133.328 E41.35694
G0 F6000 X114.66 Y133.328
G1 F1200 X107.5 Y126.167 E41.69374
G0 F6000 X106.934 Y126.167
G1 F1200 X114.095 Y133.328 E42.03057
G0 F6000 X113.529 Y133.328
G1 F1200 X106.368 Y126.167 E42.36741
G0 F6000 X105.802 Y126.167
G1 F1200 X112.963 Y133.328 E42.70424
G0 F6000 X112.398 Y133.328
G1 F1200 X105.237 Y126.167 E43.04107
G0 F6000 X104.671 Y126.167
G1 F1200 X111.832 Y133.328 E43.3779
G0 F6000 X111.266 Y133.328
G1 F1200 X104.105 Y126.167 E43.71473
G0 F6000 X103.54 Y126.167
G1 F1200 X110.701 Y133.328 E44.05156
G0 F6000 X110.135 Y133.328
G1 F1200 X102.974 Y126.167 E44.3884
G0 F6000 X102.408 Y126.167
G1 F1200 X109.569 Y133.328 E44.72523
G0 F6000 X109.004 Y133.328
G1 F1200 X101.843 Y126.167 E45.06206
G0 F6000 X101.277 Y126.167
G1 F1200 X108.438 Y133.328 E45.39889
G0 F6000 X107.872 Y133.328
G1 F1200 X100.711 Y126.167 E45.73572
G0 F6000 X100.146 Y126.167
G1 F1200 X107.306 Y133.328 E46.07253
G0 F6000 X106.741 Y133.328
G1 F1200 X99.58 Y126.167 E46.40936
G0 F6000 X99.014 Y126.167
G1 F1200 X106.175 Y133.328 E46.74619
G0 F6000 X105.609 Y133.328
G1 F1200 X98.449 Y126.167 E47.083
G0 F6000 X97.883 Y126.167
G1 F1200 X105.044 Y133.328 E47.41983
G0 F6000 X104.478 Y133.328
G1 F1200 X97.317 Y126.167 E47.75666
G0 F6000 X96.752 Y126.167
G1 F1200 X103.912 Y133.328 E48.09347
